hanqing-shi/Humanoids-Motion-Generation/dataset/data_joint/walk/walk3_subject4_seg4.csv
root_x,root_y,root_z,root_qx,root_qy,root_qz,root_qw,left_hip_pitch_joint,left_hip_roll_joint,left_hip_yaw_joint,left_knee_joint,left_ankle_pitch_joint,left_ankle_roll_joint,right_hip_pitch_joint,right_hip_roll_joint,right_hip_yaw_joint,right_knee_joint,right_ankle_pitch_joint,right_ankle_roll_joint,waist_yaw_joint,waist_roll_joint,waist_pitch_joint,left_shoulder_pitch_joint,left_shoulder_roll_joint,left_shoulder_yaw_joint,left_elbow_joint,left_wrist_roll_joint,left_wrist_pitch_joint,left_wrist_yaw_joint,right_shoulder_pitch_joint,right_shoulder_roll_joint,right_shoulder_yaw_joint,right_elbow_joint,right_wrist_roll_joint,right_wrist_pitch_joint,right_wrist_yaw_joint
-2.488316,4.563233,0.742477,-0.097541,0.018351,0.994526,-0.032676,-0.066894,0.003595,-0.012141,1.084807,0.040276,-0.163798,-0.432725,-0.022896,-0.170053,0.901699,-0.604154,-0.080251,-0.076705,-0.019085,0.107203,0.251235,0.348849,-0.409871,-0.312371,0.553788,-0.300178,0.276708,0.501933,-0.330473,-0.076006,-0.106997,-1.543215,-0.09367,0.393974
-2.529776,4.562835,0.745837,-0.102546,0.015292,0.99418,-0.029285,-0.206721,-0.035363,-0.035645,1.23435,-0.063714,-0.074946,-0.355253,-0.010878,-0.168559,0.842074,-0.590565,-0.064497,-0.063969,-0.001872,0.116116,0.337463,0.324498,-0.354834,-0.235522,0.761394,-0.109279,0.206582,0.42029,-0.257379,-0.102208,-0.157524,-1.638469,-0.093697,0.295626
-2.57332,4.56125,0.754832,-0.110591,0.012605,0.993421,-0.026938,-0.362518,-0.067907,-0.035223,1.294033,-0.123014,-0.02547,-0.263771,0.000188,-0.162807,0.734891,-0.511678,-0.036917,-0.041733,0.010445,0.125836,0.431131,0.338503,-0.3315,-0.196812,1.12211,0.007484,0.066909,0.357848,-0.134231,-0.134813,-0.208979,-1.542088,-0.082335,0.150956
-2.619863,4.559146,0.765863,-0.117998,0.010109,0.992788,-0.018589,-0.500458,-0.083116,-0.010055,1.24573,-0.175076,0.000302,-0.16586,0.009615,-0.150201,0.612132,-0.37267,-0.000733,-0.014122,0.017015,0.133516,0.541006,0.35279,-0.317205,-0.196287,1.36085,-0.068565,-0.007115,0.309232,-0.054538,-0.112635,-0.249855,-1.316795,-0.072379,-0.002953
-2.669608,4.557345,0.774094,-0.123785,0.007627,0.99227,-0.004327,-0.60988,-0.073455,0.031825,1.117642,-0.202664,0.004753,-0.07745,0.015358,-0.12823,0.515608,-0.20993,0.050389,0.014972,0.018826,0.139198,0.67167,0.333055,-0.268296,-0.173572,1.369243,-0.175075,-0.028013,0.279125,-0.055109,-0.027112,-0.26836,-1.067301,-0.105323,-0.136381
-2.722293,4.556238,0.775928,-0.12719,0.003334,0.991789,0.012926,-0.691814,-0.04729,0.073024,0.94659,-0.209846,0.020757,-0.002439,0.016937,-0.107042,0.468803,-0.085344,0.124389,0.043913,0.017186,0.143451,0.797009,0.271806,-0.2065,-0.102612,1.126212,-0.218164,-0.018732,0.242601,-0.141603,0.080536,-0.278995,-0.940922,-0.145747,-0.24681
-2.777054,4.556028,0.776164,-0.126775,0.000701,0.991388,0.032812,-0.74779,-0.030059,0.082184,0.746351,-0.161344,0.009927,0.077325,0.004372,-0.09859,0.462564,-0.021393,0.21261,0.073704,0.011729,0.147651,0.893378,0.215508,-0.165395,0.013335,0.709373,-0.21513,0.009697,0.204021,-0.261222,0.186456,-0.291126,-0.973897,-0.169456,-0.324006
-2.832624,4.556152,0.768018,-0.122766,-0.000329,0.990921,0.054809,-0.783447,-0.026874,0.043197,0.548271,-0.052002,-0.020436,0.155281,-0.029431,-0.137379,0.489061,-0.001473,0.246295,0.10545,0.002293,0.152258,0.929397,0.238374,-0.169189,0.121372,0.414218,-0.164799,0.012272,0.164687,-0.356533,0.283842,-0.289553,-1.033225,-0.189629,-0.350075
-2.887235,4.556277,0.753274,-0.113938,0.003068,0.990669,0.074724,-0.790649,-0.007283,0.048353,0.409262,0.06843,-0.019474,0.23565,-0.095454,-0.204161,0.538218,0.005758,0.247694,0.13002,-0.009967,0.157607,0.932487,0.339421,-0.208012,0.202352,0.380416,-0.103189,0.027762,0.142132,-0.407439,0.360584,-0.261194,-1.017286,-0.204848,-0.323053
-2.938794,4.55624,0.732845,-0.098642,0.017315,0.991021,0.08858,-0.810472,0.00244,0.122179,0.58256,-0.016279,0.051042,0.292685,-0.181521,-0.230619,0.630037,0.001683,0.247362,0.141121,-0.029725,0.170371,0.896672,0.45011,-0.30325,0.266426,0.545758,-0.061653,0.00636,0.139039,-0.436175,0.395014,-0.216949,-0.974877,-0.200986,-0.281154
-2.985111,4.556809,0.720206,-0.081801,0.037929,0.992157,0.086571,-0.810186,-0.034432,0.158258,0.773198,-0.151477,0.075105,0.291846,-0.243669,-0.171918,0.797588,-0.00289,0.238774,0.140152,-0.063774,0.197264,0.808109,0.541092,-0.431228,0.345556,0.771252,-0.076078,-0.068331,0.15816,-0.430499,0.377801,-0.161269,-0.952229,-0.164002,-0.247737
-3.029848,4.55907,0.712426,-0.069686,0.057908,0.992881,0.07732,-0.770775,-0.0781,0.188794,0.880352,-0.277618,0.079398,0.220813,-0.223769,-0.044707,1.003036,0.011392,0.146294,0.133836,-0.098016,0.222931,0.640202,0.572395,-0.539404,0.49454,0.926953,-0.125004,-0.138091,0.197676,-0.373956,0.312499,-0.082871,-0.952964,-0.073597,-0.227209
-3.070656,4.561811,0.712643,-0.063445,0.070022,0.992826,0.073274,-0.710897,-0.108719,0.204314,0.913236,-0.351546,0.080781,0.09808,-0.141663,0.089226,1.206671,0.010045,0.166202,0.127384,-0.124734,0.238522,0.455344,0.559309,-0.574768,0.712847,1.086866,-0.101035,-0.19991,0.229525,-0.296249,0.260525,0.054069,-1.01065,0.081142,-0.207448
-3.109653,4.564768,0.722515,-0.061217,0.07662,0.992708,0.070087,-0.630584,-0.135593,0.206224,0.877929,-0.379197,0.081584,-0.034972,-0.039228,0.186875,1.352291,-0.029909,0.194092,0.119669,-0.144512,0.246011,0.30813,0.478109,-0.466001,0.885492,1.212867,0.160355,-0.185508,0.232998,-0.249297,0.263975,0.222032,-1.107842,0.27214,-0.07796
-3.148091,4.568353,0.734777,-0.061825,0.081164,0.992527,0.066927,-0.534054,-0.16241,0.197053,0.795427,-0.384125,0.081599,-0.176285,0.012268,0.228624,1.420607,-0.104392,0.197025,0.110467,-0.155728,0.24747,0.218489,0.326919,-0.21356,0.855263,1.183333,0.4054,0.074456,0.244301,-0.269795,0.316247,0.345856,-1.194604,0.350574,0.141267
-3.187204,4.572453,0.749083,-0.065454,0.08326,0.99245,0.061865,-0.427378,-0.186925,0.177002,0.680639,-0.353003,0.079568,-0.32157,0.002294,0.215021,1.403347,-0.171836,0.157905,0.098968,-0.16191,0.244308,0.178645,0.174945,0.000543,0.69804,0.97143,0.263158,0.265354,0.284972,-0.357139,0.391055,0.38092,-1.266878,0.218309,0.323003
-3.227515,4.577255,0.763381,-0.069225,0.08407,0.992551,0.054615,-0.323165,-0.204871,0.152445,0.56967,-0.288292,0.071798,-0.44283,-0.044582,0.156204,1.300616,-0.22687,0.10354,0.082848,-0.163714,0.237561,0.145271,0.150584,-0.009607,0.581544,0.847136,0.044108,0.197257,0.356786,-0.427316,0.413332,0.357479,-1.286063,0.032708,0.393616
-3.269247,4.582872,0.775541,-0.071943,0.082103,0.993071,0.043521,-0.228125,-0.211639,0.123058,0.483636,-0.214319,0.058341,-0.519653,-0.08402,0.079904,1.123663,-0.2606,0.076101,0.06236,-0.160835,0.228089,0.10747,0.220694,-0.121411,0.431491,0.90117,-0.102003,0.145274,0.438317,-0.44613,0.389518,0.341707,-1.225495,-0.060529,0.425524
-3.31239,4.588807,0.783577,-0.075028,0.076861,0.993779,0.029435,-0.139183,-0.206463,0.090805,0.414894,-0.156732,0.038089,-0.561085,-0.076542,0.047855,0.902505,-0.242544,0.06597,0.038903,-0.152852,0.214467,0.070263,0.295083,-0.218012,0.228826,1.058881,-0.177682,0.185194,0.525123,-0.450587,0.353925,0.327956,-1.124557,-0.076569,0.46379
-3.356895,4.594594,0.785742,-0.075878,0.069297,0.994624,0.012781,-0.046696,-0.192994,0.052586,0.357444,-0.128255,0.017503,-0.573276,-0.035965,0.090179,0.667973,-0.179095,0.096905,0.015072,-0.139351,0.198676,0.0446,0.324009,-0.279717,0.026301,1.174384,-0.197859,0.257224,0.612944,-0.456532,0.321416,0.306923,-1.03773,-0.065935,0.514447
-3.402276,4.599954,0.781748,-0.073803,0.059918,0.995465,-0.00356,0.049026,-0.171117,0.013114,0.314341,-0.135378,-0.00385,-0.565673,-0.003949,0.156309,0.478041,-0.12665,0.096773,-0.006733,-0.121653,0.183083,0.024388,0.31919,-0.331057,-0.141797,1.149944,-0.208986,0.323825,0.698271,-0.456757,0.279177,0.276562,-0.980384,-0.061941,0.55925
-3.448108,4.604951,0.773492,-0.065112,0.049729,0.996502,-0.016483,0.147727,-0.142903,-0.01901,0.297397,-0.166757,-0.009229,-0.548978,0.002148,0.164007,0.385675,-0.077078,0.056977,-0.023683,-0.101887,0.170775,0.010538,0.301278,-0.382235,-0.267131,0.98615,-0.243184,0.373003,0.775008,-0.446126,0.226372,0.246336,-0.960032,-0.060489,0.586897
-3.493348,4.609689,0.76298,-0.050889,0.036193,0.9978,-0.022277,0.233559,-0.105761,-0.037237,0.32401,-0.195688,-0.011117,-0.554277,0.017868,0.091829,0.529355,-0.132098,-0.004134,-0.034696,-0.081229,0.164041,0.004731,0.288507,-0.424687,-0.354047,0.74616,-0.303892,0.387569,0.823404,-0.425404,0.17831,0.225134,-0.969389,-0.053192,0.589661
-3.53667,4.614352,0.75122,-0.033748,0.025884,0.99897,-0.015842,0.280014,-0.077,-0.034242,0.434814,-0.194097,-0.02102,-0.550839,0.053539,0.057788,0.724478,-0.274562,-0.033497,-0.045181,-0.056648,0.16511,0.022332,0.27978,-0.42344,-0.407418,0.550883,-0.366029,0.363721,0.822787,-0.420088,0.149109,0.227071,-1.005907,-0.039223,0.567959
-3.579098,4.617704,0.744231,-0.022964,0.011685,0.999644,-0.006921,0.274056,-0.041778,-0.016572,0.587253,-0.100409,-0.080107,-0.499422,0.098383,0.042901,0.802247,-0.37426,-0.067606,-0.058625,-0.033412,0.164819,0.072848,0.264239,-0.368012,-0.426878,0.474484,-0.41313,0.348306,0.742782,-0.416105,0.153525,0.258929,-1.096648,-0.005832,0.524467
-3.621121,4.620819,0.744903,-0.015865,0.003757,0.999842,-0.007049,0.221877,-0.014154,-0.012605,0.78615,0.023761,-0.18735,-0.42218,0.122046,0.032478,0.818027,-0.446754,-0.083351,-0.072171,-0.013044,0.161235,0.142763,0.245637,-0.30775,-0.408833,0.486201,-0.389732,0.341193,0.619405,-0.411253,0.180084,0.31387,-1.277823,0.026343,0.450909
-3.661813,4.622935,0.749391,-0.012821,0.000353,0.999829,-0.013297,0.133292,-0.006166,-0.031092,0.969845,0.154892,-0.237804,-0.330894,0.126743,0.019891,0.77966,-0.474382,-0.089012,-0.07991,0.006944,0.155438,0.197249,0.237626,-0.287163,-0.327111,0.554362,-0.309758,0.334436,0.522633,-0.36096,0.162835,0.348508,-1.510066,0.07566,0.369877
-3.701812,4.623693,0.759391,-0.011632,0.000997,0.999755,-0.018782,0.039538,-0.040258,-0.066843,1.098031,0.251787,-0.242933,-0.234879,0.121005,0.009703,0.713053,-0.461115,-0.088563,-0.080109,0.022739,0.148606,0.233174,0.251121,-0.309565,-0.186116,0.630428,-0.192096,0.294557,0.473042,-0.201565,0.017892,0.313587,-1.587594,0.163204,0.290016
-3.740883,4.62294,0.7694,-0.012275,0.003696,0.999737,-0.019036,-0.047999,-0.074538,-0.072014,1.173915,0.227333,-0.246749,-0.146071,0.111045,0.007622,0.63869,-0.415113,-0.081523,-0.076906,0.032993,0.14092,0.244958,0.290443,-0.359743,-0.002838,0.699919,-0.051864,0.177519,0.423796,-0.008209,-0.130762,0.209839,-1.481365,0.193633,0.182614
-3.779798,4.621019,0.778762,-0.014397,0.005518,0.999812,-0.011793,-0.139249,-0.089772,-0.061106,1.21259,0.169595,-0.231402,-0.065057,0.103678,0.01884,0.566608,-0.345661,-0.066649,-0.070756,0.039306,0.134197,0.254353,0.343491,-0.430594,0.183388,0.80509,0.069913,-0.000301,0.347419,0.11917,-0.180713,0.11742,-1.280454,0.180997,0.093818
-3.818873,4.618378,0.786408,-0.01902,0.006008,0.999801,-0.000266,-0.237651,-0.070911,-0.016795,1.219398,0.116836,-0.172531,-0.000894,0.097226,0.039029,0.512846,-0.259609,-0.04024,-0.061627,0.043596,0.129634,0.260419,0.420586,-0.546924,0.353642,0.998493,0.095073,-0.189566,0.282053,0.140521,-0.121927,0.088187,-1.106771,0.103247,-0.014072
-3.85826,4.61565,0.790718,-0.026594,0.005911,0.999532,0.013906,-0.337433,-0.048316,0.028105,1.193949,0.031383,-0.105537,0.043596,0.091838,0.06606,0.485503,-0.178692,-0.01603,-0.046355,0.045408,0.126275,0.263929,0.465853,-0.661131,0.505829,1.169511,-0.004417,-0.330111,0.214691,0.081285,0.018721,0.081451,-1.025746,0.025373,-0.108256
-3.898244,4.613396,0.790517,-0.035595,0.006065,0.99894,0.028541,-0.434785,-0.044532,0.052891,1.139301,-0.070244,-0.053292,0.073259,0.08543,0.091306,0.485278,-0.118562,0.006014,-0.025145,0.04436,0.12551,0.309331,0.46297,-0.67302,0.607092,1.172512,-0.103652,-0.419648,0.147418,-0.021516,0.174721,0.05849,-1.039316,-0.074739,-0.153567
-3.939202,4.612163,0.785433,-0.042927,0.006209,0.998227,0.040765,-0.522733,-0.040965,0.069264,1.056058,-0.168487,-0.032237,0.103815,0.080057,0.112308,0.497084,-0.078097,0.021288,-0.001154,0.040008,0.128945,0.377926,0.454925,-0.627464,0.656785,1.073073,-0.163457,-0.475402,0.097483,-0.106566,0.285678,0.015374,-1.073293,-0.168582,-0.163427
-3.981575,4.612118,0.774972,-0.049559,0.005974,0.997493,0.050157,-0.597504,-0.036338,0.080557,0.942943,-0.274645,-0.038781,0.135996,0.077851,0.12984,0.523308,-0.060361,0.024604,0.022189,0.032098,0.135603,0.44969,0.465602,-0.589148,0.6531,0.955491,-0.200978,-0.509541,0.074897,-0.158487,0.35083,-0.033095,-1.059762,-0.244488,-0.165714
-4.025631,4.613363,0.760183,-0.053627,0.007378,0.997108,0.053343,-0.650421,-0.045534,0.078164,0.809332,-0.346473,-0.069542,0.183101,0.073436,0.137594,0.544931,-0.048212,0.026938,0.04315,0.018343,0.143984,0.511321,0.490075,-0.576054,0.60753,0.866491,-0.24252,-0.515595,0.075722,-0.191491,0.379259,-0.072263,-1.016848,-0.265576,-0.219164
-4.070426,4.615675,0.742575,-0.054607,0.015944,0.99712,0.050161,-0.678675,-0.065806,0.085324,0.707908,-0.312563,-0.104027,0.24093,0.057769,0.143106,0.564061,-0.036046,0.074268,0.059461,-0.001275,0.153103,0.540166,0.513269,-0.589315,0.561962,0.788945,-0.261573,-0.531539,0.101748,-0.226231,0.368396,-0.10027,-1.024817,-0.244163,-0.364489
-4.11496,4.618508,0.722478,-0.050023,0.026437,0.997512,0.042048,-0.689688,-0.089398,0.121439,0.822876,-0.296015,0.092881,0.282293,0.05364,0.164272,0.63433,-0.003241,0.169695,0.06853,-0.025427,0.163215,0.522887,0.53921,-0.630352,0.518076,0.741145,-0.27468,-0.532073,0.151623,-0.249705,0.334473,-0.081325,-1.1124,-0.173456,-0.521514
-4.15817,4.620831,0.71094,-0.040203,0.039818,0.997875,0.032292,-0.668709,-0.128471,0.13522,0.945531,-0.392826,0.112292,0.285485,0.055781,0.182104,0.790164,0.057,0.243534,0.074037,-0.051673,0.174918,0.4548,0.567184,-0.694016,0.471388,0.761874,-0.284054,-0.480113,0.213905,-0.260005,0.295645,0.015053,-1.229543,-0.057469,-0.537262
-4.200484,4.623465,0.702174,-0.032504,0.050592,0.997875,0.025071,-0.624881,-0.157417,0.145259,1.023757,-0.48525,0.119754,0.218803,0.053992,0.15847,1.003693,0.113058,0.247348,0.080247,-0.076492,0.187237,0.330208,0.591933,-0.753129,0.408367,0.936619,-0.309961,-0.355674,0.270159,-0.257761,0.257745,0.179876,-1.332272,0.067358,-0.332604
-4.241546,4.626314,0.699604,-0.030751,0.057802,0.997565,0.024038,-0.566695,-0.1719,0.152696,1.051364,-0.552328,0.121487,0.098332,0.028629,0.144416,1.207193,0.090991,0.245684,0.08231,-0.098758,0.195887,0.222662,0.580998,-0.720395,0.339264,1.213018,-0.270453,-0.202408,0.30153,-0.271871,0.253469,0.355507,-1.424767,0.102331,0.054016
-4.283396,4.628903,0.706394,-0.031286,0.064892,0.997119,0.023741,-0.482903,-0.189241,0.154658,1.020866,-0.586751,0.122117,-0.038076,-0.00023,0.147329,1.354134,-0.009901,0.205367,0.08012,-0.117547,0.199989,0.223609,0.461286,-0.524629,0.28715,1.349169,-0.182652,-0.028369,0.344247,-0.331722,0.298512,0.412612,-1.536866,-0.022169,0.407254
-4.326255,4.63135,0.716684,-0.032345,0.069876,0.996699,0.02574,-0.376097,-0.209084,0.142081,0.9374,-0.585221,0.119825,-0.173503,-0.031675,0.144941,1.422976,-0.125164,0.146585,0.076649,-0.132546,0.198743,0.255546,0.253856,-0.278316,0.187106,1.281326,-0.141436,0.150491,0.435603,-0.354799,0.297498,0.374217,-1.529122,-0.143998,0.571694
-4.370661,4.634004,0.730267,-0.035119,0.072689,0.996267,0.030594,-0.249644,-0.22724,0.119656,0.804874,-0.544059,0.117502,-0.298547,-0.054533,0.142351,1.408561,-0.214892,0.092948,0.071012,-0.142389,0.189977,0.253224,0.066333,-0.119023,0.071376,1.107135,-0.140349,0.332567,0.545129,-0.381978,0.281608,0.308524,-1.457538,-0.182195,0.575764
-4.416555,4.637574,0.745619,-0.038924,0.071282,0.996071,0.035292,-0.121406,-0.230796,0.098323,0.660049,-0.449616,0.11282,-0.394469,-0.057379,0.129492,1.309183,-0.284379,0.056548,0.062129,-0.145812,0.175114,0.232601,-0.042506,-0.067296,-0.020772,0.910723,-0.165842,0.508204,0.650128,-0.415099,0.287143,0.252783,-1.382906,-0.180475,0.516469
-4.463413,4.642269,0.760327,-0.044899,0.066172,0.996168,0.035432,-0.011477,-0.217728,0.083438,0.533968,-0.313972,0.093401,-0.460307,-0.058849,0.090372,1.13971,-0.313098,0.043483,0.048556,-0.142058,0.158217,0.205961,-0.058362,-0.095392,-0.083173,0.760508,-0.197453,0.607944,0.745724,-0.433443,0.288223,0.210943,-1.301598,-0.169355,0.456501
-4.510562,4.647795,0.771352,-0.052228,0.058517,0.99644,0.030907,0.073997,-0.193723,0.06677,0.442911,-0.176016,0.052284,-0.501238,-0.059143,0.032725,0.923791,-0.298948,0.055688,0.028096,-0.133594,0.141986,0.183622,-0.003675,-0.168521,-0.135091,0.662215,-0.226126,0.583516,0.826752,-0.42855,0.265089,0.181307,-1.201852,-0.15424,0.436716
-4.557527,4.653485,0.777011,-0.059722,0.050129,0.996699,0.022626,0.145778,-0.162947,0.049023,0.377727,-0.07308,-0.038021,-0.522597,-0.048944,-0.01972,0.684315,-0.241306,0.059102,0.000189,-0.121729,0.12764,0.170594,0.088312,-0.24587,-0.194764,0.609455,-0.240157,0.464717,0.886008,-0.409307,0.22581,0.149734,-1.102816,-0.138705,0.477303
-4.604328,4.658998,0.781623,-0.064838,0.040673,0.996969,0.013941,0.216335,-0.126007,0.045006,0.34311,-0.011448,-0.159025,-0.531618,-0.021894,-0.036785,0.468757,-0.171625,0.090784,-0.032685,-0.1064,0.116451,0.171799,0.187505,-0.304485,-0.27651,0.578544,-0.278482,0.356038,0.919937,-0.382287,0.176329,0.113491,-1.01955,-0.121923,0.552968
-4.650348,4.664123,0.777066,-0.067575,0.027805,0.997312,0.005359,0.2708,-0.085062,0.046583,0.350186,0.015933,-0.24316,-0.544013,0.017781,-0.013115,0.333065,-0.120869,0.100341,-0.065164,-0.087252,0.111082,0.192095,0.281593,-0.351187,-0.3591,0.526851,-0.333817,0.290384,0.923575,-0.34532,0.123452,0.081974,-0.969014,-0.11335,0.620274
-4.695128,4.668759,0.76521,-0.065774,0.010903,0.997775,0.000366,0.300629,-0.049129,0.058999,0.420051,0.034123,-0.247632,-0.57668,0.041867,-0.056823,0.410935,-0.049582,0.010079,-0.088426,-0.068163,0.114488,0.230261,0.375583,-0.396231,-0.435011,0.427995,-0.382717,0.239829,0.892745,-0.293889,0.07406,0.075278,-0.940635,-0.101367,0.638521
-4.73812,4.673207,0.749894,-0.054975,-0.001304,0.998484,-0.002293,0.293933,-0.015611,0.055228,0.595853,0.044625,-0.247806,-0.610259,0.070171,-0.081857,0.641731,-0.186643,-0.072136,-0.1032,-0.047013,0.130582,0.28376,0.452515,-0.453077,-0.466303,0.293353,-0.401118,0.173212,0.848727,-0.243996,0.023235,0.085457,-0.964219,-0.077271,0.579372
-4.779632,4.675548,0.73863,-0.044636,-0.016757,0.998862,-0.000767,0.242916,0.007836,-0.018549,0.804826,0.108266,-0.247804,-0.594109,0.099919,-0.108851,0.780406,-0.301861,-0.095751,-0.104772,-0.021493,0.15457,0.34261,0.492012,-0.482179,-0.440138,0.186829,-0.359794,0.074451,0.754036,-0.199809,-0.003622,0.123319,-1.052106,-0.021786,0.459952
-4.818985,4.675833,0.732894,-0.03683,-0.026429,0.998971,-0.001111,0.157049,-0.025439,-0.110201,0.999327,0.177648,-0.247658,-0.546691,0.116181,-0.123903,0.845793,-0.392279,-0.102128,-0.102815,0.003687,0.1749,0.383814,0.465406,-0.459982,-0.338237,0.159251,-0.258649,0.01765,0.616456,-0.196348,0.027834,0.168758,-1.267186,0.033101,0.289158
-4.855656,4.674754,0.734096,-0.032087,-0.030234,0.999021,-0.003753,0.051404,-0.063322,-0.142692,1.152253,0.144693,-0.247626,-0.479815,0.120031,-0.12992,0.846651,-0.438042,-0.098553,-0.099054,0.026399,0.187804,0.392222,0.427799,-0.394019,-0.180609,0.347107,-0.121212,0.090357,0.490641,-0.181035,0.07213,0.195937,-1.505564,0.051362,0.190427
-4.891359,4.672296,0.741191,-0.03151,-0.030787,0.999019,-0.004563,-0.06656,-0.102824,-0.196836,1.243189,0.022467,-0.243473,-0.400929,0.120808,-0.123699,0.799947,-0.450254,-0.089693,-0.086018,0.045043,0.196812,0.387472,0.456103,-0.397973,-0.050223,0.884199,0.055769,0.163535,0.39706,-0.089593,0.017367,0.181654,-1.514715,0.021264,0.09433
-4.927409,4.668873,0.754067,-0.035533,-0.032444,0.998829,-0.005024,-0.20153,-0.082045,-0.177157,1.270176,-0.079402,-0.172092,-0.316675,0.124018,-0.114369,0.72039,-0.432054,-0.081583,-0.070789,0.053773,0.203537,0.433393,0.502752,-0.438964,0.018981,1.36682,0.002481,0.01899,0.321059,-0.003549,-0.028936,0.137206,-1.339829,-0.030926,-0.017869
-4.964068,4.665086,0.766786,-0.041209,-0.03298,0.998597,-0.004261,-0.327255,-0.034539,-0.116132,1.22407,-0.142545,-0.073575,-0.233854,0.123038,-0.105334,0.63071,-0.375096,-0.06989,-0.050499,0.056166,0.206932,0.546457,0.4585,-0.387727,0.004097,1.401734,-0.121303,-0.152341,0.274746,-0.002578,0.005013,0.079732,-1.11632,-0.09006,-0.118793
-5.002061,4.661308,0.778301,-0.048061,-0.031232,0.998347,-0.004299,-0.422929,-0.00418,-0.058867,1.105693,-0.197575,-0.021525,-0.159439,0.114098,-0.100047,0.553065,-0.296876,-0.048598,-0.02425,0.056773,0.205269,0.657354,0.425336,-0.320978,-0.030935,1.24624,-0.150341,-0.231634,0.253259,-0.071991,0.081621,-0.005661,-1.013204,-0.124274,-0.21246
-5.041814,4.657789,0.786625,-0.055865,-0.030581,0.997963,-0.003794,-0.490223,0.001149,-0.027935,0.929766,-0.215441,-0.009321,-0.094457,0.107176,-0.093732,0.492974,-0.210826,-0.022742,0.003183,0.055837,0.200201,0.737142,0.463668,-0.29753,-0.087271,1.151732,-0.164911,-0.155819,0.23543,-0.165808,0.152939,-0.110992,-1.038733,-0.14992,-0.292575
-5.083206,4.654637,0.789723,-0.064804,-0.028851,0.99748,-0.001055,-0.533339,-0.007685,-0.02535,0.71247,-0.203991,-0.030534,-0.035674,0.101188,-0.077343,0.447056,-0.144028,0.003098,0.028499,0.05309,0.192502,0.80743,0.517255,-0.299273,-0.125642,1.073999,-0.176542,-0.024425,0.227195,-0.234314,0.207331,-0.197621,-1.030603,-0.185018,-0.332137
-5.126115,4.651777,0.786662,-0.071876,-0.027535,0.997032,0.001609,-0.558443,-0.013174,-0.038986,0.497804,-0.201811,-0.08572,0.024752,0.096619,-0.059095,0.417948,-0.108777,0.02245,0.050612,0.048318,0.183244,0.864394,0.567772,-0.311807,-0.131548,0.979133,-0.172371,0.057716,0.228521,-0.282807,0.240206,-0.248375,-0.958623,-0.222695,-0.358318
-5.170005,4.649055,0.778783,-0.073504,-0.02306,0.997027,0.001582,-0.564509,-0.015857,-0.032873,0.335985,-0.194739,-0.123228,0.101998,0.085281,-0.045399,0.391051,-0.104309,0.035718,0.068509,0.04039,0.174864,0.894696,0.614071,-0.339213,-0.119794,0.864222,-0.179441,0.069442,0.241664,-0.330829,0.245845,-0.269132,-0.885429,-0.231521,-0.363306
-5.213617,4.646281,0.768447,-0.071438,-0.012046,0.997372,-0.00105,-0.564629,-0.026165,0.019977,0.281492,-0.107226,-0.162805,0.185389,0.060018,-0.037021,0.368007,-0.107597,0.048402,0.081518,0.027011,0.168549,0.881909,0.653089,-0.377776,-0.099545,0.75298,-0.181857,0.020449,0.263521,-0.380136,0.230343,-0.277289,-0.849025,-0.20628,-0.341447
-5.256555,4.643512,0.756473,-0.063574,0.007954,0.997942,-0.00261,-0.565839,-0.075681,0.050132,0.395825,-0.042425,0.025812,0.255381,0.01694,-0.019802,0.39104,-0.104316,0.079831,0.095887,0.002964,0.167443,0.810563,0.680037,-0.439033,-0.08124,0.665503,-0.184979,-0.077922,0.296547,-0.417162,0.201872,-0.27041,-0.849997,-0.145759,-0.299688
-5.297181,4.640835,0.746756,-0.052273,0.031019,0.99803,-0.01555,-0.571059,-0.139652,0.066428,0.563157,-0.14666,0.08952,0.272854,-0.022163,0.00779,0.523253,-0.080285,0.129016,0.110388,-0.030574,0.178974,0.684234,0.709682,-0.50225,-0.034896,0.648151,-0.231406,-0.155519,0.346214,-0.422988,0.155911,-0.242806,-0.862978,-0.077665,-0.269016
-5.337778,4.639998,0.741369,-0.043218,0.048857,0.997591,-0.023611,-0.545789,-0.180018,0.081878,0.675277,-0.254699,0.105264,0.231851,-0.039426,0.039749,0.734725,0.000186,0.15886,0.12529,-0.062445,0.192582,0.525961,0.701277,-0.531744,0.077788,0.72519,-0.273823,-0.141469,0.399679,-0.396561,0.126321,-0.165352,-0.886242,-0.003017,-0.280783
-5.376307,4.639728,0.739312,-0.03654,0.057423,0.997526,-0.017589,-0.492062,-0.18826,0.100176,0.718443,-0.330823,0.107174,0.141402,-0.04085,0.078351,0.953911,0.101583,0.198372,0.132449,-0.089322,0.200339,0.387948,0.672919,-0.527232,0.185035,1.100099,-0.227858,-0.047045,0.398159,-0.372073,0.16285,-0.017936,-0.909603,0.109309,-0.23494
-5.413591,4.640282,0.741336,-0.031737,0.062743,0.997468,-0.010701,-0.42018,-0.191216,0.110808,0.709722,-0.370013,0.105119,0.037257,-0.032607,0.103995,1.133553,0.174777,0.244111,0.130775,-0.112595,0.203315,0.327228,0.542566,-0.440794,0.279752,1.444112,-0.158911,-0.050571,0.365058,-0.395266,0.265192,0.14046,-0.980993,0.236207,-0.019112
-5.450674,4.641536,0.746467,-0.02986,0.064998,0.997388,-0.009999,-0.341964,-0.197207,0.103428,0.672921,-0.383043,0.101489,-0.066545,0.006981,0.132824,1.25689,0.142818,0.246359,0.126065,-0.129782,0.201716,0.336111,0.291316,-0.191313,0.274036,1.448553,-0.124117,-0.030569,0.359764,-0.477196,0.393188,0.255678,-1.157041,0.186605,0.274563
-5.488414,4.643548,0.755624,-0.030208,0.066293,0.997261,-0.012766,-0.264884,-0.20257,0.088258,0.629034,-0.371045,0.095748,-0.174142,0.022157,0.133181,1.326796,0.078058,0.24104,0.122145,-0.139558,0.197819,0.325889,0.080119,-0.001627,0.206835,1.273629,-0.172059,0.067208,0.388188,-0.537895,0.475989,0.281432,-1.328214,0.012058,0.468016
-5.526683,4.645965,0.763792,-0.032013,0.066866,0.997104,-0.016966,-0.193488,-0.204614,0.069488,0.587245,-0.33253,0.085562,-0.278809,-0.00774,0.100995,1.340779,0.010471,0.220298,0.116262,-0.144574,0.192161,0.300104,-0.029578,0.04562,0.140059,1.071859,-0.241808,0.212306,0.462065,-0.539608,0.4518,0.263605,-1.344933,-0.099138,0.578808
-5.565656,4.648609,0.770808,-0.033671,0.067266,0.996904,-0.022904,-0.12379,-0.204983,0.046877,0.547147,-0.281541,0.072626,-0.36802,-0.057142,0.052293,1.29715,-0.084688,0.161801,0.105137,-0.146644,0.185591,0.27965,-0.061737,-0.015437,0.093821,0.888929,-0.277033,0.351209,0.557234,-0.517083,0.391393,0.241405,-1.277048,-0.111792,0.625903
-5.605328,4.651449,0.776022,-0.036133,0.067411,0.996596,-0.030773,-0.057593,-0.203514,0.019133,0.510791,-0.228408,0.061367,-0.436461,-0.104656,-0.003824,1.200637,-0.166019,0.107588,0.089288,-0.146815,0.178357,0.258631,-0.027413,-0.132769,0.047981,0.764912,-0.301285,0.423156,0.643764,-0.485283,0.335792,0.227396,-1.175584,-0.097016,0.634418
-5.645616,4.65434,0.778797,-0.039398,0.065303,0.996312,-0.039313,0.005783,-0.195599,-0.012383,0.478765,-0.181453,0.050732,-0.484648,-0.124342,-0.047875,1.054899,-0.22343,0.060414,0.069482,-0.144243,0.170206,0.234744,0.048518,-0.252288,-0.004493,0.709953,-0.324347,0.377677,0.704924,-0.447727,0.282597,0.229446,-1.071367,-0.091122,0.623025
-5.68639,4.656987,0.777951,-0.043809,0.061944,0.996093,-0.045193,0.06616,-0.182442,-0.038103,0.452344,-0.146865,0.042661,-0.524409,-0.106357,-0.047679,0.880382,-0.247056,0.045724,0.04762,-0.137884,0.161369,0.216389,0.126171,-0.334259,-0.071844,0.696556,-0.35911,0.277727,0.722301,-0.413312,0.232367,0.253744,-0.976759,-0.077849,0.614479
-5.727636,4.65916,0.772748,-0.047376,0.05582,0.996195,-0.047288,0.127611,-0.161467,-0.05353,0.433384,-0.125709,0.030867,-0.551188,-0.058523,-0.003117,0.703216,-0.240557,0.044595,0.026381,-0.127458,0.152026,0.2042,0.178097,-0.37087,-0.130716,0.70606,-0.411396,0.196349,0.716088,-0.384944,0.188363,0.27607,-0.917304,-0.051432,0.605146
-5.769096,4.660676,0.763452,-0.048935,0.04556,0.996839,-0.042913,0.188585,-0.133856,-0.057646,0.425171,-0.102222,0.011557,-0.565098,-0.022321,0.002129,0.607862,-0.192702,-0.006289,0.010427,-0.114501,0.142905,0.214711,0.20024,-0.371014,-0.161763,0.710928,-0.455337,0.180868,0.680124,-0.365812,0.165477,0.292687,-0.915267,-0.025685,0.580828
-5.809593,4.66246,0.752497,-0.043788,0.042374,0.997695,-0.029877,0.231681,-0.123276,-0.050023,0.481322,-0.081383,-0.023753,-0.577118,-0.001814,-0.024157,0.748483,-0.283641,-0.095383,0.001216,-0.101693,0.137455,0.25714,0.200116,-0.347052,-0.160302,0.743579,-0.439733,0.223194,0.621112,-0.367089,0.164819,0.317062,-0.975917,0.012701,0.5314
-5.848999,4.663783,0.742958,-0.035899,0.032383,0.998701,-0.016069,0.237341,-0.107968,-0.054083,0.600037,-0.026521,-0.100591,-0.546776,0.038354,-0.025122,0.841189,-0.382228,-0.109383,-0.006869,-0.086726,0.135762,0.309023,0.195718,-0.31499,-0.131051,0.817938,-0.378247,0.289938,0.521049,-0.368804,0.215078,0.353565,-1.112456,0.036647,0.458088
-5.888622,4.664541,0.740105,-0.031355,0.022206,0.999239,-0.006659,0.205874,-0.097716,-0.071168,0.770437,0.052289,-0.194665,-0.495703,0.067497,-0.033321,0.887854,-0.454865,-0.112968,-0.012793,-0.068083,0.134016,0.351095,0.17736,-0.290373,-0.0453,0.885471,-0.284387,0.334061,0.403631,-0.373117,0.292513,0.385532,-1.324229,0.035962,0.379065
-5.926649,4.664356,0.741474,-0.03039,0.015355,0.999417,-0.002518,0.128418,-0.100186,-0.089985,0.948452,0.139776,-0.24142,-0.430383,0.081795,-0.03967,0.882759,-0.489687,-0.110183,-0.014587,-0.04791,0.134306,0.383245,0.157798,-0.283958,0.082713,0.926008,-0.180372,0.31014,0.32219,-0.349743,0.302621,0.380666,-1.502908,0.03374,0.316582
-5.964198,4.663201,0.75016,-0.033594,0.011466,0.999367,0.002381,0.029172,-0.101668,-0.088017,1.091867,0.196975,-0.244527,-0.358708,0.089249,-0.03865,0.841804,-0.490848,-0.107826,-0.011014,-0.031483,0.13619,0.445019,0.169459,-0.285956,0.140653,0.926437,-0.115815,0.235308,0.276099,-0.257094,0.21623,0.321904,-1.51581,0.045464,0.227618
-6.001112,4.661135,0.760278,-0.038637,0.008844,0.999163,0.010123,-0.075205,-0.117466,-0.099762,1.18268,0.159873,-0.222436,-0.278338,0.095155,-0.026398,0.763508,-0.460181,-0.102785,-0.002595,-0.020659,0.137932,0.53382,0.220523,-0.292497,0.114072,0.873079,-0.140861,0.195189,0.250501,-0.164323,0.150086,0.219528,-1.401334,0.040586,0.111347
-6.038162,4.658591,0.772002,-0.045366,0.006864,0.998848,0.014034,-0.184908,-0.130623,-0.114193,1.223225,0.092656,-0.185042,-0.193412,0.093617,-0.01861,0.661984,-0.390165,-0.088475,0.009508,-0.013947,0.138883,0.628396,0.289754,-0.302732,0.061265,0.792342,-0.18938,0.146366,0.242071,-0.11557,0.144105,0.105724,-1.207825,0.002741,-0.031284
-6.076001,4.655744,0.783846,-0.053434,0.005315,0.998487,0.011811,-0.293553,-0.139201,-0.127954,1.214861,0.035591,-0.132247,-0.113613,0.084694,-0.022317,0.560418,-0.279244,-0.061057,0.024552,-0.00934,0.139796,0.7096,0.362398,-0.309913,0.015859,0.686111,-0.230232,0.079624,0.250711,-0.119618,0.179253,0.002944,-1.021741,-0.06511,-0.167915
-6.11485,4.652844,0.792728,-0.06171,0.005641,0.998032,0.009623,-0.393678,-0.142467,-0.129261,1.156899,-0.016833,-0.083046,-0.050924,0.071928,-0.025803,0.490454,-0.161913,-0.021142,0.041652,-0.007582,0.143172,0.768697,0.423987,-0.309748,-0.022643,0.577406,-0.26426,0.042727,0.253705,-0.176838,0.226979,-0.088324,-0.941796,-0.14139,-0.281409
-6.154458,4.650476,0.796131,-0.067975,0.005477,0.997637,0.008389,-0.475717,-0.131273,-0.107398,1.056643,-0.069558,-0.039185,-0.001627,0.063084,-0.026032,0.457858,-0.067657,0.026608,0.059473,-0.008667,0.15088,0.800245,0.47058,-0.306125,-0.048897,0.487418,-0.266377,0.04224,0.253569,-0.240576,0.263353,-0.158862,-0.927764,-0.209837,-0.361175
-6.194507,4.648805,0.792759,-0.073753,0.005607,0.997209,0.010163,-0.54311,-0.110789,-0.065056,0.921786,-0.112593,-0.019903,0.03334,0.055746,-0.022594,0.464544,-0.022697,0.088665,0.077173,-0.013059,0.159734,0.821328,0.511061,-0.30188,-0.062694,0.42222,-0.265644,0.061377,0.255629,-0.285474,0.290593,-0.18914,-0.880864,-0.259418,-0.394343
-6.235258,4.647767,0.783042,-0.077605,0.007062,0.99687,0.013353,-0.592926,-0.091822,-0.01101,0.762099,-0.128447,-0.021456,0.063765,0.04441,-0.025495,0.502383,-0.019989,0.160594,0.094062,-0.020626,0.166693,0.830589,0.543813,-0.300373,-0.059378,0.382889,-0.253449,0.078427,0.265368,-0.317348,0.310387,-0.175667,-0.785405,-0.263281,-0.372217
-6.276817,4.647013,0.768268,-0.080285,0.009716,0.996589,0.016433,-0.622453,-0.081255,0.04878,0.601356,-0.130682,-0.031882,0.092439,0.028209,-0.032783,0.564657,-0.046118,0.238039,0.109019,-0.03051,0.171883,0.816908,0.568417,-0.304691,-0.043326,0.378715,-0.231954,0.079238,0.276023,-0.345692,0.313984,-0.140129,-0.695151,-0.22142,-0.31359
-6.318637,4.646036,0.753342,-0.080062,0.019522,0.996365,0.021561,-0.625126,-0.07016,0.158881,0.566389,-0.133138,0.084747,0.122635,0.009968,-0.05272,0.644341,-0.053069,0.24743,0.122078,-0.040912,0.176836,0.774782,0.56722,-0.323991,-0.013706,0.395431,-0.21055,0.061497,0.286721,-0.375016,0.300297,-0.097385,-0.644204,-0.153784,-0.246341
-6.358676,4.643995,0.739934,-0.070855,0.028114,0.996632,0.030228,-0.625325,-0.078112,0.192222,0.723,-0.27882,0.140645,0.129962,-0.016442,-0.077912,0.78465,-0.038086,0.247814,0.139602,-0.052843,0.18628,0.709594,0.560955,-0.348155,0.035165,0.447043,-0.192103,0.037793,0.301141,-0.38814,0.276678,-0.038272,-0.632386,-0.071518,-0.178943
-6.398459,4.643494,0.727758,-0.058884,0.038018,0.997188,0.026533,-0.606978,-0.098642,0.205154,0.856909,-0.385585,0.141426,0.106488,-0.051185,-0.065972,0.961166,0.016849,0.247803,0.149872,-0.06794,0.201851,0.592957,0.551958,-0.37441,0.112744,0.582975,-0.164425,0.02617,0.30615,-0.379706,0.240692,0.055344,-0.696353,0.026361,-0.154672
-6.43716,4.644237,0.721665,-0.051329,0.046005,0.997348,0.023375,-0.559693,-0.112796,0.216685,0.921322,-0.46202,0.134983,0.041282,-0.065018,0.017139,1.133447,0.043615,0.24748,0.148632,-0.087431,0.212314,0.468464,0.516319,-0.358395,0.19421,0.804931,-0.114896,0.017348,0.294175,-0.366008,0.256319,0.202534,-0.873304,0.187299,-0.103068
-6.475247,4.645085,0.725394,-0.046823,0.054758,0.99713,0.023275,-0.494387,-0.135334,0.218441,0.926935,-0.489152,0.127931,-0.050416,-0.092017,0.068673,1.27968,-0.016422,0.244185,0.140556,-0.107626,0.216889,0.39068,0.366598,-0.260676,0.272724,0.921597,-0.030022,-0.014593,0.266822,-0.433979,0.398744,0.345389,-1.222687,0.294284,0.236002
-6.513511,4.646425,0.732552,-0.043561,0.062659,0.996959,0.015798,-0.410782,-0.167446,0.202345,0.882709,-0.476685,0.121919,-0.154048,-0.109716,0.095565,1.370631,-0.080941,0.190242,0.130701,-0.125595,0.218149,0.334994,0.152069,-0.079401,0.268519,0.780786,0.055557,0.025023,0.283678,-0.474424,0.489733,0.358698,-1.397274,0.15026,0.593521
-6.552538,4.648409,0.74311,-0.042615,0.067024,0.996818,0.006779,-0.318126,-0.19531,0.168171,0.80803,-0.426404,0.109846,-0.257325,-0.121477,0.105931,1.390066,-0.131883,0.130078,0.118104,-0.138707,0.21618,0.275749,-0.017315,0.051808,0.221512,0.504641,0.047361,0.138616,0.355281,-0.472615,0.475756,0.271486,-1.359911,-0.034327,0.738533
-6.592452,4.651155,0.755117,-0.042423,0.067993,0.996777,-0.003626,-0.228019,-0.211469,0.123882,0.732202,-0.344069,0.089326,-0.347307,-0.128524,0.104457,1.342004,-0.185007,0.103921,0.101885,-0.146143,0.210952,0.23007,-0.083553,0.04468,0.181721,0.282137,-0.031415,0.205955,0.453347,-0.460283,0.40239,0.184083,-1.209711,-0.111709,0.743826
-6.633393,4.654631,0.766193,-0.043854,0.066665,0.996648,-0.01806,-0.148211,-0.212163,0.083899,0.668879,-0.245563,0.063671,-0.423527,-0.134773,0.092159,1.242821,-0.231421,0.088249,0.082102,-0.148385,0.203654,0.198929,-0.035858,-0.059694,0.149069,0.308855,-0.113437,0.262567,0.548837,-0.460264,0.342018,0.1199,-1.111798,-0.062185,0.70268
-6.675137,4.658576,0.773891,-0.045508,0.061695,0.996389,-0.036493,-0.078327,-0.199439,0.040634,0.625967,-0.163543,0.038134,-0.47767,-0.142011,0.06836,1.097355,-0.253212,0.0668,0.059169,-0.145323,0.195539,0.174518,0.050418,-0.180266,0.104381,0.463277,-0.176163,0.27441,0.625971,-0.462508,0.306785,0.063819,-1.079653,-0.030004,0.647764
-6.717366,4.662434,0.776551,-0.047013,0.055278,0.995725,-0.057155,-0.021783,-0.177338,0.002358,0.612991,-0.110075,0.011658,-0.514274,-0.152098,0.043285,0.919786,-0.258364,0.059034,0.032678,-0.13717,0.187921,0.152737,0.130393,-0.2831,0.047521,0.630301,-0.253039,0.229157,0.686606,-0.448338,0.256811,0.023471,-1.064379,-0.021232,0.593731
-6.759777,4.665589,0.773866,-0.047792,0.047311,0.994648,-0.078435,0.025802,-0.140695,-0.010271,0.626465,-0.089993,-0.016696,-0.541801,-0.150583,0.042207,0.734041,-0.217395,0.073874,0.00344,-0.125331,0.181118,0.143229,0.178075,-0.356311,0.000184,0.698365,-0.338419,0.169825,0.727632,-0.420229,0.19368,0.00101,-1.037415,-0.013348,0.56287
-6.801872,4.667594,0.767651,-0.046623,0.036955,0.993423,-0.097831,0.070191,-0.089303,-0.000412,0.657164,-0.088784,-0.060266,-0.557295,-0.136754,0.065751,0.571864,-0.113366,0.105356,-0.024099,-0.10963,0.174478,0.14818,0.201033,-0.415796,-0.017553,0.629834,-0.404721,0.095215,0.741602,-0.392486,0.137576,-0.010329,-1.006465,-0.014726,0.530154
-6.843002,4.669083,0.761479,-0.042595,0.022186,0.992681,-0.110806,0.11574,-0.020579,0.037793,0.714622,-0.095188,-0.105949,-0.564874,-0.130982,0.029443,0.585132,-0.107848,0.114234,-0.04133,-0.091305,0.168142,0.15914,0.238596,-0.43505,-0.046904,0.591208,-0.41051,0.055201,0.718887,-0.373498,0.106604,-0.001343,-0.973159,-0.007761,0.489777
-6.881338,4.669624,0.750991,-0.033091,0.013338,0.992541,-0.116578,0.146305,0.050759,0.087933,0.813984,-0.102134,-0.165634,-0.568816,-0.116092,-0.004242,0.752468,-0.245963,0.076518,-0.04902,-0.071791,0.168715,0.17175,0.276329,-0.410419,-0.088764,0.749146,-0.361628,0.089592,0.671037,-0.371259,0.095026,0.019427,-0.962524,0.019313,0.432619
-6.917305,4.667906,0.74205,-0.025731,0.000922,0.992916,-0.115995,0.142354,0.114533,0.1225,0.936974,-0.105199,-0.160723,-0.551025,-0.095427,-0.038304,0.861827,-0.34093,0.067759,-0.046983,-0.045807,0.175111,0.202126,0.284119,-0.378298,-0.097523,1.025257,-0.249405,0.119176,0.575446,-0.370725,0.108201,0.071416,-1.007958,0.053881,0.331461
-6.949998,4.66331,0.739491,-0.020459,-0.008625,0.992799,-0.117715,0.101584,0.11966,0.104604,1.046144,-0.135217,-0.10719,-0.507512,-0.082502,-0.060942,0.905173,-0.3941,0.067447,-0.037959,-0.018398,0.181342,0.24458,0.246722,-0.37313,-0.015406,1.272489,-0.106202,0.076416,0.473876,-0.34044,0.113242,0.143694,-1.116995,0.119355,0.17559
-6.980491,4.65665,0.747199,-0.017791,-0.012933,0.991775,-0.12609,0.032837,0.074736,0.05707,1.126185,-0.170833,-0.09815,-0.44408,-0.082137,-0.075776,0.895018,-0.409502,0.074402,-0.023362,0.005359,0.185809,0.292686,0.21042,-0.377277,0.087321,1.382594,-0.021469,-0.05295,0.421964,-0.253343,0.069601,0.16973,-1.200168,0.23296,0.023653
-7.009023,4.648418,0.757661,-0.019718,-0.016318,0.989873,-0.139632,-0.055027,0.013805,0.008661,1.16357,-0.19996,-0.085439,-0.369736,-0.085954,-0.093103,0.835679,-0.388127,0.090581,-0.009294,0.022449,0.188509,0.356656,0.214834,-0.368753,0.10158,1.339358,-0.038983,-0.112979,0.392031,-0.098195,-0.016856,0.103733,-1.051145,0.295929,-0.128124
-7.036654,4.638816,0.770454,-0.0246,-0.01895,0.987626,-0.153725,-0.148702,-0.037595,-0.011441,1.151931,-0.214482,-0.055168,-0.29355,-0.092021,-0.114446,0.751295,-0.328237,0.108389,0.000491,0.03279,0.186546,0.446637,0.269596,-0.356798,0.047474,1.244987,-0.086623,-0.088671,0.37862,0.014007,-0.04532,0.025892,-0.77251,0.229157,-0.221764
-7.064211,4.628036,0.783595,-0.029465,-0.02086,0.985101,-0.168147,-0.227377,-0.060015,0.009247,1.085856,-0.222777,-0.033898,-0.220795,-0.101759,-0.142929,0.667003,-0.237011,0.133482,0.0095,0.039369,0.181393,0.535898,0.33862,-0.350427,0.006538,1.121099,-0.116488,-0.059644,0.387188,0.025771,0.007868,-0.020431,-0.544897,0.112192,-0.217067
-7.092185,4.616349,0.794521,-0.034653,-0.02341,0.982437,-0.181847,-0.295333,-0.069698,0.046474,0.983158,-0.211594,-0.024765,-0.158768,-0.105517,-0.158481,0.59789,-0.135941,0.17324,0.01921,0.044308,0.174954,0.611735,0.406314,-0.35155,-0.019675,0.986663,-0.129389,-0.034656,0.392759,-0.049953,0.100129,-0.047106,-0.492082,0.006799,-0.164422
-7.121064,4.604043,0.801023,-0.039158,-0.027242,0.979841,-0.194,-0.349369,-0.075032,0.082208,0.85246,-0.184438,-0.028018,-0.103871,-0.099655,-0.156826,0.548262,-0.053299,0.224244,0.030322,0.047745,0.167144,0.6671,0.481869,-0.358121,-0.03817,0.881448,-0.135377,-0.011577,0.380735,-0.149016,0.185477,-0.073551,-0.571079,-0.068161,-0.117045
-7.150946,4.591617,0.802205,-0.042038,-0.032136,0.977327,-0.205018,-0.394716,-0.086231,0.096273,0.707602,-0.150425,-0.007017,-0.051229,-0.080267,-0.146732,0.516626,-0.002864,0.246661,0.043455,0.04953,0.158346,0.705701,0.563234,-0.366503,-0.04902,0.813248,-0.138696,-0.004904,0.35638,-0.234886,0.257222,-0.103701,-0.679444,-0.119486,-0.066915
-7.181678,4.5791,0.797609,-0.042835,-0.037272,0.975159,-0.214104,-0.433119,-0.100399,0.087326,0.56025,-0.143005,0.004385,0.001197,-0.054861,-0.150222,0.505065,0.009459,0.247785,0.058981,0.0506,0.148197,0.729972,0.635952,-0.376039,-0.048065,0.759326,-0.146935,-0.016676,0.33263,-0.294669,0.313765,-0.1331,-0.745783,-0.150424,-0.020318
-7.212834,4.566279,0.787511,-0.041918,-0.042676,0.973477,-0.220828,-0.462157,-0.108844,0.089698,0.420993,-0.124685,0.020931,0.04864,-0.022165,-0.155036,0.521275,-0.017022,0.247824,0.074339,0.052134,0.137723,0.733174,0.691055,-0.389706,-0.030853,0.720455,-0.146718,-0.050976,0.318022,-0.328622,0.359038,-0.151688,-0.74058,-0.158133,0.026328
-7.243645,4.552821,0.774069,-0.04112,-0.045641,0.971867,-0.227377,-0.479363,-0.103161,0.166494,0.325725,-0.030561,0.102435,0.083652,0.012135,-0.143921,0.567043,-0.043931,0.247799,0.085394,0.055282,0.128243,0.721129,0.734089,-0.404375,-0.008648,0.691341,-0.157949,-0.094124,0.313346,-0.344528,0.383422,-0.163504,-0.685784,-0.153795,0.072102
-7.272916,4.537958,0.757507,-0.034408,-0.045829,0.970971,-0.232229,-0.491403,-0.084422,0.232829,0.44197,-0.129739,0.240989,0.106733,0.043939,-0.10234,0.662779,-0.065741,0.247758,0.099213,0.057876,0.121628,0.681874,0.775866,-0.42879,0.022439,0.712181,-0.171935,-0.137754,0.32105,-0.339625,0.381853,-0.159231,-0.612796,-0.142876,0.107067
-7.297871,4.52226,0.750257,-0.03053,-0.035069,0.969442,-0.240874,-0.501133,-0.108159,0.233133,0.568249,-0.215136,0.247527,0.098071,0.044791,-0.042056,0.815324,-0.048805,0.247831,0.115567,0.053628,0.121891,0.560863,0.806596,-0.495222,0.068095,0.868342,-0.197301,-0.164177,0.318078,-0.318598,0.33704,-0.129506,-0.570656,-0.118988,0.125877
-7.322499,4.50643,0.744228,-0.024157,-0.029837,0.965237,-0.258541,-0.498371,-0.128374,0.222596,0.680995,-0.279001,0.247757,0.067389,0.049398,0.028271,0.967535,0.000569,0.247828,0.123224,0.04481,0.123714,0.394985,0.805512,-0.545305,0.173569,1.135396,-0.213915,-0.180195,0.303846,-0.249812,0.26598,-0.038069,-0.582849,-0.092012,0.104162
-7.345753,4.489107,0.743584,-0.016961,-0.024822,0.962431,-0.269856,-0.449299,-0.147168,0.222051,0.707308,-0.308231,0.24768,0.008407,-0.00416,0.038303,1.096839,0.10064,0.247813,0.12728,0.037911,0.12014,0.285854,0.671052,-0.461685,0.372575,1.344076,-0.082681,-0.152387,0.275199,-0.179945,0.205524,0.108682,-0.693616,0.026211,-0.007768
-7.367839,4.470148,0.747479,-0.011598,-0.01626,0.958018,-0.286013,-0.368476,-0.193369,0.194977,0.663832,-0.305988,0.247757,-0.054116,-0.09114,0.06531,1.184553,0.127759,0.247683,0.124758,0.026921,0.115557,0.265516,0.388329,-0.140224,0.501707,1.346126,0.151808,0.02207,0.242197,-0.153769,0.192829,0.286938,-0.849048,0.219886,-0.121455
-7.389176,4.450876,0.755225,-0.011295,-0.006831,0.950404,-0.310739,-0.283209,-0.249462,0.151158,0.598848,-0.28627,0.247491,-0.118084,-0.135763,0.14776,1.231011,0.092176,0.244528,0.11588,0.013283,0.110734,0.230212,0.052171,0.22842,0.439033,1.088151,0.219818,0.354152,0.233774,-0.170575,0.21478,0.449855,-0.934897,0.392838,-0.094588
-7.40986,4.431916,0.761084,-0.01426,-0.000198,0.941188,-0.337581,-0.203671,-0.297169,0.095655,0.53333,-0.256655,0.247615,-0.188794,-0.152797,0.212073,1.244313,0.024298,0.17413,0.10886,0.000466,0.104944,0.208637,-0.094321,0.306261,0.401783,0.839819,0.050502,0.494807,0.232794,-0.20674,0.24863,0.604047,-0.961254,0.443958,0.018068
-7.430216,4.41319,0.766154,-0.019715,0.004077,0.930505,-0.365726,-0.134523,-0.332853,0.036773,0.477428,-0.215383,0.245925,-0.251403,-0.169559,0.231696,1.211863,-0.06592,0.110918,0.101857,-0.008566,0.099549,0.216117,-0.057911,0.167938,0.391771,0.899027,-0.066688,0.480324,0.260067,-0.240497,0.250609,0.715149,-0.946195,0.399858,0.098743
-7.45034,4.394565,0.77034,-0.025776,0.004934,0.916582,-0.398985,-0.075486,-0.355219,-0.029686,0.438741,-0.178232,0.241762,-0.302819,-0.169756,0.234599,1.144669,-0.150501,0.053704,0.090405,-0.013989,0.094363,0.218321,0.039599,-0.007213,0.324676,1.151632,-0.19102,0.427607,0.302869,-0.264553,0.223398,0.803004,-0.903336,0.315661,0.151893
-7.470361,4.375461,0.773313,-0.030332,0.002497,0.899661,-0.435528,-0.021104,-0.363918,-0.101994,0.416462,-0.155099,0.237282,-0.343276,-0.156156,0.224252,1.05574,-0.207037,0.028074,0.074863,-0.016487,0.088927,0.209282,0.093725,-0.130118,0.232881,1.344608,-0.318215,0.350123,0.352189,-0.288667,0.20791,0.880275,-0.886198,0.260486,0.212887
-7.490084,4.355335,0.774604,-0.034346,-0.00129,0.882223,-0.469576,0.02856,-0.364176,-0.173401,0.407276,-0.144762,0.23474,-0.37996,-0.133103,0.212141,0.952314,-0.251743,0.033331,0.05608,-0.01608,0.083671,0.204027,0.09635,-0.208862,0.174058,1.339387,-0.407564,0.206314,0.397574,-0.312741,0.222812,0.931397,-0.916589,0.247316,0.249977
-7.509079,4.333677,0.773671,-0.036987,-0.006454,0.866963,-0.496957,0.079469,-0.357905,-0.242297,0.400816,-0.146254,0.236036,-0.420491,-0.092135,0.217972,0.847251,-0.281403,0.067219,0.036046,-0.014133,0.080047,0.203739,0.094126,-0.271449,0.142514,1.20559,-0.43684,0.030524,0.431315,-0.329819,0.262996,0.958763,-0.978942,0.246197,0.264072
-7.526909,4.310335,0.770104,-0.039249,-0.011462,0.855584,-0.516047,0.13042,-0.34819,-0.296051,0.392764,-0.154415,0.237626,-0.465939,-0.0454,0.231094,0.745949,-0.288077,0.127616,0.016628,-0.011642,0.078326,0.204071,0.104587,-0.329852,0.11121,1.024035,-0.421117,-0.082299,0.447478,-0.341515,0.301955,0.974081,-1.041815,0.248992,0.260287
-7.543533,4.285327,0.76384,-0.040958,-0.015372,0.8491,-0.526417,0.183632,-0.337578,-0.330067,0.379792,-0.161603,0.240601,-0.511141,-0.004581,0.227565,0.649479,-0.27982,0.192852,0.00136,-0.008886,0.077915,0.207149,0.131677,-0.38546,0.081773,0.856666,-0.39911,-0.110651,0.448332,-0.344229,0.316688,0.983536,-1.077448,0.247422,0.247594
-7.558694,4.258799,0.755519,-0.038217,-0.024701,0.846902,-0.529798,0.244826,-0.312621,-0.349385,0.345185,-0.147997,0.241571,-0.550626,0.048904,0.212643,0.623509,-0.20087,0.091507,-0.009651,-0.003475,0.078997,0.217295,0.169932,-0.425098,0.066469,0.73127,-0.380465,-0.090849,0.431513,-0.328304,0.303714,0.99057,-1.082118,0.254884,0.239415
-7.573796,4.232013,0.746076,-0.035955,-0.025062,0.848878,-0.526768,0.298722,-0.307715,-0.350797,0.342848,-0.145363,0.23827,-0.593397,0.047986,0.130628,0.775192,-0.241681,0.02743,-0.016504,0.002663,0.082834,0.237725,0.196045,-0.445875,0.082377,0.659424,-0.352203,-0.064341,0.409249,-0.318852,0.268674,0.991622,-1.068382,0.26799,0.229517
-7.588257,4.203739,0.73782,-0.03347,-0.02746,0.849839,-0.525262,0.341765,-0.300801,-0.345443,0.349892,-0.120233,0.217757,-0.585411,0.045258,0.092722,0.865752,-0.339409,0.015415,-0.026573,0.011365,0.084627,0.25727,0.209952,-0.443986,0.129285,0.657665,-0.29722,-0.049835,0.375221,-0.302436,0.228388,0.983219,-1.053582,0.284277,0.212857
-7.601165,4.174468,0.732967,-0.032225,-0.032223,0.84855,-0.52715,0.359018,-0.292755,-0.336578,0.385582,-0.068609,0.133587,-0.549489,0.051766,0.091734,0.906347,-0.425579,0.034423,-0.039843,0.023647,0.082485,0.267024,0.204493,-0.423717,0.207633,0.708555,-0.213201,-0.027451,0.332237,-0.277352,0.181675,0.956235,-1.040642,0.305784,0.184037
-7.61249,4.146141,0.733627,-0.034128,-0.035614,0.847272,-0.528864,0.337851,-0.297428,-0.319236,0.475056,0.001971,-0.045725,-0.520009,0.043883,0.080919,0.935891,-0.461168,0.044676,-0.050604,0.036319,0.081727,0.256241,0.192414,-0.402725,0.323171,0.802608,-0.099718,0.008145,0.284549,-0.248683,0.136575,0.896492,-1.03883,0.323079,0.136483
-7.62248,4.118426,0.739561,-0.038704,-0.03966,0.844081,-0.533344,0.26877,-0.301078,-0.2575,0.613568,0.074635,-0.237781,-0.48864,0.030995,0.072127,0.943323,-0.471309,0.053894,-0.06283,0.044413,0.084087,0.240423,0.198024,-0.395676,0.445156,0.917605,0.01692,0.045092,0.237063,-0.207816,0.091846,0.794384,-1.040977,0.338444,0.054795
-7.631504,4.091057,0.745819,-0.045644,-0.041876,0.835256,-0.546362,0.153301,-0.276798,-0.112661,0.794196,0.146944,-0.247416,-0.445463,0.005102,0.055396,0.920199,-0.468961,0.064478,-0.07858,0.043948,0.090632,0.254837,0.251322,-0.418602,0.48204,1.042996,0.051528,0.09938,0.193351,-0.158454,0.052464,0.663727,-1.034319,0.314646,-0.070619
-7.639669,4.063148,0.753912,-0.053148,-0.04324,0.827416,-0.557395,0.016733,-0.206933,-0.013198,0.963448,0.182303,-0.247773,-0.390038,-0.020584,0.038788,0.869465,-0.449706,0.073869,-0.083826,0.042212,0.099307,0.31469,0.321046,-0.420253,0.427391,1.056807,-0.008701,0.164996,0.173578,-0.104815,0.041423,0.500164,-0.987793,0.24465,-0.171921
-7.646766,4.034147,0.763872,-0.058468,-0.046131,0.820598,-0.566633,-0.112697,-0.148093,0.023279,1.080721,0.143723,-0.247039,-0.323347,-0.038648,0.023968,0.795308,-0.40071,0.082807,-0.076796,0.042202,0.106473,0.402601,0.388898,-0.403036,0.336919,0.947081,-0.095054,0.226703,0.188572,-0.075511,0.076312,0.315927,-0.927608,0.142102,-0.223194
-7.653142,4.00346,0.774957,-0.063119,-0.049501,0.811326,-0.579065,-0.233679,-0.112488,0.029944,1.137644,0.066976,-0.229943,-0.246215,-0.053775,0.008427,0.70293,-0.321253,0.097873,-0.062604,0.04285,0.110751,0.477154,0.461752,-0.403702,0.268407,0.818937,-0.156323,0.249408,0.211947,-0.078114,0.126601,0.154097,-0.871705,0.02292,-0.244925
-7.658941,3.970677,0.785599,-0.066654,-0.05395,0.800706,-0.592888,-0.339842,-0.089104,0.037602,1.128988,-0.020741,-0.162963,-0.167031,-0.063793,-0.008105,0.607144,-0.207023,0.120361,-0.046335,0.043639,0.112205,0.52225,0.549138,-0.41836,0.219475,0.737923,-0.183913,0.239713,0.234096,-0.104377,0.17151,0.024108,-0.842098,-0.072712,-0.253715
-7.664358,3.935834,0.793367,-0.070402,-0.057183,0.791097,-0.604929,-0.426461,-0.072537,0.052476,1.059561,-0.085713,-0.105251,-0.092909,-0.074027,-0.023847,0.522918,-0.079997,0.152595,-0.028838,0.043962,0.11195,0.532677,0.621144,-0.443062,0.194282,0.714537,-0.18558,0.221576,0.250642,-0.140794,0.207876,-0.070568,-0.817641,-0.131248,-0.240864
-7.669602,3.899451,0.795241,-0.074028,-0.061136,0.78243,-0.615293,-0.495621,-0.06492,0.06678,0.945926,-0.145965,-0.061845,-0.03395,-0.080503,-0.037145,0.47442,0.01913,0.188042,-0.010803,0.042649,0.110941,0.517963,0.669367,-0.46945,0.189761,0.726528,-0.181166,0.200088,0.260848,-0.176039,0.232582,-0.126308,-0.779876,-0.160948,-0.22413
-7.674813,3.861851,0.790327,-0.076424,-0.064685,0.774541,-0.624549,-0.548112,-0.073134,0.066765,0.800461,-0.19118,-0.035568,0.013468,-0.085178,-0.051715,0.465508,0.072106,0.22957,0.008601,0.038186,0.110158,0.491641,0.693792,-0.489744,0.199543,0.74711,-0.179962,0.177042,0.271371,-0.201843,0.245452,-0.142583,-0.714532,-0.178764,-0.214884
-7.680553,3.823311,0.779346,-0.079454,-0.066008,0.767675,-0.63246,-0.586255,-0.08906,0.063456,0.646388,-0.215905,-0.043158,0.051238,-0.091077,-0.07783,0.495602,0.072018,0.247,0.029152,0.030818,0.110897,0.456614,0.697158,-0.506183,0.222323,0.759425,-0.170993,0.128689,0.289438,-0.227616,0.241807,-0.130128,-0.663778,-0.169906,-0.219018
-7.686078,3.783857,0.764965,-0.082311,-0.063047,0.761736,-0.639537,-0.596191,-0.095473,0.106172,0.516415,-0.216417,-0.026258,0.080358,-0.103686,-0.092616,0.562204,0.057597,0.247634,0.046548,0.020008,0.112249,0.410214,0.677405,-0.518318,0.25604,0.761036,-0.164077,0.080829,0.316197,-0.255887,0.23327,-0.101231,-0.631643,-0.143197,-0.228451
-7.691304,3.743791,0.752148,-0.085359,-0.052197,0.757903,-0.644649,-0.595423,-0.112487,0.161142,0.597387,-0.268626,0.133166,0.094051,-0.131139,-0.081621,0.685302,0.052603,0.247669,0.059268,0.001348,0.11623,0.355159,0.646269,-0.538495,0.289657,0.764031,-0.152347,0.036619,0.331444,-0.288217,0.229778,-0.047832,-0.627399,-0.09425,-0.230661
-7.69621,3.705302,0.740453,-0.087156,-0.034009,0.752394,-0.652036,-0.574285,-0.150699,0.172528,0.709937,-0.368491,0.152302,0.077709,-0.169553,-0.054079,0.857717,0.053553,0.244869,0.065311,-0.029244,0.124359,0.282731,0.616906,-0.583187,0.330658,0.793286,-0.150848,0.023913,0.347928,-0.324705,0.234051,0.031143,-0.665679,-0.03491,-0.205928
-7.702408,3.666675,0.731606,-0.091931,-0.016614,0.743561,-0.66211,-0.530564,-0.188492,0.178242,0.774794,-0.448219,0.144946,0.026035,-0.199805,-0.028429,1.046653,0.026969,0.196998,0.061349,-0.069345,0.133801,0.203543,0.574619,-0.608788,0.395018,0.845564,-0.151269,0.080176,0.375508,-0.364627,0.247557,0.128651,-0.777125,0.052746,-0.131744
-7.708782,3.628149,0.728701,-0.099996,-0.004715,0.737565,-0.667814,-0.46413,-0.22285,0.173353,0.770004,-0.488827,0.133739,-0.063572,-0.211895,0.005235,1.202657,-0.04913,0.140297,0.051329,-0.1063,0.140333,0.158035,0.480233,-0.540955,0.428353,0.871061,-0.123485,0.204513,0.406468,-0.437936,0.302385,0.214471,-1.039769,0.125113,0.004006
-7.714864,3.589168,0.731589,-0.106974,0.002322,0.733862,-0.670819,-0.377024,-0.251554,0.158354,0.712044,-0.490045,0.129926,-0.171114,-0.197415,0.049696,1.299685,-0.108617,0.09877,0.037459,-0.132571,0.142513,0.166727,0.352363,-0.402334,0.38625,0.835162,-0.136412,0.414042,0.458671,-0.498201,0.348511,0.250193,-1.333946,0.071068,0.191281
-7.721051,3.548934,0.740139,-0.110471,0.002765,0.730811,-0.673575,-0.275205,-0.264485,0.135386,0.619345,-0.441238,0.127349,-0.276056,-0.167354,0.081126,1.320291,-0.158169,0.062503,0.024716,-0.146206,0.140176,0.207433,0.237227,-0.29998,0.283904,0.818552,-0.157851,0.538316,0.539525,-0.480447,0.313675,0.24486,-1.442906,-0.021464,0.341801
-7.727809,3.506684,0.756426,-0.111684,1e-05,0.729996,-0.674265,-0.178157,-0.262743,0.119468,0.536914,-0.334612,0.117835,-0.365636,-0.14351,0.089882,1.266739,-0.204344,0.032634,0.01272,-0.148796,0.135292,0.253816,0.140724,-0.244113,0.149432,0.833456,-0.201931,0.595964,0.637528,-0.428458,0.223598,0.220869,-1.386082,-0.058233,0.438113
-7.735045,3.463904,0.770178,-0.110455,-0.005065,0.726109,-0.678631,-0.098082,-0.249823,0.09914,0.471546,-0.199563,0.103306,-0.429853,-0.128178,0.069862,1.149895,-0.241728,0.021029,0.000927,-0.143346,0.130642,0.296329,0.06806,-0.235465,0.019375,0.874794,-0.242178,0.607184,0.728207,-0.394604,0.155696,0.190915,-1.293142,-0.060402,0.491493
-7.742618,3.420921,0.779565,-0.107633,-0.0131,0.717864,-0.687688,-0.039912,-0.227891,0.069667,0.440878,-0.090362,0.080872,-0.474124,-0.1141,0.031654,0.989768,-0.259232,0.023345,-0.011518,-0.132837,0.127929,0.320531,0.028894,-0.273516,-0.082128,0.880675,-0.285184,0.585558,0.806806,-0.373219,0.11599,0.159292,-1.191721,-0.078821,0.520081
-7.750391,3.377844,0.78366,-0.104499,-0.020615,0.707173,-0.698971,0.003595,-0.202715,0.03733,0.441908,-0.01811,0.058387,-0.508709,-0.099967,-0.001689,0.81043,-0.241195,0.05374,-0.025428,-0.118785,0.127531,0.318712,0.025702,-0.344593,-0.143378,0.827936,-0.338343,0.549929,0.867494,-0.355764,0.077787,0.136114,-1.104323,-0.094132,0.541552
-7.757948,3.334841,0.782407,-0.098758,-0.02904,0.697184,-0.709463,0.037653,-0.170205,0.010119,0.469641,0.020795,0.040705,-0.537148,-0.077246,-0.024371,0.630382,-0.179547,0.055493,-0.041126,-0.102099,0.128815,0.293347,0.069919,-0.414885,-0.17556,0.758032,-0.385435,0.497024,0.891439,-0.337046,0.044592,0.137389,-1.026397,-0.100188,0.574496
-7.764986,3.292049,0.776355,-0.09039,-0.037771,0.690449,-0.716717,0.065958,-0.129884,-0.001859,0.520097,0.034482,0.015111,-0.556201,-0.066683,-0.094402,0.493481,-0.114284,-0.022947,-0.055545,-0.084451,0.132529,0.255534,0.14162,-0.467718,-0.186803,0.724147,-0.403839,0.429984,0.882739,-0.32051,0.019236,0.144118,-0.992185,-0.093932,0.611981
-7.771635,3.248717,0.769351,-0.078996,-0.045953,0.687574,-0.72034,0.093336,-0.083502,0.004683,0.606691,0.03631,-0.041032,-0.570365,-0.077296,-0.232277,0.525855,-0.143061,-0.118466,-0.066653,-0.066925,0.140507,0.22527,0.209477,-0.499916,-0.189277,0.711318,-0.386603,0.361295,0.844675,-0.303582,-0.001742,0.148931,-0.992656,-0.078755,0.624649
-7.777551,3.20668,0.754472,-0.06672,-0.045205,0.685538,-0.723563,0.109753,-0.043107,0.00542,0.737737,0.032142,-0.131385,-0.580517,-0.067109,-0.235551,0.723313,-0.323611,-0.124,-0.081961,-0.047707,0.153524,0.225524,0.247869,-0.518529,-0.164837,0.68453,-0.363398,0.2876,0.794223,-0.311468,-0.017938,0.149612,-1.041924,-0.062518,0.598489
-7.78165,3.165599,0.740499,-0.0524,-0.046671,0.688985,-0.721371,0.10164,-0.01155,-0.006453,0.877411,0.073523,-0.174434,-0.565913,-0.047823,-0.245313,0.86731,-0.430509,-0.121994,-0.088585,-0.030314,0.168993,0.251739,0.250684,-0.493218,-0.105313,0.658497,-0.318359,0.227073,0.699796,-0.329849,-0.002819,0.156131,-1.153682,-0.046765,0.520197
-7.783987,3.125995,0.732689,-0.041372,-0.04823,0.693061,-0.718073,0.05434,0.00318,-0.020768,1.026724,0.089103,-0.152691,-0.516784,-0.027381,-0.252028,0.926929,-0.50258,-0.113033,-0.089041,-0.013174,0.181163,0.285369,0.227582,-0.425842,-0.004107,0.693861,-0.240011,0.266913,0.573477,-0.362619,0.051452,0.157902,-1.368881,-0.036267,0.423723
-7.784805,3.087866,0.733306,-0.035414,-0.049392,0.696002,-0.715463,-0.033051,0.003897,-0.032553,1.16561,0.009855,-0.092889,-0.451426,-0.010093,-0.248428,0.926655,-0.524024,-0.094513,-0.08236,0.003503,0.190382,0.326287,0.234778,-0.372688,0.069681,0.862407,-0.140952,0.374831,0.458971,-0.354089,0.084982,0.123466,-1.601822,-0.023629,0.306738
-7.784748,3.049203,0.745217,-0.034023,-0.052074,0.697811,-0.713576,-0.150763,0.003885,-0.035306,1.261168,-0.057811,-0.029172,-0.371466,0.007195,-0.238966,0.87406,-0.500695,-0.074359,-0.067923,0.016037,0.19796,0.438957,0.232391,-0.339057,0.065107,0.863889,-0.142409,0.400674,0.395717,-0.245692,0.027645,0.065685,-1.585391,-0.008364,0.156371
-7.783647,3.009966,0.758873,-0.034444,-0.05536,0.699592,-0.711562,-0.27201,-0.008737,-0.043001,1.279439,-0.112008,0.007739,-0.276399,0.021679,-0.230435,0.772014,-0.435271,-0.052168,-0.046741,0.023345,0.200862,0.552982,0.271771,-0.316558,0.019893,0.749338,-0.20699,0.360852,0.362806,-0.11729,-0.011526,-0.018758,-1.354618,-0.006843,0.003833
-7.781841,2.968978,0.773492,-0.036715,-0.058081,0.700687,-0.710152,-0.372883,-0.024581,-0.046879,1.212277,-0.167541,0.024752,-0.177617,0.027808,-0.224582,0.653681,-0.317216,-0.018392,-0.020902,0.026603,0.198468,0.643629,0.339267,-0.298985,-0.034539,0.684104,-0.260224,0.302585,0.345114,-0.056901,0.014392,-0.086665,-1.050571,-0.043457,-0.12376
-7.779587,2.925989,0.785138,-0.039749,-0.060063,0.703084,-0.70745,-0.451041,-0.025037,-0.029692,1.081787,-0.197434,0.035727,-0.088051,0.029789,-0.206851,0.553604,-0.183664,0.033759,0.004972,0.027132,0.192064,0.724522,0.405848,-0.274845,-0.080804,0.678929,-0.285551,0.27218,0.327844,-0.104997,0.085887,-0.13597,-0.9076,-0.107892,-0.2276
-7.77713,2.881081,0.790575,-0.041881,-0.062459,0.70727,-0.702932,-0.505171,-0.01888,-0.003385,0.907838,-0.210462,0.055983,-0.013973,0.029734,-0.179789,0.491732,-0.067822,0.089711,0.029543,0.025624,0.183384,0.801939,0.45508,-0.253303,-0.113789,0.68669,-0.287723,0.267097,0.301197,-0.194079,0.158529,-0.16949,-0.928226,-0.155481,-0.272269
-7.774854,2.834893,0.788558,-0.044644,-0.064307,0.711878,-0.697926,-0.546156,-0.022547,0.004077,0.713793,-0.198924,0.040547,0.051946,0.026872,-0.146676,0.45845,-0.00691,0.140143,0.053337,0.021406,0.17309,0.870976,0.482564,-0.246711,-0.121489,0.65485,-0.266619,0.265159,0.275901,-0.255656,0.217987,-0.170922,-0.964417,-0.145986,-0.212438
-7.77263,2.787723,0.781007,-0.047476,-0.064223,0.714999,-0.694549,-0.575527,-0.03487,-0.006042,0.519051,-0.198285,-0.000147,0.113996,0.019406,-0.117199,0.45398,0.009959,0.158372,0.073227,0.013567,0.163785,0.906538,0.475856,-0.270421,-0.11129,0.546648,-0.229421,0.274185,0.245946,-0.283269,0.256796,-0.146052,-0.9671,-0.104843,-0.120402
-7.770426,2.74031,0.775055,-0.050127,-0.059882,0.716081,-0.693635,-0.593349,-0.03519,0.033973,0.373255,-0.202484,-0.025313,0.183731,0.003995,-0.093894,0.476265,-0.008432,0.156393,0.083571,0.002505,0.156565,0.91355,0.457516,-0.317168,-0.081796,0.388518,-0.200584,0.2729,0.224461,-0.292972,0.273421,-0.103414,-0.966108,-0.05292,-0.068259
-7.767921,2.694681,0.762439,-0.057264,-0.044087,0.719361,-0.690867,-0.606313,-0.042114,0.107754,0.362901,-0.055202,0.008955,0.240708,-0.033561,-0.064481,0.523221,-0.025012,0.169058,0.086793,-0.015259,0.155473,0.869234,0.428583,-0.377222,-0.032892,0.252969,-0.17203,0.233918,0.214452,-0.298415,0.276998,-0.036501,-0.988614,-0.002145,-0.066554
-7.765445,2.650978,0.742518,-0.059629,-0.020704,0.721962,-0.689048,-0.644156,-0.062994,0.151544,0.589136,-0.114477,0.105846,0.267166,-0.07607,-0.029556,0.654898,-0.040325,0.220883,0.086869,-0.040879,0.164159,0.78583,0.402258,-0.413199,0.041491,0.184297,-0.134811,0.166772,0.216002,-0.28163,0.26582,0.067953,-1.003091,0.059751,-0.101149
-7.764327,2.610371,0.727285,-0.060467,0.006516,0.716395,-0.695039,-0.6425,-0.097953,0.179291,0.778131,-0.240098,0.105408,0.25608,-0.097867,0.019203,0.843378,-0.025408,0.221254,0.083562,-0.072157,0.17868,0.66404,0.361043,-0.400266,0.156413,0.168341,-0.095755,0.080636,0.228416,-0.251036,0.240186,0.210542,-1.018913,0.142975,-0.155491
-7.76361,2.571294,0.717853,-0.063526,0.02872,0.715868,-0.694746,-0.598282,-0.124261,0.210592,0.872258,-0.3442,0.10985,0.190146,-0.096668,0.085155,1.042484,-0.029114,0.164165,0.081844,-0.099568,0.188354,0.522799,0.311906,-0.314669,0.308964,0.290839,-0.023945,0.05612,0.236187,-0.23934,0.262851,0.391008,-1.076149,0.260452,-0.095806
-7.763374,2.534789,0.715373,-0.064401,0.04435,0.718961,-0.690638,-0.533203,-0.142503,0.230461,0.902617,-0.407563,0.110255,0.093734,-0.09585,0.129009,1.208014,-0.089734,0.151168,0.080473,-0.120353,0.191598,0.391344,0.238791,-0.18306,0.492684,0.498587,0.149386,0.169658,0.251893,-0.257697,0.371084,0.534834,-1.203092,0.350213,0.138857
-7.76408,2.499774,0.720289,-0.065081,0.055013,0.721763,-0.686874,-0.451984,-0.16174,0.236352,0.876469,-0.428867,0.104912,-0.022085,-0.098096,0.150439,1.310501,-0.1566,0.106364,0.076361,-0.136989,0.190315,0.276336,0.110109,-0.005516,0.603863,0.607959,0.374743,0.415635,0.266391,-0.309068,0.489948,0.600517,-1.297863,0.258121,0.39103
-7.765741,2.464472,0.733511,-0.065586,0.061139,0.725017,-0.68287,-0.359179,-0.178994,0.23244,0.812178,-0.417435,0.095162,-0.140671,-0.110374,0.146641,1.335107,-0.231538,0.057796,0.066661,-0.149763,0.184976,0.184835,-0.013679,0.218333,0.610837,0.540412,0.438129,0.730142,0.298349,-0.355591,0.557535,0.586288,-1.328921,0.094191,0.516031
-7.768409,2.428989,0.747461,-0.06653,0.065546,0.7284,-0.678757,-0.258603,-0.195734,0.222385,0.720837,-0.375178,0.083792,-0.246425,-0.121347,0.12871,1.278842,-0.283949,0.012692,0.052001,-0.158167,0.17665,0.127884,-0.087811,0.312082,0.6143,0.40067,0.341329,0.838437,0.34246,-0.394535,0.531778,0.559136,-1.270061,-0.016819,0.548893
-7.771971,2.393084,0.76139,-0.067372,0.06632,0.729915,-0.676969,-0.161283,-0.207787,0.205574,0.623133,-0.31135,0.076998,-0.330392,-0.121914,0.100616,1.149578,-0.310134,-0.004071,0.035427,-0.160749,0.165593,0.103615,-0.080878,0.230009,0.648958,0.338709,0.24546,0.666825,0.395626,-0.414641,0.472453,0.545504,-1.17917,-0.045288,0.53225
-7.776206,2.356862,0.772992,-0.068386,0.063479,0.729801,-0.677262,-0.071856,-0.212157,0.189103,0.530267,-0.241641,0.076512,-0.389411,-0.113753,0.0706,0.959464,-0.315985,0.007755,0.018462,-0.157721,0.152249,0.097317,-0.002905,0.068344,0.655501,0.397747,0.116856,0.45531,0.449485,-0.416744,0.424997,0.530099,-1.095939,-0.018415,0.478424
-7.780824,2.320423,0.779962,-0.068998,0.057253,0.727649,-0.680065,0.014489,-0.209766,0.169183,0.437327,-0.175799,0.079283,-0.429665,-0.087749,0.070165,0.733173,-0.273372,0.037423,0.000418,-0.149938,0.138118,0.090785,0.117876,-0.100208,0.608283,0.566656,-0.03775,0.362006,0.495436,-0.416336,0.40833,0.500629,-1.043621,0.004879,0.39907
-7.785697,2.283967,0.781506,-0.067607,0.049994,0.722952,-0.685763,0.100223,-0.200755,0.142312,0.353709,-0.12956,0.07192,-0.446701,-0.056276,0.103254,0.50349,-0.235778,0.063143,-0.017898,-0.139641,0.125091,0.080349,0.238905,-0.225366,0.499951,0.78183,-0.148339,0.373633,0.540506,-0.414379,0.400425,0.466485,-1.006732,0.020088,0.320739
-7.790741,2.248035,0.778829,-0.065744,0.04395,0.717104,-0.692466,0.183992,-0.189936,0.111368,0.281667,-0.108817,0.064415,-0.460809,-0.045929,0.113492,0.335905,-0.191825,0.068977,-0.032336,-0.12828,0.114448,0.069735,0.330901,-0.300482,0.357763,0.96338,-0.211409,0.386911,0.583092,-0.407145,0.384545,0.435302,-0.975668,0.034783,0.26503
-7.796255,2.212883,0.772812,-0.05993,0.038866,0.711766,-0.698775,0.264609,-0.170641,0.080995,0.232585,-0.119255,0.063076,-0.490183,-0.053018,0.054654,0.308328,-0.127847,0.059617,-0.041406,-0.116221,0.106929,0.062402,0.389248,-0.335986,0.214251,1.038331,-0.264043,0.385359,0.61914,-0.39079,0.36485,0.41172,-0.949621,0.048743,0.237807
-7.802331,2.178389,0.764712,-0.050977,0.038717,0.707367,-0.703942,0.335687,-0.148287,0.057681,0.225461,-0.148123,0.066838,-0.526383,-0.076239,-0.043407,0.449975,-0.067554,0.002831,-0.048833,-0.102908,0.102981,0.057872,0.413999,-0.352443,0.104365,0.968659,-0.317205,0.368826,0.644265,-0.372224,0.342711,0.40407,-0.924967,0.058855,0.233868
-7.808925,2.14553,0.757957,-0.039051,0.036228,0.704173,-0.708027,0.386297,-0.113898,0.04559,0.25295,-0.155268,0.064515,-0.542992,-0.053704,-0.06431,0.60304,-0.130446,-0.085831,-0.059615,-0.084979,0.100895,0.053802,0.421506,-0.348033,0.02954,0.808289,-0.340399,0.320152,0.620584,-0.347673,0.330388,0.436045,-0.907946,0.066818,0.235313
-7.814936,2.113101,0.754403,-0.028114,0.029501,0.703784,-0.709244,0.40581,-0.075943,0.045866,0.306511,-0.109979,0.068466,-0.516184,-0.025619,-0.085305,0.670546,-0.197996,-0.116919,-0.070611,-0.06318,0.096809,0.063358,0.401859,-0.320071,-0.001008,0.671359,-0.327853,0.285059,0.557862,-0.30839,0.300867,0.516958,-0.910655,0.082754,0.229397
-7.820357,2.082483,0.757535,-0.022735,0.020505,0.701522,-0.71199,0.378543,-0.038344,0.049448,0.396432,-0.017996,0.030151,-0.464071,-0.003247,-0.106282,0.659198,-0.241854,-0.119344,-0.080751,-0.040013,0.088488,0.082201,0.335514,-0.270304,0.022834,0.603044,-0.275595,0.281214,0.486938,-0.25076,0.208257,0.612389,-0.97397,0.160785,0.203221
-7.825406,2.052447,0.766841,-0.023487,0.012511,0.6967,-0.716869,0.318893,-0.00636,0.055091,0.51657,0.102204,-0.023787,-0.395765,0.008504,-0.124319,0.596712,-0.255835,-0.114875,-0.087598,-0.018149,0.076961,0.093195,0.236669,-0.219264,0.098374,0.597125,-0.175692,0.311638,0.442202,-0.161806,0.040774,0.635609,-1.081511,0.35041,0.113657
-7.830374,2.022688,0.780652,-0.028017,0.00595,0.691387,-0.721917,0.242686,0.028844,0.083728,0.622803,0.23917,-0.087312,-0.318889,0.015282,-0.140678,0.503829,-0.24691,-0.108372,-0.091226,-0.000555,0.064278,0.096686,0.138765,-0.181835,0.199498,0.606056,-0.044059,0.360045,0.411086,-0.03787,-0.178294,0.554351,-1.128435,0.499123,-0.046298
-7.832242,1.995904,0.787853,-0.033112,-9.3e-05,0.689399,-0.723624,0.177999,0.053249,0.108051,0.693289,0.302328,-0.175363,-0.251236,0.022573,-0.148929,0.417077,-0.219823,-0.097308,-0.090363,0.011686,0.053908,0.097238,0.094936,-0.176973,0.304342,0.585492,0.083416,0.411185,0.365366,0.069199,-0.308624,0.404538,-1.001863,0.47612,-0.186631
-7.833965,1.969453,0.79334,-0.036759,-0.00752,0.691664,-0.721245,0.113287,0.040884,0.082353,0.744454,0.228899,-0.204405,-0.199205,0.03628,-0.147874,0.355272,-0.195686,-0.085271,-0.086831,0.019828,0.047951,0.116621,0.100017,-0.202737,0.391222,0.523511,0.15219,0.417631,0.331026,0.10379,-0.316707,0.307141,-0.856477,0.371805,-0.216537
-7.835607,1.943192,0.79647,-0.04057,-0.013168,0.696228,-0.716552,0.047703,0.029984,0.068881,0.788615,0.098637,-0.17803,-0.163214,0.047702,-0.136185,0.328943,-0.188104,-0.071662,-0.084406,0.024662,0.046773,0.173418,0.151601,-0.265638,0.436875,0.472775,0.154269,0.380795,0.295417,0.071097,-0.230073,0.241919,-0.777665,0.266005,-0.168263
-7.837189,1.916967,0.797197,-0.043768,-0.018024,0.702466,-0.710141,-0.021205,0.050115,0.102743,0.830544,-0.016979,-0.130928,-0.137231,0.058794,-0.119012,0.328141,-0.199537,-0.063542,-0.083206,0.027923,0.049542,0.253785,0.237869,-0.342824,0.431827,0.46649,0.099601,0.391256,0.270528,-0.016701,-0.117183,0.189589,-0.806038,0.143314,-0.11027
-7.838645,1.890751,0.796117,-0.045607,-0.022952,0.709803,-0.702547,-0.094055,0.075407,0.137569,0.863176,-0.111331,-0.068322,-0.111549,0.071424,-0.100876,0.332714,-0.221039,-0.063358,-0.077675,0.031126,0.054803,0.34223,0.313271,-0.413794,0.39297,0.474842,0.058647,0.435061,0.234896,-0.11697,-0.00867,0.100383,-0.920156,0.042487,-0.099641
-7.840034,1.864271,0.794174,-0.046638,-0.028184,0.717397,-0.69453,-0.175084,0.07952,0.135998,0.880347,-0.194235,-0.000825,-0.080774,0.084517,-0.08069,0.329976,-0.240898,-0.057908,-0.064802,0.035457,0.062268,0.440291,0.374797,-0.459224,0.326341,0.442511,0.01597,0.464374,0.195476,-0.189902,0.061127,-0.005565,-1.0543,-0.038174,-0.12251
-7.84142,1.837155,0.792132,-0.04731,-0.032906,0.722412,-0.689057,-0.261189,0.057654,0.098826,0.878799,-0.249336,0.03628,-0.045314,0.094159,-0.065307,0.32223,-0.251775,-0.046546,-0.043867,0.041272,0.071148,0.52772,0.434337,-0.492746,0.255839,0.405662,-0.016908,0.45741,0.175274,-0.208906,0.08435,-0.097112,-1.104163,-0.092499,-0.148732
-7.842845,1.809068,0.790294,-0.048564,-0.03764,0.725384,-0.685597,-0.34465,0.022229,0.052699,0.851749,-0.282305,0.062403,-0.012492,0.099596,-0.055751,0.319141,-0.249844,-0.029258,-0.016416,0.048341,0.080895,0.583878,0.497851,-0.518078,0.196715,0.412872,-0.049251,0.425841,0.175559,-0.186038,0.080635,-0.155097,-1.028205,-0.135407,-0.173161
-7.844541,1.779623,0.788413,-0.050041,-0.042816,0.727903,-0.68251,-0.419885,-0.019548,0.006732,0.79878,-0.298824,0.084174,0.017778,0.103847,-0.04582,0.321047,-0.233889,-0.003137,0.014434,0.056347,0.091204,0.60766,0.538677,-0.528781,0.149212,0.455356,-0.065616,0.38269,0.187321,-0.158698,0.074578,-0.175145,-0.866983,-0.157236,-0.175862
-7.846695,1.748698,0.785871,-0.051194,-0.047703,0.730617,-0.679192,-0.482221,-0.063888,-0.037022,0.720434,-0.289059,0.081796,0.045684,0.108154,-0.028578,0.332193,-0.211063,0.03757,0.045519,0.062926,0.101199,0.613051,0.546361,-0.516215,0.117258,0.493209,-0.069737,0.351407,0.202427,-0.132249,0.061333,-0.15722,-0.679574,-0.17454,-0.186824
-7.849433,1.716234,0.782296,-0.052163,-0.050386,0.733825,-0.675456,-0.525385,-0.099819,-0.062248,0.615094,-0.240936,0.066668,0.073919,0.110667,-0.00357,0.352171,-0.179288,0.082608,0.071844,0.065501,0.109336,0.606684,0.520855,-0.488099,0.108233,0.509343,-0.057918,0.336721,0.213839,-0.112789,0.043939,-0.095753,-0.50587,-0.171724,-0.186247
-7.852681,1.682238,0.776423,-0.052771,-0.052572,0.735738,-0.673158,-0.551073,-0.11906,-0.050239,0.498213,-0.180769,0.007681,0.099353,0.115177,0.025116,0.387446,-0.15216,0.134353,0.091016,0.063912,0.115091,0.580729,0.481352,-0.458501,0.123605,0.526356,-0.038494,0.321334,0.211117,-0.105778,0.023695,-0.00464,-0.390109,-0.113381,-0.1845
-7.8562,1.647012,0.767933,-0.053159,-0.050582,0.737351,-0.671512,-0.55922,-0.125638,0.003805,0.417572,-0.124842,-0.0131,0.121567,0.116036,0.05322,0.447499,-0.131021,0.203133,0.104452,0.058318,0.119109,0.54142,0.428071,-0.434658,0.164997,0.541241,-0.015425,0.287277,0.202206,-0.122263,0.013924,0.09612,-0.374514,-0.018069,-0.199297
-7.860264,1.611113,0.756576,-0.054044,-0.041644,0.73946,-0.669734,-0.557786,-0.128347,0.078868,0.47286,-0.119433,0.137798,0.130235,0.114364,0.068344,0.554351,-0.105359,0.248405,0.116626,0.048092,0.124278,0.487036,0.364092,-0.415254,0.229497,0.556923,0.006915,0.255002,0.198419,-0.157949,0.033793,0.202804,-0.44625,0.09887,-0.209913
-7.863609,1.575648,0.748208,-0.049958,-0.028483,0.74198,-0.667951,-0.560638,-0.138396,0.099656,0.628424,-0.234454,0.163132,0.125502,0.127086,0.056128,0.722622,-0.083811,0.250463,0.132032,0.033725,0.13472,0.412877,0.3173,-0.404456,0.314794,0.603426,0.019524,0.240672,0.210765,-0.200586,0.097826,0.31646,-0.580305,0.211041,-0.191669
-7.867915,1.539287,0.740089,-0.04573,-0.013634,0.741976,-0.668726,-0.535571,-0.147667,0.118855,0.746544,-0.334556,0.155465,0.101049,0.120858,0.045578,0.910614,-0.043492,0.250534,0.142173,0.015195,0.148569,0.323681,0.282673,-0.400296,0.385638,0.700758,0.013143,0.278869,0.230455,-0.241113,0.200574,0.435731,-0.745534,0.275095,-0.129866
-7.872719,1.503375,0.73567,-0.04647,-0.001156,0.741347,-0.66951,-0.488759,-0.159719,0.135448,0.801473,-0.405194,0.147119,0.046867,0.096546,0.059932,1.085084,0.00457,0.250515,0.144182,-0.008195,0.157171,0.255058,0.242305,-0.370739,0.406888,0.790462,-0.01465,0.340705,0.249066,-0.285194,0.323813,0.540807,-0.941545,0.284847,-0.020087
-7.877635,1.467489,0.737418,-0.048554,0.010325,0.737208,-0.67384,-0.42278,-0.180066,0.139934,0.807309,-0.442804,0.142394,-0.020064,0.043758,0.067591,1.214406,-0.012791,0.250328,0.136679,-0.03257,0.15982,0.226939,0.183321,-0.309118,0.36969,0.824147,-0.05363,0.399879,0.28155,-0.324486,0.430911,0.609285,-1.129504,0.229622,0.118734
-7.882789,1.431768,0.741691,-0.052959,0.018566,0.731569,-0.679454,-0.348532,-0.204708,0.129402,0.777835,-0.449152,0.13855,-0.098981,-0.010271,0.088914,1.291401,-0.083327,0.246282,0.121679,-0.056021,0.1582,0.217789,0.123883,-0.240285,0.301292,0.802657,-0.119393,0.444662,0.340558,-0.340519,0.462861,0.609281,-1.24022,0.14617,0.252555
-7.88819,1.395659,0.749034,-0.0574,0.023073,0.727361,-0.683461,-0.263985,-0.223248,0.110833,0.717455,-0.422056,0.133883,-0.181877,-0.04911,0.09877,1.309194,-0.14093,0.165906,0.103269,-0.07568,0.152912,0.21548,0.08333,-0.190291,0.218132,0.785017,-0.177237,0.480814,0.422907,-0.332241,0.423268,0.560984,-1.261609,0.085413,0.33348
-7.893908,1.359257,0.758575,-0.061046,0.024485,0.724886,-0.685722,-0.179555,-0.232209,0.089695,0.646307,-0.359296,0.12737,-0.258069,-0.071104,0.103796,1.267307,-0.204357,0.083855,0.082186,-0.089159,0.144419,0.221233,0.061542,-0.168016,0.132499,0.778308,-0.233253,0.509085,0.513315,-0.316297,0.363209,0.499931,-1.229434,0.052876,0.355921
-7.899842,1.322673,0.768666,-0.062576,0.022046,0.722117,-0.688582,-0.099109,-0.229092,0.067934,0.57349,-0.277092,0.117112,-0.318934,-0.071326,0.104909,1.168002,-0.264797,0.016347,0.059882,-0.095437,0.133785,0.22823,0.059481,-0.171183,0.0598,0.767746,-0.273331,0.512881,0.594573,-0.304779,0.320926,0.450136,-1.185195,0.029644,0.360168
-7.905865,1.286223,0.777357,-0.064015,0.016225,0.718677,-0.692201,-0.030024,-0.218348,0.046013,0.509098,-0.190543,0.108863,-0.369066,-0.061641,0.09887,1.029915,-0.301137,-0.010084,0.037916,-0.094816,0.12245,0.228081,0.080965,-0.195672,0.002368,0.751518,-0.299529,0.490804,0.653947,-0.299984,0.293993,0.409192,-1.152683,0.005721,0.366095
-7.911723,1.25011,0.783008,-0.063874,0.007611,0.714146,-0.697035,0.027702,-0.199395,0.023872,0.462419,-0.117935,0.09766,-0.407415,-0.044589,0.089625,0.864247,-0.303733,-0.002852,0.016338,-0.08778,0.110974,0.220481,0.124841,-0.230229,-0.039869,0.744488,-0.310094,0.442699,0.695014,-0.292791,0.267425,0.378121,-1.131149,-0.017899,0.401605
-7.916915,1.214709,0.784532,-0.065227,-0.004456,0.709616,-0.701549,0.065866,-0.176551,0.006599,0.440139,-0.071528,0.080191,-0.44881,-0.022929,0.089149,0.689453,-0.247504,0.03242,-0.004697,-0.075526,0.099444,0.213485,0.171365,-0.260999,-0.071532,0.731308,-0.330307,0.402773,0.708905,-0.278737,0.227129,0.352788,-1.111918,-0.029032,0.468178
-7.92136,1.179945,0.781555,-0.065212,-0.016981,0.705745,-0.705254,0.083942,-0.151592,-0.00379,0.461984,-0.053173,0.064749,-0.490197,-0.005557,0.079968,0.533265,-0.142313,0.060037,-0.025065,-0.059655,0.09059,0.214412,0.218771,-0.279082,-0.084975,0.733014,-0.338365,0.377895,0.694691,-0.263552,0.182874,0.331469,-1.095885,-0.034232,0.551554
-7.925163,1.145814,0.774381,-0.061806,-0.031165,0.70396,-0.706859,0.077187,-0.118115,0.002545,0.535996,-0.045967,0.04486,-0.52761,-0.012975,-0.013235,0.474992,-0.061092,0.014816,-0.0429,-0.042791,0.088607,0.225851,0.265185,-0.290648,-0.085566,0.732946,-0.325482,0.361861,0.644968,-0.247744,0.14217,0.315044,-1.082663,-0.038342,0.620862
-7.9296,1.112276,0.761637,-0.05852,-0.034879,0.69901,-0.711859,0.036679,-0.08508,0.023493,0.712247,-0.054867,-0.022611,-0.549071,-0.010259,-0.059643,0.614324,-0.218265,-0.053274,-0.065023,-0.02709,0.096988,0.2439,0.306369,-0.309192,-0.064367,0.715877,-0.290748,0.347533,0.580607,-0.249147,0.100159,0.305755,-1.080896,-0.034176,0.637027
-7.933267,1.078572,0.75373,-0.050426,-0.039438,0.697162,-0.714049,-0.012651,-0.032331,0.059163,0.911716,-0.026465,-0.133173,-0.547103,0.007355,-0.083121,0.727884,-0.323701,-0.081149,-0.086456,-0.012426,0.112037,0.260489,0.343468,-0.32142,-0.021766,0.704659,-0.230383,0.310726,0.48443,-0.254096,0.083986,0.312116,-1.123269,-0.020594,0.567097
-7.935006,1.04477,0.745726,-0.042787,-0.035432,0.700083,-0.711897,-0.059758,0.01121,0.098396,1.09093,0.005462,-0.170262,-0.527444,0.015462,-0.08852,0.829023,-0.410741,-0.084273,-0.096662,0.003247,0.126859,0.279529,0.354441,-0.330453,0.062082,0.715339,-0.138846,0.270776,0.379902,-0.283632,0.097324,0.332785,-1.266843,0.006799,0.405101
-7.934981,1.011313,0.742749,-0.034785,-0.030838,0.702625,-0.71004,-0.111283,0.033189,0.112137,1.216443,0.009068,-0.141858,-0.47555,0.01831,-0.093304,0.866995,-0.461469,-0.076593,-0.092455,0.017466,0.136207,0.305967,0.349281,-0.349538,0.147377,0.776559,-0.039174,0.242023,0.299135,-0.286055,0.1115,0.355258,-1.474761,0.081612,0.228208
-7.934092,0.977645,0.746235,-0.028524,-0.029181,0.704473,-0.708557,-0.172493,0.039222,0.108355,1.284687,-0.030422,-0.105412,-0.401464,0.025932,-0.092642,0.845663,-0.475494,-0.066682,-0.081769,0.028275,0.139937,0.371348,0.343466,-0.355573,0.166229,0.816398,0.017935,0.245111,0.232701,-0.21543,0.059561,0.323703,-1.545778,0.150874,0.106766
-7.932381,0.943112,0.757955,-0.024302,-0.030772,0.704741,-0.70838,-0.241534,0.033295,0.092767,1.293717,-0.06766,-0.069514,-0.309808,0.035632,-0.090758,0.773887,-0.450295,-0.056307,-0.068196,0.035777,0.13877,0.466497,0.345312,-0.351633,0.116148,0.754296,-0.005298,0.265417,0.198441,-0.108184,-0.010859,0.221635,-1.41508,0.162403,0.008283
-7.929462,0.908043,0.770364,-0.023906,-0.03229,0.702899,-0.710154,-0.305314,0.018009,0.080915,1.240493,-0.095571,-0.029838,-0.213363,0.033535,-0.092946,0.674376,-0.386153,-0.036116,-0.050535,0.041202,0.133168,0.568415,0.372697,-0.354313,0.04777,0.664952,-0.038703,0.255538,0.191086,-0.029583,-0.048487,0.108238,-1.158703,0.116584,-0.093468
-7.925683,0.872272,0.781954,-0.024817,-0.033717,0.699861,-0.713051,-0.356955,-0.004648,0.071123,1.136743,-0.134431,0.004593,-0.128227,0.026175,-0.09413,0.587884,-0.291275,-0.00076,-0.028433,0.045007,0.125334,0.658002,0.420027,-0.364593,-0.01721,0.607491,-0.060692,0.241932,0.209529,-0.018193,-0.023656,0.021718,-0.92812,0.019895,-0.168285
-7.921572,0.83592,0.790528,-0.027646,-0.036311,0.698669,-0.713988,-0.400615,-0.026096,0.070621,0.999842,-0.164311,0.024278,-0.060967,0.019823,-0.084851,0.523626,-0.192522,0.042795,-0.004562,0.047551,0.117123,0.733531,0.461863,-0.376317,-0.072493,0.573554,-0.071507,0.224586,0.224575,-0.071293,0.029294,-0.043771,-0.856353,-0.082421,-0.261413
-7.91737,0.799083,0.794113,-0.030405,-0.039912,0.700509,-0.711877,-0.433976,-0.036947,0.083795,0.841278,-0.18114,0.026193,-0.012633,0.016372,-0.065514,0.494718,-0.112944,0.08252,0.019489,0.048024,0.10938,0.8034,0.487573,-0.381166,-0.117753,0.535905,-0.105792,0.223946,0.225376,-0.131267,0.082924,-0.084707,-0.881953,-0.161696,-0.372936
-7.913594,0.761921,0.791663,-0.032623,-0.042698,0.703881,-0.708283,-0.464405,-0.041127,0.10252,0.679185,-0.187553,0.018608,0.027991,0.013739,-0.045322,0.493475,-0.072978,0.108831,0.042459,0.044911,0.103671,0.860263,0.499763,-0.373437,-0.141252,0.488623,-0.16051,0.254644,0.217665,-0.171737,0.140721,-0.086862,-0.897743,-0.208474,-0.43719
-7.910198,0.724578,0.783521,-0.035379,-0.043398,0.706069,-0.705926,-0.496108,-0.049928,0.119936,0.530432,-0.17268,0.013876,0.061653,0.005618,-0.03279,0.52316,-0.06629,0.13323,0.063959,0.038394,0.100818,0.880168,0.509687,-0.369372,-0.135195,0.459327,-0.194003,0.280659,0.210238,-0.195754,0.193344,-0.054972,-0.85883,-0.20909,-0.423479
-7.907167,0.687217,0.770689,-0.039291,-0.040703,0.70564,-0.706308,-0.524775,-0.063277,0.146615,0.419642,-0.099425,-0.008201,0.093737,-0.011203,-0.03037,0.577329,-0.085066,0.172304,0.080893,0.028337,0.10056,0.873102,0.514345,-0.372204,-0.111632,0.42874,-0.224133,0.295307,0.207645,-0.219472,0.230944,-0.014961,-0.795621,-0.182567,-0.347462
-7.904443,0.650531,0.755048,-0.046199,-0.029036,0.701947,-0.710135,-0.537117,-0.0817,0.218734,0.439415,-0.070837,0.13172,0.121351,-0.038007,-0.016023,0.656021,-0.08623,0.227353,0.090779,0.014745,0.10447,0.832171,0.501439,-0.389218,-0.071833,0.386638,-0.252775,0.300967,0.215543,-0.244974,0.242132,0.026063,-0.741936,-0.138854,-0.244082
-7.901618,0.616468,0.741367,-0.048478,-0.01072,0.69604,-0.716284,-0.550586,-0.114265,0.234853,0.602789,-0.191615,0.184908,0.129868,-0.054905,0.005765,0.792728,-0.061795,0.249495,0.10121,-0.003439,0.115639,0.755422,0.484847,-0.413449,-0.009159,0.345607,-0.250755,0.290113,0.236033,-0.261678,0.226332,0.075677,-0.725856,-0.082414,-0.16079
-7.900194,0.582088,0.73284,-0.049474,0.009251,0.685342,-0.72648,-0.533982,-0.149022,0.23691,0.727867,-0.289691,0.183163,0.112757,-0.050814,0.05168,0.977475,-0.009292,0.250482,0.106886,-0.027226,0.132832,0.619619,0.474814,-0.414028,0.076376,0.425717,-0.220206,0.269952,0.257354,-0.259138,0.195564,0.162455,-0.759298,0.000614,-0.121969
-7.899746,0.54939,0.727621,-0.050004,0.022235,0.678514,-0.732546,-0.497229,-0.167641,0.238827,0.79548,-0.360439,0.171107,0.051057,-0.040664,0.093384,1.15428,0.03326,0.25049,0.109814,-0.049413,0.145514,0.47823,0.444124,-0.341067,0.136941,0.696309,-0.165752,0.355538,0.260631,-0.257879,0.203757,0.297781,-0.886022,0.129156,-0.10383
-7.899325,0.517978,0.727629,-0.051687,0.031705,0.67101,-0.738964,-0.442597,-0.190914,0.229615,0.805227,-0.390812,0.162455,-0.027098,-0.055949,0.124553,1.286675,-0.008707,0.249808,0.106707,-0.070795,0.153135,0.407247,0.322026,-0.212819,0.161143,0.933339,-0.122812,0.531818,0.274131,-0.286128,0.292539,0.422003,-1.072629,0.25143,0.033911
-7.899237,0.487071,0.732361,-0.054625,0.039351,0.659854,-0.748372,-0.376578,-0.222035,0.203069,0.778527,-0.391507,0.15612,-0.114381,-0.076009,0.155782,1.366563,-0.077462,0.234052,0.099254,-0.090462,0.15721,0.367411,0.13109,-0.060039,0.140028,0.882907,-0.165706,0.665657,0.319242,-0.343252,0.406764,0.48801,-1.264288,0.209887,0.250092
-7.899587,0.455854,0.743597,-0.057458,0.043033,0.648257,-0.75803,-0.302991,-0.245623,0.169637,0.729375,-0.366596,0.149786,-0.20464,-0.090529,0.17478,1.382484,-0.126903,0.181338,0.08933,-0.105246,0.157675,0.330777,0.014708,0.012804,0.085851,0.787492,-0.217294,0.746347,0.380299,-0.380964,0.437392,0.467277,-1.336961,0.053501,0.378215
-7.90038,0.424675,0.754827,-0.059955,0.043644,0.637721,-0.766689,-0.233896,-0.256904,0.135528,0.675674,-0.317033,0.140525,-0.286095,-0.092887,0.19432,1.335031,-0.186798,0.118521,0.074958,-0.114445,0.154791,0.303176,-0.02547,0.020832,0.024587,0.750028,-0.24497,0.777864,0.472922,-0.382634,0.382981,0.421836,-1.284633,-0.037714,0.433444
-7.901278,0.393347,0.765772,-0.061003,0.040849,0.627047,-0.775514,-0.169888,-0.257367,0.099523,0.621726,-0.255975,0.131834,-0.351477,-0.101152,0.198396,1.224904,-0.236894,0.073071,0.05807,-0.117609,0.149118,0.289645,-0.012514,-0.030555,-0.032065,0.760261,-0.273878,0.748751,0.561469,-0.37559,0.32754,0.393813,-1.188002,-0.05599,0.450895
-7.902203,0.361758,0.774916,-0.061477,0.035929,0.615126,-0.785207,-0.112734,-0.250981,0.060798,0.576191,-0.200656,0.124432,-0.399196,-0.118907,0.179372,1.065668,-0.266556,0.040619,0.040382,-0.1168,0.142137,0.282756,0.043688,-0.103273,-0.077609,0.813832,-0.306967,0.646169,0.632608,-0.371329,0.301723,0.377645,-1.10188,-0.04606,0.452725
-7.902946,0.330066,0.780781,-0.061332,0.028185,0.601675,-0.795884,-0.062869,-0.237772,0.018428,0.540063,-0.164719,0.115809,-0.428084,-0.130664,0.159131,0.869452,-0.266456,0.03889,0.021889,-0.112285,0.134253,0.27138,0.118079,-0.171203,-0.116642,0.866533,-0.351422,0.51261,0.678563,-0.374125,0.296992,0.360831,-1.062413,-0.049685,0.451404
-7.903264,0.298276,0.781943,-0.058697,0.020024,0.586517,-0.807559,-0.01555,-0.217034,-0.024958,0.52054,-0.164013,0.102597,-0.440306,-0.112042,0.183963,0.674782,-0.229299,0.047188,0.001806,-0.104135,0.12716,0.2574,0.189809,-0.229198,-0.143321,0.880592,-0.398869,0.403523,0.708909,-0.369189,0.284672,0.347431,-1.055263,-0.051453,0.452839
-7.903117,0.266521,0.778067,-0.051806,0.0132,0.572492,-0.818166,0.03469,-0.187407,-0.066116,0.520246,-0.212384,0.088459,-0.444109,-0.087018,0.22541,0.531623,-0.158612,0.082056,-0.015516,-0.092584,0.121582,0.249314,0.258624,-0.284225,-0.158253,0.82477,-0.43149,0.336682,0.7181,-0.357464,0.271269,0.347557,-1.061943,-0.051328,0.46229
-7.902461,0.235152,0.770454,-0.039162,0.00773,0.561733,-0.826355,0.085388,-0.146558,-0.101065,0.54011,-0.28198,0.067639,-0.436638,-0.07417,0.208688,0.485961,-0.113328,0.136811,-0.026263,-0.079522,0.117008,0.237893,0.33552,-0.33189,-0.165064,0.769401,-0.450061,0.35097,0.71367,-0.335766,0.257884,0.346829,-1.08223,-0.040681,0.470796
-7.901878,0.205688,0.760529,-0.024336,0.010152,0.554572,-0.831718,0.127422,-0.109297,-0.130344,0.606945,-0.352855,0.043328,-0.440341,-0.046518,0.159545,0.627159,-0.231925,0.099014,-0.031497,-0.066637,0.115493,0.234191,0.404618,-0.360754,-0.166725,0.774243,-0.463068,0.417585,0.69358,-0.321745,0.252543,0.348249,-1.11215,-0.037642,0.46425
-7.90006,0.178036,0.752133,-0.007026,0.011584,0.551395,-0.834134,0.141888,-0.070945,-0.145672,0.711789,-0.365176,0.009001,-0.433274,-0.012379,0.116735,0.744439,-0.304317,0.072982,-0.036514,-0.049114,0.119565,0.237636,0.46019,-0.354151,-0.157559,0.873123,-0.449905,0.502212,0.621951,-0.315559,0.263913,0.366978,-1.157449,-0.027416,0.443573
-7.895854,0.152305,0.749269,0.004974,0.014794,0.54867,-0.835893,0.130654,-0.047119,-0.138803,0.840933,-0.325875,-0.029791,-0.406106,0.006001,0.088364,0.814905,-0.355595,0.06293,-0.044536,-0.031793,0.122879,0.273695,0.447102,-0.319582,-0.094048,1.01503,-0.392738,0.531679,0.509522,-0.318421,0.282412,0.412772,-1.238292,-0.012713,0.381732
-7.890119,0.129061,0.749569,0.011116,0.019992,0.541307,-0.840514,0.0955,-0.034529,-0.122165,0.963902,-0.259181,-0.044297,-0.357201,0.00575,0.065431,0.830269,-0.384836,0.054013,-0.050994,-0.017268,0.123666,0.310621,0.363487,-0.275427,0.042181,1.085672,-0.292873,0.479764,0.407852,-0.310368,0.276858,0.460121,-1.374173,0.033107,0.294767
-7.882645,0.108478,0.754244,0.015087,0.024914,0.533012,-0.845606,0.052406,-0.026689,-0.092694,1.051056,-0.22139,-0.010534,-0.293244,-0.001093,0.048049,0.798718,-0.384184,0.049841,-0.051624,-0.003511,0.123527,0.331807,0.254822,-0.216539,0.215145,1.048207,-0.165231,0.349099,0.343524,-0.252618,0.192376,0.472137,-1.47029,0.121036,0.232791
-7.873784,0.09029,0.762236,0.016759,0.028125,0.523394,-0.851462,0.000254,-0.022765,-0.051222,1.096909,-0.205764,0.020069,-0.228153,-0.014073,0.030604,0.74575,-0.358168,0.055265,-0.04657,0.008774,0.122442,0.336916,0.175638,-0.157941,0.356043,0.990996,0.002406,0.198289,0.293893,-0.143424,0.039059,0.421404,-1.447216,0.205455,0.132959
-7.864139,0.073398,0.774313,0.016782,0.02843,0.513956,-0.857181,-0.060709,-0.019844,-0.003823,1.110988,-0.189354,0.004991,-0.170354,-0.027959,0.011121,0.690201,-0.317408,0.065098,-0.038637,0.017568,0.120024,0.324963,0.173162,-0.14933,0.46084,1.00371,0.173534,0.037692,0.236523,-0.017218,-0.096978,0.333957,-1.286454,0.227535,0.002099
-7.854364,0.057627,0.783277,0.015077,0.027135,0.506124,-0.861902,-0.125359,-0.013947,0.054928,1.093528,-0.180362,-0.004976,-0.120828,-0.040252,-0.007157,0.635049,-0.275237,0.0753,-0.03092,0.023334,0.116487,0.322669,0.214614,-0.213399,0.521912,1.094568,0.249374,-0.117943,0.169699,0.053254,-0.158867,0.263663,-1.058736,0.186848,-0.108415
-7.844387,0.042519,0.789471,0.012728,0.024144,0.498219,-0.866622,-0.187827,-0.00027,0.123837,1.048468,-0.19379,-0.005915,-0.078839,-0.050665,-0.025922,0.587303,-0.242197,0.083852,-0.023264,0.026964,0.113511,0.327398,0.285583,-0.314329,0.545189,1.227922,0.169875,-0.251629,0.110326,0.04158,-0.142108,0.219017,-0.878159,0.129649,-0.173521
-7.834238,0.02765,0.792668,0.0098,0.018457,0.488936,-0.872069,-0.248987,0.026198,0.206624,0.981789,-0.211184,0.007566,-0.046063,-0.058047,-0.04687,0.551716,-0.226957,0.089703,-0.014961,0.029928,0.111087,0.347419,0.353195,-0.386525,0.511159,1.342361,0.021179,-0.329431,0.050223,-0.031358,-0.070104,0.188123,-0.814856,0.078668,-0.196789
-7.823557,0.012591,0.79291,0.008876,0.012468,0.47875,-0.877818,-0.301218,0.048166,0.28133,0.892383,-0.226789,0.028514,-0.013611,-0.059882,-0.066987,0.526074,-0.229628,0.095431,-0.004849,0.033642,0.109184,0.375619,0.390325,-0.40382,0.457837,1.376294,-0.085444,-0.361004,-0.004523,-0.120864,0.013185,0.149303,-0.848069,0.041938,-0.201485
-7.812039,-0.002922,0.790653,0.009447,0.005893,0.467811,-0.883758,-0.343431,0.056916,0.3422,0.774114,-0.236372,0.059292,0.020341,-0.057409,-0.087708,0.504961,-0.24511,0.10197,0.006914,0.038846,0.10799,0.404998,0.411258,-0.40355,0.408552,1.337907,-0.155729,-0.366543,-0.049217,-0.195769,0.074401,0.105775,-0.890251,0.004155,-0.183774
-7.799337,-0.019174,0.786569,0.011138,-0.001574,0.456187,-0.889813,-0.370537,0.057037,0.399398,0.624113,-0.23686,0.073383,0.058239,-0.050829,-0.108459,0.481616,-0.264508,0.111501,0.018657,0.044729,0.10611,0.432075,0.431782,-0.399146,0.373629,1.256413,-0.194577,-0.35282,-0.082591,-0.253672,0.107223,0.065033,-0.904582,-0.021523,-0.166414
-7.785164,-0.036228,0.781383,0.014363,-0.008588,0.445687,-0.895032,-0.382469,0.041631,0.438817,0.45293,-0.229483,0.083812,0.101686,-0.040143,-0.123378,0.456272,-0.279759,0.123266,0.029188,0.049419,0.103478,0.44667,0.436373,-0.39927,0.365855,1.148695,-0.215993,-0.331134,-0.103922,-0.292842,0.124799,0.04307,-0.878179,-0.036362,-0.150079
-7.769679,-0.053741,0.776211,0.017223,-0.012032,0.439082,-0.898201,-0.382333,0.012264,0.432165,0.296785,-0.196223,0.112069,0.152398,-0.031282,-0.126563,0.426151,-0.281138,0.133184,0.038837,0.050722,0.100278,0.449558,0.420282,-0.400045,0.386321,1.046699,-0.217345,-0.309115,-0.125592,-0.32841,0.145298,0.052997,-0.827528,-0.040838,-0.137105
-7.753135,-0.071259,0.771298,0.016903,-0.011646,0.435119,-0.900139,-0.373831,-0.011568,0.416712,0.217777,-0.109466,0.192342,0.198229,-0.03299,-0.121433,0.409614,-0.264732,0.149374,0.046762,0.047362,0.096994,0.440431,0.382232,-0.392065,0.432018,0.976736,-0.192094,-0.276886,-0.151494,-0.364486,0.171537,0.103584,-0.791515,-0.029386,-0.134012
-7.735329,-0.08865,0.764442,0.016969,-0.007728,0.435053,-0.900212,-0.354058,-0.018596,0.400262,0.247099,-0.045104,0.247651,0.225856,-0.041663,-0.103892,0.440007,-0.235623,0.168004,0.0538,0.038423,0.094226,0.425172,0.330813,-0.37054,0.49688,0.946705,-0.152172,-0.229377,-0.182524,-0.394313,0.209594,0.189422,-0.801459,-0.005128,-0.132768
-7.717358,-0.104712,0.76277,0.013403,-0.00258,0.4317,-0.901914,-0.351777,-0.029464,0.394076,0.323717,-0.092846,0.249539,0.216218,-0.060679,-0.086072,0.530487,-0.179888,0.191139,0.0597,0.023657,0.095103,0.384774,0.265474,-0.329403,0.585403,0.933773,-0.076907,-0.163333,-0.217545,-0.410883,0.248586,0.296093,-0.861214,0.048084,-0.133368
-7.699037,-0.120988,0.761159,0.009995,0.003036,0.423772,-0.905709,-0.342694,-0.046323,0.381038,0.393689,-0.147918,0.24368,0.176697,-0.081427,-0.078916,0.668427,-0.083546,0.208988,0.068531,0.005716,0.097191,0.33654,0.203821,-0.266745,0.684461,0.943957,0.020126,-0.066952,-0.214265,-0.401553,0.277361,0.406652,-0.960451,0.114889,-0.152099
-7.680341,-0.13754,0.76037,0.007192,0.007125,0.416861,-0.908914,-0.323427,-0.063009,0.36888,0.441358,-0.198949,0.238629,0.113071,-0.09797,-0.058588,0.833095,0.008476,0.241208,0.079048,-0.009974,0.098152,0.290138,0.147297,-0.192063,0.767052,0.963289,0.132611,0.036838,-0.182523,-0.353383,0.278436,0.510871,-1.010428,0.18186,-0.149079
-7.661538,-0.153896,0.759409,0.00561,0.012117,0.409703,-0.912121,-0.290536,-0.083002,0.355836,0.465224,-0.242886,0.239394,0.04758,-0.114208,-0.044224,0.986928,0.086022,0.249648,0.088347,-0.022232,0.098964,0.256299,0.093788,-0.10761,0.803101,0.956431,0.210203,0.138999,-0.142269,-0.295407,0.257685,0.600412,-0.987932,0.225644,-0.105066
-7.643056,-0.170109,0.758517,0.004046,0.017279,0.399831,-0.916417,-0.256354,-0.104881,0.337647,0.484316,-0.276896,0.239455,-0.010253,-0.127771,-0.035894,1.106852,0.12679,0.250397,0.092684,-0.032966,0.100792,0.233613,0.049318,-0.02337,0.792016,0.897304,0.189221,0.236387,-0.104726,-0.258339,0.243869,0.672658,-0.937785,0.232823,-0.025409
-7.624986,-0.186094,0.757368,0.001952,0.021378,0.386451,-0.92206,-0.226156,-0.127756,0.312262,0.505747,-0.308562,0.236473,-0.065144,-0.131624,-0.022147,1.191402,0.083397,0.250434,0.092484,-0.043001,0.103092,0.2181,0.031986,0.015878,0.761558,0.829866,0.101392,0.262441,-0.065867,-0.252877,0.266422,0.732392,-0.929045,0.209796,0.060569
-7.606983,-0.201739,0.756272,-0.000489,0.02433,0.367906,-0.929544,-0.194542,-0.153332,0.27812,0.520603,-0.33513,0.230451,-0.11838,-0.143915,-0.0104,1.242602,0.006055,0.24931,0.088431,-0.052257,0.104991,0.208644,0.059673,-0.013956,0.697426,0.845977,0.010773,0.290496,-0.017365,-0.251714,0.306988,0.776396,-0.964516,0.182046,0.098769
-7.588855,-0.216861,0.755433,-0.003826,0.026244,0.345382,-0.938087,-0.159251,-0.181914,0.237094,0.524614,-0.353981,0.227613,-0.172729,-0.16293,-0.006015,1.262357,-0.061366,0.234988,0.081924,-0.060716,0.106519,0.194972,0.115914,-0.072103,0.617991,0.93433,-0.069587,0.348737,0.046832,-0.251038,0.341215,0.788754,-1.01253,0.164425,0.112536
-7.570617,-0.231253,0.754866,-0.007355,0.026214,0.321492,-0.946521,-0.123282,-0.209018,0.191692,0.521741,-0.367683,0.227776,-0.229654,-0.177982,-0.001224,1.25184,-0.132908,0.18249,0.073641,-0.068589,0.108173,0.17642,0.157673,-0.105405,0.520086,1.026063,-0.141498,0.403969,0.123853,-0.233057,0.346045,0.790826,-1.034032,0.173795,0.094906
-7.552236,-0.244992,0.754651,-0.009825,0.02408,0.297849,-0.954259,-0.086891,-0.230154,0.143582,0.513831,-0.377634,0.228369,-0.286644,-0.171504,0.018427,1.211907,-0.211098,0.132361,0.063213,-0.075267,0.109539,0.168537,0.175133,-0.105411,0.405935,1.069065,-0.206256,0.445597,0.206356,-0.178422,0.276907,0.788932,-0.950063,0.202111,0.037202
-7.533552,-0.258072,0.75449,-0.011878,0.020773,0.275659,-0.960958,-0.050438,-0.246631,0.094681,0.503166,-0.385034,0.228232,-0.340899,-0.156995,0.040537,1.152078,-0.283342,0.093136,0.051243,-0.08082,0.111517,0.169259,0.17407,-0.090193,0.293506,1.058424,-0.260293,0.459268,0.283549,-0.102077,0.144653,0.788156,-0.755216,0.215877,-0.018267
-7.514288,-0.270312,0.754302,-0.014432,0.017195,0.254484,-0.966817,-0.011835,-0.262073,0.044569,0.487098,-0.389022,0.227521,-0.394143,-0.124082,0.071294,1.0869,-0.304362,0.017379,0.037218,-0.085799,0.11537,0.168741,0.160456,-0.073322,0.196796,1.004485,-0.299676,0.467227,0.338502,-0.068732,0.08728,0.792386,-0.62886,0.199336,-0.028895
-7.494177,-0.281585,0.754418,-0.016135,0.013403,0.234127,-0.97198,0.031778,-0.273461,-0.00519,0.462987,-0.389758,0.227082,-0.44222,-0.082164,0.100252,1.014674,-0.320831,-0.000632,0.023004,-0.089369,0.120232,0.168126,0.143648,-0.072347,0.124494,0.924291,-0.314259,0.463241,0.367194,-0.079686,0.125926,0.800985,-0.642748,0.204234,-0.031047
-7.472995,-0.291855,0.75677,-0.017212,0.009775,0.217486,-0.975863,0.08378,-0.281635,-0.048813,0.432301,-0.387508,0.227451,-0.487861,-0.028847,0.130962,0.941662,-0.313913,0.01431,0.010189,-0.092005,0.125588,0.159314,0.1318,-0.081171,0.081627,0.835659,-0.314393,0.449786,0.375016,-0.116672,0.232938,0.811179,-0.752496,0.206024,-0.010483
-7.451315,-0.301002,0.7559,-0.01804,0.005435,0.204429,-0.9787,0.134502,-0.285702,-0.086491,0.39583,-0.384331,0.228359,-0.530041,0.018766,0.147376,0.858536,-0.289667,0.05608,0.000884,-0.094063,0.13103,0.143624,0.127419,-0.094746,0.064744,0.757109,-0.297471,0.430584,0.361509,-0.158168,0.36173,0.829662,-0.896147,0.200005,0.037145
-7.429189,-0.309083,0.75321,-0.020102,0.000246,0.194702,-0.980656,0.180818,-0.290566,-0.116975,0.360495,-0.378686,0.231181,-0.567484,0.054826,0.150244,0.76066,-0.250729,0.110637,-0.005266,-0.095216,0.136417,0.120935,0.131472,-0.110516,0.073213,0.718428,-0.274208,0.418376,0.334464,-0.190341,0.471056,0.850397,-1.01801,0.177241,0.105696
-7.406669,-0.316311,0.74975,-0.020403,-0.007629,0.18616,-0.982278,0.223669,-0.28967,-0.144396,0.320328,-0.365886,0.234097,-0.599328,0.081156,0.136326,0.664915,-0.193818,0.092786,-0.009459,-0.094783,0.141123,0.095342,0.135896,-0.128815,0.112155,0.703814,-0.241848,0.401254,0.305027,-0.20687,0.532181,0.864889,-1.090041,0.145276,0.174112
-7.383684,-0.32303,0.745436,-0.019236,-0.017371,0.176819,-0.983902,0.260271,-0.283817,-0.16928,0.285296,-0.34901,0.237332,-0.625819,0.099521,0.119831,0.61552,-0.135227,0.040809,-0.013526,-0.091226,0.145207,0.064489,0.141858,-0.154157,0.183233,0.710478,-0.203958,0.377488,0.281693,-0.206377,0.529125,0.872943,-1.102758,0.131669,0.233705
-7.35972,-0.329642,0.738754,-0.018018,-0.026142,0.168057,-0.985266,0.289024,-0.278086,-0.186405,0.274103,-0.337763,0.237007,-0.641794,0.109054,0.113227,0.671336,-0.15371,-0.015301,-0.018706,-0.082674,0.148964,0.032654,0.14384,-0.184666,0.289237,0.72628,-0.13911,0.334877,0.263858,-0.198915,0.483404,0.873492,-1.087028,0.147553,0.257395
-7.334718,-0.336055,0.736201,-0.015885,-0.033219,0.161837,-0.98613,0.306578,-0.271461,-0.193213,0.288921,-0.317007,0.22783,-0.646104,0.108685,0.102163,0.736436,-0.222377,-0.018443,-0.026201,-0.068552,0.152408,0.005857,0.142471,-0.218974,0.423394,0.74811,-0.055921,0.261052,0.243932,-0.189624,0.421447,0.86644,-1.068778,0.17703,0.23998
-7.308671,-0.341114,0.736954,-0.00872,-0.04076,0.157756,-0.986598,0.306691,-0.256677,-0.181451,0.326967,-0.268971,0.202669,-0.63109,0.112552,0.08937,0.766543,-0.259303,-0.016198,-0.037913,-0.04822,0.155264,-0.011026,0.138949,-0.249098,0.573687,0.779115,0.040372,0.179858,0.213888,-0.174138,0.348322,0.85235,-1.053945,0.213644,0.184135
-7.282245,-0.345299,0.740153,-0.004029,-0.04812,0.156279,-0.986532,0.27576,-0.247307,-0.152317,0.40555,-0.180632,0.131951,-0.604881,0.111438,0.081181,0.775047,-0.29408,-0.013834,-0.052275,-0.028284,0.15695,-0.012834,0.126867,-0.279772,0.731321,0.823084,0.141764,0.116802,0.175304,-0.158742,0.262973,0.825615,-1.0392,0.261735,0.112936
-7.255637,-0.349075,0.746502,-0.000531,-0.054498,0.154442,-0.986498,0.225309,-0.237741,-0.116809,0.517437,-0.088936,-0.002226,-0.567276,0.106439,0.074819,0.763196,-0.314903,-0.008015,-0.067019,-0.013423,0.158276,-0.001823,0.112707,-0.3229,0.88129,0.869047,0.231022,0.055647,0.138597,-0.145317,0.183792,0.784013,-1.031543,0.298723,0.038151
-7.229075,-0.352638,0.752979,0.000818,-0.059298,0.148965,-0.987063,0.155944,-0.218428,-0.070697,0.653026,-0.015707,-0.148802,-0.520198,0.094727,0.068977,0.736242,-0.324308,-0.002191,-0.081808,-0.004071,0.160213,0.013915,0.101858,-0.38871,1.015633,0.91392,0.251585,-0.027075,0.095211,-0.130019,0.108045,0.72354,-1.016218,0.313523,-0.036264
-7.202537,-0.355843,0.760798,0.001093,-0.061999,0.13819,-0.988463,0.075069,-0.172904,0.003687,0.793042,0.033332,-0.200311,-0.461879,0.075226,0.057737,0.693977,-0.321578,0.005635,-0.09525,0.001943,0.162408,0.025393,0.11471,-0.474053,1.111529,0.971889,0.194138,-0.14265,0.066429,-0.116897,0.054233,0.639029,-0.996574,0.298155,-0.107455
-7.175576,-0.358664,0.771288,-0.000308,-0.06312,0.125675,-0.990061,-0.008471,-0.106451,0.086681,0.915816,0.040966,-0.170447,-0.399041,0.051173,0.043651,0.647351,-0.30782,0.014583,-0.102269,0.006506,0.163874,0.037414,0.149907,-0.561352,1.147674,1.036537,0.091125,-0.250304,0.049786,-0.108301,0.018895,0.539332,-0.969668,0.261417,-0.168669
-7.148472,-0.361021,0.77954,-0.002151,-0.063347,0.11371,-0.99149,-0.092123,-0.044218,0.145848,1.006405,0.028844,-0.129071,-0.337228,0.028301,0.02879,0.603573,-0.287675,0.023039,-0.10053,0.010651,0.164232,0.055225,0.195247,-0.60822,1.125188,1.07141,-0.004831,-0.314619,0.04393,-0.106343,0.006088,0.435886,-0.943188,0.209322,-0.215509
-7.121198,-0.362879,0.785802,-0.003288,-0.063361,0.102874,-0.992669,-0.17728,-0.006975,0.16523,1.055952,-7.6e-05,-0.101267,-0.277877,0.009539,0.0143,0.564539,-0.265429,0.032931,-0.092331,0.013914,0.164191,0.080071,0.236476,-0.603366,1.06867,1.065058,-0.060519,-0.3269,0.05061,-0.105405,0.009363,0.330009,-0.906291,0.154943,-0.251831
-7.093681,-0.364139,0.789769,-0.003239,-0.064363,0.090534,-0.993806,-0.269104,0.013632,0.159964,1.071809,-0.059969,-0.075545,-0.224172,-0.005737,-0.002796,0.535086,-0.247815,0.040029,-0.080529,0.015774,0.163444,0.116504,0.279423,-0.562863,0.992787,1.028891,-0.080418,-0.286153,0.050109,-0.107681,0.016749,0.251575,-0.855697,0.102106,-0.271327
-7.065529,-0.364726,0.791207,-0.003142,-0.066242,0.078145,-0.994734,-0.359199,0.028276,0.147539,1.051639,-0.132291,-0.06342,-0.177014,-0.019387,-0.019781,0.518769,-0.240209,0.046431,-0.066914,0.016406,0.162095,0.156191,0.313304,-0.507637,0.914225,0.971501,-0.088656,-0.205635,0.042218,-0.118477,0.0289,0.202217,-0.80443,0.055842,-0.278436
-7.036453,-0.364672,0.790088,-0.003208,-0.068582,0.067348,-0.995364,-0.447955,0.036441,0.130177,1.001036,-0.189918,-0.03853,-0.135384,-0.031768,-0.034017,0.515531,-0.243388,0.056289,-0.050609,0.016402,0.162283,0.190582,0.333928,-0.449322,0.84667,0.898131,-0.096902,-0.109819,0.030722,-0.138277,0.047721,0.17759,-0.76347,0.024615,-0.265182
