hanqing-shi/Humanoids-Motion-Generation/dataset/data_joint/walk/walk3_subject1_seg1.csv
root_x,root_y,root_z,root_qx,root_qy,root_qz,root_qw,left_hip_pitch_joint,left_hip_roll_joint,left_hip_yaw_joint,left_knee_joint,left_ankle_pitch_joint,left_ankle_roll_joint,right_hip_pitch_joint,right_hip_roll_joint,right_hip_yaw_joint,right_knee_joint,right_ankle_pitch_joint,right_ankle_roll_joint,waist_yaw_joint,waist_roll_joint,waist_pitch_joint,left_shoulder_pitch_joint,left_shoulder_roll_joint,left_shoulder_yaw_joint,left_elbow_joint,left_wrist_roll_joint,left_wrist_pitch_joint,left_wrist_yaw_joint,right_shoulder_pitch_joint,right_shoulder_roll_joint,right_shoulder_yaw_joint,right_elbow_joint,right_wrist_roll_joint,right_wrist_pitch_joint,right_wrist_yaw_joint
-0.005741,0.050183,0.791049,0.014947,-0.026363,0.037481,0.998838,0.007074,0.02465,0.410814,0.268688,-0.17014,0.051393,-0.150359,-0.259494,-0.233644,0.560942,-0.152624,0.048791,0.023179,-0.080167,0.116261,0.001499,-0.061179,0.059489,0.750983,1.277349,0.287192,0.165307,0.266748,0.043687,-0.244897,0.456561,-0.915285,0.221903,-0.112057
-0.005921,0.052086,0.792778,0.016545,-0.026975,0.037866,0.998782,0.005811,0.019316,0.411162,0.275161,-0.174213,0.05501,-0.166308,-0.270332,-0.230816,0.595464,-0.150485,0.03643,0.022721,-0.083687,0.118971,0.010191,-0.065822,0.063565,0.75061,1.253854,0.287428,0.18076,0.28768,0.045822,-0.253933,0.454339,-0.900633,0.238326,-0.127516
-0.005852,0.053788,0.792672,0.018266,-0.027668,0.038517,0.998708,0.006016,0.013328,0.411016,0.279072,-0.177795,0.058259,-0.176436,-0.280794,-0.233423,0.619462,-0.150505,0.026078,0.022354,-0.087851,0.12081,0.026218,-0.060186,0.068368,0.75034,1.232554,0.281825,0.184711,0.298707,0.041886,-0.262893,0.477162,-0.890105,0.256506,-0.12813
-0.005479,0.055336,0.792276,0.019847,-0.028585,0.039521,0.998613,0.008059,0.007174,0.410028,0.280373,-0.18025,0.061154,-0.178006,-0.291408,-0.243408,0.630988,-0.152701,0.017506,0.022254,-0.092316,0.121607,0.040653,-0.052567,0.070079,0.756558,1.217084,0.28079,0.172217,0.309762,0.038324,-0.272847,0.510904,-0.880322,0.272138,-0.121639
-0.004804,0.056694,0.791973,0.021255,-0.029725,0.041005,0.99849,0.011598,0.001164,0.407844,0.279974,-0.181811,0.063582,-0.170901,-0.30257,-0.262027,0.631078,-0.157059,0.012265,0.022778,-0.096751,0.121587,0.054318,-0.041458,0.067874,0.769234,1.209462,0.282244,0.140173,0.31966,0.036072,-0.28522,0.553035,-0.871534,0.28701,-0.117502
-0.003895,0.057816,0.791855,0.022626,-0.030864,0.042846,0.998348,0.015565,-0.004491,0.404667,0.279326,-0.18295,0.065425,-0.158495,-0.314637,-0.287823,0.624252,-0.160383,0.011483,0.02436,-0.100919,0.121244,0.066704,-0.027286,0.064033,0.785642,1.209432,0.288191,0.094506,0.327356,0.035466,-0.29831,0.601332,-0.862814,0.303772,-0.109273
-0.002858,0.058716,0.791893,0.02379,-0.031774,0.045224,0.998188,0.018859,-0.009446,0.400313,0.279263,-0.184419,0.066939,-0.144599,-0.325302,-0.313243,0.614424,-0.160765,0.012274,0.026409,-0.104509,0.121024,0.076769,-0.010783,0.057751,0.804248,1.217736,0.296671,0.038777,0.333755,0.034473,-0.307328,0.649158,-0.858763,0.319087,-0.092446
-0.001829,0.059385,0.79198,0.024663,-0.032585,0.047881,0.998017,0.021831,-0.013566,0.395313,0.27909,-0.185618,0.068214,-0.133831,-0.332902,-0.330851,0.607743,-0.159051,0.013111,0.028009,-0.107486,0.121211,0.086202,0.006839,0.047151,0.821385,1.235631,0.300184,-0.014462,0.340285,0.032652,-0.310542,0.688176,-0.863863,0.324902,-0.078654
-0.000861,0.059809,0.791985,0.025459,-0.033194,0.050658,0.99784,0.023953,-0.017029,0.390144,0.279595,-0.186904,0.069349,-0.130484,-0.338006,-0.336788,0.6106,-0.155719,0.010615,0.028734,-0.109769,0.12204,0.09767,0.022971,0.035145,0.834513,1.260685,0.30217,-0.056168,0.347229,0.031905,-0.310398,0.715503,-0.876919,0.321813,-0.075064
-0.0,0.059985,0.791829,0.026447,-0.033669,0.053114,0.99767,0.024599,-0.019899,0.38557,0.282452,-0.189093,0.070235,-0.135163,-0.34224,-0.332476,0.624467,-0.151069,0.007208,0.028515,-0.11138,0.123505,0.112452,0.035974,0.025431,0.842325,1.287921,0.30139,-0.081583,0.353272,0.034498,-0.313503,0.730441,-0.889021,0.316392,-0.078528
0.000765,0.060003,0.791611,0.027253,-0.033908,0.055093,0.997533,0.024405,-0.021928,0.381847,0.285785,-0.191394,0.070762,-0.144857,-0.347234,-0.326556,0.645144,-0.143207,0.003168,0.027857,-0.112594,0.125327,0.130108,0.044826,0.021824,0.845145,1.311349,0.300298,-0.09173,0.35772,0.041309,-0.32219,0.732159,-0.893807,0.309703,-0.086945
0.001465,0.059862,0.791326,0.027844,-0.033992,0.057,0.997407,0.023876,-0.023263,0.378329,0.288886,-0.193567,0.070639,-0.158229,-0.352825,-0.319932,0.671107,-0.132987,-0.000246,0.026917,-0.113613,0.127445,0.149575,0.047771,0.027866,0.843225,1.323275,0.298951,-0.09079,0.359395,0.049263,-0.331897,0.7256,-0.893802,0.30119,-0.09563
0.002123,0.059512,0.790901,0.028487,-0.034032,0.058906,0.997276,0.022598,-0.024071,0.37483,0.293452,-0.196634,0.069437,-0.174945,-0.358535,-0.311886,0.701919,-0.121607,-0.004276,0.025922,-0.114346,0.129816,0.168271,0.045902,0.040538,0.838981,1.324375,0.298793,-0.08666,0.358275,0.054835,-0.337808,0.715331,-0.895834,0.294464,-0.102232
0.002778,0.05899,0.790361,0.028918,-0.034131,0.060418,0.99717,0.021015,-0.02376,0.371833,0.299294,-0.200532,0.067479,-0.19389,-0.363903,-0.302689,0.735417,-0.108216,-0.011587,0.025118,-0.114843,0.132355,0.184476,0.042035,0.056519,0.836394,1.318419,0.298987,-0.084135,0.354456,0.057324,-0.337871,0.703124,-0.9015550000000001,0.286114,-0.104816
0.003455,0.05827,0.789752,0.028929,-0.034428,0.061454,0.997096,0.019677,-0.021908,0.369409,0.305864,-0.204729,0.065625,-0.214219,-0.366842,-0.29014,0.769687,-0.093308,-0.020547,0.024891,-0.114978,0.13501,0.197827,0.03776,0.071952,0.83525,1.310023,0.299357,-0.085365,0.347983,0.056527,-0.332526,0.691627,-0.910384,0.276986,-0.104877
0.004189,0.057323,0.78913,0.028481,-0.034831,0.062169,0.997051,0.018556,-0.018567,0.367313,0.312503,-0.208493,0.064633,-0.236164,-0.366327,-0.272182,0.804589,-0.076133,-0.026261,0.025414,-0.114562,0.137775,0.207472,0.036018,0.078477,0.835489,1.310273,0.297347,-0.088266,0.338741,0.054233,-0.32479,0.680059,-0.918131,0.267614,-0.102918
0.005005,0.056147,0.788525,0.027505,-0.03507,0.062905,0.997024,0.01715,-0.013814,0.364973,0.31873,-0.211969,0.062659,-0.259342,-0.362235,-0.249456,0.839065,-0.057007,-0.026883,0.026685,-0.113361,0.140631,0.212201,0.035437,0.078573,0.836179,1.317997,0.294795,-0.091568,0.328657,0.051741,-0.317345,0.666664,-0.921798,0.258221,-0.098503
0.005931,0.054679,0.787965,0.026163,-0.035045,0.063851,0.997001,0.015076,-0.007926,0.362024,0.324592,-0.214902,0.059824,-0.281897,-0.354623,-0.224367,0.871321,-0.039868,-0.024131,0.0288,-0.111334,0.143147,0.209921,0.030691,0.076394,0.83738,1.326579,0.29768,-0.095194,0.323203,0.0503,-0.308776,0.646554,-0.922474,0.249399,-0.092881
0.006959,0.052906,0.787604,0.024287,-0.034598,0.065056,0.996986,0.012622,-0.000888,0.358318,0.328806,-0.216671,0.056267,-0.301555,-0.340956,-0.197148,0.896126,-0.030653,-0.021497,0.03167,-0.108514,0.144948,0.210347,0.031312,0.077801,0.833609,1.331314,0.291515,-0.095813,0.31073,0.046729,-0.301682,0.633093,-0.921493,0.241692,-0.085835
0.007926,0.050804,0.787715,0.022143,-0.033584,0.066328,0.996987,0.009492,0.006829,0.354333,0.331471,-0.217286,0.05214,-0.31604,-0.321816,-0.170257,0.90627,-0.043444,-0.010127,0.035317,-0.10498,0.145898,0.205633,0.028998,0.080716,0.829362,1.332797,0.286253,-0.095705,0.301542,0.044267,-0.2945,0.616522,-0.918615,0.23184,-0.077464
0.009574,0.048305,0.790044,0.020303,-0.031944,0.067209,0.997021,0.005923,0.014802,0.350725,0.333889,-0.217326,0.047221,-0.327581,-0.302437,-0.146813,0.894917,-0.072807,-0.002701,0.03966,-0.10126,0.145759,0.197669,0.026205,0.082458,0.824987,1.33488,0.282331,-0.097017,0.294464,0.042142,-0.287694,0.598805,-0.916019,0.223704,-0.069021
0.011533,0.045574,0.791307,0.018028,-0.02965,0.068153,0.997071,0.002505,0.023336,0.346802,0.333099,-0.216109,0.041811,-0.328171,-0.287719,-0.140078,0.856286,-0.09577500000000001,-0.001843,0.044508,-0.097582,0.144064,0.18686,0.024041,0.083757,0.81936,1.336577,0.280143,-0.097667,0.287769,0.041951,-0.281614,0.583393,-0.912398,0.21768,-0.057415
0.013916,0.042626,0.792435,0.015416,-0.027011,0.069411,0.997103,0.000414,0.032162,0.342137,0.328424,-0.213282,0.035895,-0.314898,-0.283706,-0.16058,0.786817,-0.110543,-0.003336,0.049533,-0.094033,0.140675,0.174394,0.023288,0.083183,0.813109,1.338513,0.277696,-0.09875900000000001,0.281042,0.043434,-0.276994,0.573166,-0.907409,0.21249,-0.042748
0.016793,0.039472,0.793418,0.013607,-0.023959,0.070955,0.997099,-0.000623,0.039231,0.337122,0.321098,-0.209478,0.029759,-0.290276,-0.283845,-0.198858,0.690303,-0.124694,-0.004423,0.053991,-0.090817,0.135746,0.161155,0.023594,0.079895,0.806685,1.341156,0.274763,-0.100784,0.273547,0.04478,-0.273731,0.568637,-0.901213,0.207218,-0.025506
0.020282,0.036183,0.794164,0.012329,-0.021041,0.07295,0.997037,0.001071,0.044938,0.331439,0.310852,-0.205094,0.023202,-0.256666,-0.278397,-0.242577,0.573446,-0.128907,0.001077,0.057846,-0.08813,0.129597,0.147548,0.024868,0.07551,0.80019,1.343537,0.270522,-0.10141,0.266375,0.045224,-0.270024,0.570384,-0.896873,0.201375,-0.00762
0.024375,0.032822,0.7943,0.011386,-0.018645,0.075586,0.9969,0.00709,0.049344,0.32492,0.296051,-0.199594,0.016365,-0.216143,-0.262376,-0.281348,0.445807,-0.114282,0.022236,0.0618,-0.085372,0.122549,0.133,0.027144,0.069659,0.795291,1.346679,0.267052,-0.102519,0.260888,0.044574,-0.265181,0.576632,-0.900068,0.195345,-0.004461
0.028775,0.029506,0.792469,0.008713,-0.017264,0.079198,0.996671,0.020046,0.054949,0.317174,0.270339,-0.189763,0.009811,-0.177126,-0.236105,-0.288247,0.355552,-0.081831,0.032394,0.064897,-0.080558,0.115253,0.117316,0.032115,0.062913,0.790598,1.349949,0.26369,-0.104904,0.255604,0.046185,-0.260395,0.586951,-0.912373,0.189485,-0.030579
0.03344,0.025693,0.792624,0.00867,-0.016397,0.080925,0.996548,0.028866,0.059824,0.312486,0.258663,-0.185441,0.002232,-0.153761,-0.230037,-0.307,0.325776,-0.093503,0.047479,0.069534,-0.075299,0.109422,0.102436,0.035271,0.056467,0.786126,1.353034,0.262185,-0.103239,0.248022,0.04909,-0.260538,0.603851,-0.924269,0.189741,-0.070529
0.038055,0.021506,0.793004,0.006877,-0.01671,0.081339,0.996523,0.035945,0.071185,0.309277,0.256028,-0.185388,-0.007124,-0.143449,-0.22143,-0.316925,0.321522,-0.094623,0.055783,0.07336,-0.069397,0.1052,0.092177,0.040029,0.051146,0.780614,1.3572,0.260312,-0.098476,0.235899,0.05519,-0.262267,0.630384,-0.932434,0.200579,-0.100487
0.042677,0.016926,0.793016,0.005163,-0.017589,0.079886,0.996635,0.041046,0.084951,0.308944,0.261332,-0.189313,-0.017388,-0.143472,-0.212187,-0.317663,0.336682,-0.101921,0.055922,0.07552,-0.062638,0.102217,0.087817,0.038986,0.052798,0.772534,1.355808,0.263472,-0.090647,0.218505,0.061178,-0.267599,0.659996,-0.930584,0.216005,-0.113702
0.047443,0.012045,0.792769,0.004067,-0.01804,0.078114,0.996773,0.045358,0.09822,0.3098,0.267305,-0.193496,-0.028073,-0.147537,-0.203683,-0.316338,0.358604,-0.114642,0.050598,0.075406,-0.056316,0.09966100000000001,0.087812,0.032811,0.058393,0.762618,1.344148,0.267539,-0.0825,0.199586,0.063646,-0.271753,0.685566,-0.920849,0.229354,-0.104488
0.052458,0.007011,0.792551,0.003246,-0.018849,0.076672,0.996873,0.05318,0.110594,0.310901,0.268411,-0.195869,-0.039178,-0.145839,-0.193945,-0.316804,0.372016,-0.128506,0.042955,0.073449,-0.050635,0.097195,0.09046100000000001,0.028983,0.056593,0.753937,1.330808,0.261969,-0.075277,0.183625,0.06012,-0.266073,0.705626,-0.915085,0.239407,-0.06835
0.057682,0.001967,0.792592,0.002133,-0.020414,0.075367,0.996945,0.066067,0.122779,0.31244,0.262912,-0.195335,-0.050547,-0.135622,-0.181336,-0.319043,0.372073,-0.138534,0.035018,0.069908,-0.045048,0.094741,0.092864,0.029327,0.050461,0.750577,1.316126,0.25015,-0.075048,0.173018,0.052721,-0.251288,0.716523,-0.916339,0.237706,-0.018513
0.063021,-0.002953,0.792951,0.00029,-0.022582,0.073942,0.997007,0.082304,0.135889,0.314609,0.253592,-0.192095,-0.062125,-0.116845,-0.16507,-0.322816,0.357138,-0.142044,0.028435,0.065422,-0.038338,0.091915,0.0939,0.033575,0.039892,0.754104,1.308669,0.239599,-0.079402,0.16759,0.045726,-0.236289,0.719251,-0.923586,0.229703,0.026965
0.068222,-0.007678,0.793407,-0.001957,-0.025095,0.07233,0.997063,0.09813400000000001,0.14983,0.317329,0.246109,-0.187706,-0.073359,-0.094802,-0.147394,-0.326596,0.336155,-0.142004,0.022922,0.05999,-0.030047,0.088886,0.094257,0.035714,0.029452,0.762508,1.312147,0.246153,-0.083128,0.16682,0.044216,-0.231623,0.714337,-0.9277010000000001,0.218062,0.056177
0.073088,-0.012174,0.793746,-0.004674,-0.027066,0.070473,0.9971350000000001,0.109005,0.165283,0.320279,0.245525,-0.184672,-0.083914,-0.074497,-0.129148,-0.32949,0.314989,-0.14177,0.017827,0.053748,-0.020795,0.086047,0.095493,0.029234,0.025472,0.767731,1.328759,0.28604,-0.067776,0.16889,0.04953,-0.239247,0.703042,-0.924875,0.210773,0.065388
0.077568,-0.016453,0.793926,-0.007781,-0.028154,0.068242,0.997241,0.114393,0.182121,0.323336,0.251592,-0.183148,-0.093858,-0.057626,-0.110589,-0.33096,0.295505,-0.142051,0.012707,0.046707,-0.011401,0.083703,0.106307,0.005232,0.042355,0.75355,1.347295,0.365821,0.005008,0.166383,0.062512,-0.252168,0.689831,-0.917861,0.213424,0.056402
0.081666,-0.020478,0.79396,-0.010952,-0.028719,0.06602,0.997345,0.115534,0.199347,0.325491,0.263302,-0.183109,-0.10285,-0.042773,-0.092398,-0.331431,0.27672,-0.142401,0.007595,0.03941,-0.002078,0.082266,0.116526,-0.038164,0.096128,0.725814,1.324128,0.442616,0.1022,0.168153,0.072726,-0.267267,0.672359,-0.907794,0.217875,0.041668
0.085366,-0.024227,0.793893,-0.014124,-0.02946,0.063919,0.99742,0.111918,0.217238,0.324916,0.284297,-0.183559,-0.110036,-0.027415,-0.074406,-0.331467,0.256526,-0.142008,0.002366,0.032736,0.00742,0.082194,0.116006,-0.08767,0.181634,0.696419,1.234937,0.476337,0.169132,0.179303,0.077307,-0.282575,0.65333,-0.895146,0.213949,0.02538
0.088567,-0.02765,0.79364,-0.017382,-0.030724,0.061863,0.99746,0.102969,0.236163,0.320875,0.316663,-0.184939,-0.116678,-0.012924,-0.057237,-0.330999,0.238987,-0.14263,-0.00235,0.027377,0.017319,0.083904,0.118955,-0.120401,0.247642,0.666277,1.118038,0.479348,0.174465,0.180279,0.08606,-0.29094,0.650393,-0.879996,0.217173,0.000606
0.091202,-0.030713,0.793166,-0.020615,-0.03239,0.059724,0.997476,0.087951,0.255787,0.313676,0.361035,-0.186466,-0.120938,-0.001835,-0.041881,-0.329587,0.228679,-0.144765,-0.006658,0.023722,0.02795,0.087476,0.118592,-0.124211,0.272266,0.65791,1.012019,0.471897,0.106997,0.183164,0.087635,-0.296086,0.656947,-0.866546,0.220406,-0.018392
0.093191,-0.033409,0.792435,-0.023821,-0.03413,0.056969,0.997508,0.065024,0.275996,0.302636,0.419378,-0.185783,-0.121253,0.0018,-0.029122,-0.326327,0.232088,-0.151498,-0.010769,0.021967,0.039104,0.09287,0.11972,-0.092337,0.238606,0.674176,0.972083,0.443454,0.005014,0.185777,0.084804,-0.295527,0.669782,-0.85909,0.224177,-0.025142
0.094509,-0.035716,0.791644,-0.027257,-0.03547,0.05299,0.997593,0.033595,0.297582,0.289754,0.491429,-0.179788,-0.11714,-0.004315,-0.018589,-0.320761,0.251503,-0.163992,-0.014876,0.02185,0.050599,0.09988,0.117099,-0.040197,0.17126,0.701331,0.993675,0.386073,-0.085068,0.190885,0.076857,-0.293932,0.686656,-0.857942,0.222158,-0.019666
0.095774,-0.037594,0.792818,-0.030886,-0.036616,0.048452,0.997676,-0.003886,0.321521,0.275781,0.576407,-0.162548,-0.110144,-0.01423,-0.008957,-0.314405,0.277558,-0.178318,-0.018776,0.022883,0.062407,0.107984,0.117054,0.022114,0.081486,0.7228,1.078122,0.316687,-0.139337,0.18948,0.072768,-0.28404,0.71017,-0.867679,0.225697,-0.010632
0.096813,-0.039022,0.79167,-0.034581,-0.037558,0.044353,0.997711,-0.048632,0.344911,0.25998,0.665355,-0.138869,-0.097395,-0.024866,-0.000395,-0.308868,0.304794,-0.193926,-0.021687,0.02453,0.074753,0.116911,0.114931,0.070123,0.004402,0.731442,1.193084,0.294746,-0.145419,0.186459,0.070272,-0.271853,0.733061,-0.884258,0.233413,0.001708
0.097892,-0.039958,0.789552,-0.038119,-0.03842,0.041491,0.997672,-0.0974,0.366429,0.242566,0.755009,-0.11019,-0.070672,-0.033903,0.006562,-0.305346,0.330069,-0.209231,-0.023248,0.026376,0.087723,0.126385,0.111762,0.086986,-0.046405,0.731345,1.3149,0.347026,-0.104635,0.185783,0.070362,-0.268463,0.745089,-0.90481,0.246775,0.015201
0.099079,-0.040452,0.786907,-0.041354,-0.039461,0.039548,0.997581,-0.147381,0.387384,0.227501,0.842081,-0.076188,-0.037557,-0.039659,0.012366,-0.303272,0.350239,-0.222413,-0.023748,0.028286,0.100764,0.136164,0.114867,0.050784,-0.021139,0.703325,1.357812,0.441427,0.032205,0.189125,0.07499,-0.286205,0.737394,-0.922938,0.267387,0.017837
0.100406,-0.040573,0.783916,-0.044056,-0.040834,0.038026,0.99747,-0.193909,0.40934,0.219754,0.922628,-0.046488,-0.004231,-0.042567,0.016919,-0.301708,0.366598,-0.233811,-0.023588,0.030222,0.113219,0.145841,0.119433,-0.016444,0.072385,0.6559,1.28121,0.478859,0.187276,0.195446,0.085834,-0.331235,0.717498,-0.915994,0.281949,-0.000442
0.101914,-0.040279,0.781348,-0.046389,-0.041773,0.036008,0.9974,-0.232196,0.435728,0.225708,0.990034,-0.020128,0.011963,-0.043908,0.021101,-0.299259,0.378204,-0.242904,-0.023077,0.031579,0.124745,0.154677,0.122781,-0.063355,0.14586,0.627005,1.174585,0.48234,0.25612,0.200961,0.099721,-0.388117,0.698311,-0.88418,0.290539,-0.034176
0.103758,-0.039508,0.780396,-0.048177,-0.042146,0.033574,0.997384,-0.268973,0.449414,0.226329,1.043461,-0.014668,0.004326,-0.04492,0.023727,-0.295726,0.38727,-0.250163,-0.021742,0.033108,0.135038,0.162508,0.125789,-0.076588,0.170548,0.61784,1.076181,0.478698,0.209113,0.202486,0.109245,-0.439756,0.686786,-0.838574,0.291205,-0.063084
0.10571,-0.038287,0.779816,-0.047799,-0.041751,0.031794,0.997477,-0.309815,0.425871,0.202109,1.07529,-0.027725,-0.011674,-0.043711,0.022091,-0.29188,0.389205,-0.254086,-0.019382,0.033947,0.142883,0.169223,0.124867,-0.060803,0.154851,0.621545,1.000442,0.462167,0.092662,0.203438,0.107124,-0.467371,0.683758,-0.805776,0.28378,-0.074488
0.10775,-0.03651,0.779814,-0.046043,-0.040393,0.032234,0.997602,-0.349554,0.383899,0.168967,1.085161,-0.043866,-0.035167,-0.042255,0.016201,-0.290101,0.387904,-0.256417,-0.015608,0.031473,0.147656,0.174323,0.122119,-0.010291,0.087891,0.647662,0.995847,0.41653,-0.036744,0.206261,0.098166,-0.474992,0.686074,-0.790058,0.27306,-0.073624
0.109837,-0.034091,0.780115,-0.044287,-0.037871,0.034061,0.99772,-0.382279,0.349115,0.147151,1.072547,-0.055141,-0.060887,-0.04392,0.007864,-0.29056,0.388925,-0.259542,-0.010491,0.025372,0.150121,0.177859,0.114561,0.055036,-0.003044,0.682246,1.053439,0.355927,-0.133024,0.208793,0.086602,-0.468692,0.692128,-0.792907,0.26264,-0.062609
0.111993,-0.031106,0.780701,-0.041958,-0.034267,0.035757,0.997891,-0.404292,0.330268,0.143686,1.034839,-0.072217,-0.073764,-0.047852,-0.00262,-0.29057,0.389847,-0.262179,-0.004305,0.017553,0.151642,0.180039,0.102112,0.114913,-0.099819,0.713533,1.156239,0.299126,-0.193193,0.208112,0.073702,-0.460845,0.698107,-0.806137,0.255605,-0.047877
0.114281,-0.02759,0.781518,-0.039706,-0.029883,0.035747,0.998125,-0.418051,0.321182,0.150112,0.975845,-0.083547,-0.071779,-0.053223,-0.012641,-0.287558,0.388952,-0.263244,0.002376,0.010559,0.152222,0.181425,0.087643,0.152958,-0.177452,0.736776,1.271063,0.275906,-0.220766,0.202219,0.062855,-0.458414,0.702208,-0.821071,0.257139,-0.036318
0.116809,-0.023534,0.782497,-0.037797,-0.02477,0.033319,0.998423,-0.421799,0.311773,0.157792,0.892799,-0.093381,-0.066958,-0.059407,-0.021224,-0.280378,0.384972,-0.262104,0.009602,0.005602,0.151658,0.182111,0.076284,0.169088,-0.226294,0.752871,1.372126,0.274899,-0.221681,0.191036,0.056298,-0.463743,0.702489,-0.828362,0.262976,-0.025587
0.119737,-0.019061,0.783564,-0.035894,-0.019517,0.029338,0.998734,-0.413694,0.296796,0.161388,0.782255,-0.0979,-0.064439,-0.062559,-0.028495,-0.270198,0.373811,-0.257633,0.017398,0.002968,0.149905,0.18184,0.073129,0.161362,-0.226426,0.760439,1.423728,0.291408,-0.200871,0.179311,0.051219,-0.471694,0.697877,-0.831193,0.266892,-0.021814
0.123225,-0.014233,0.78424,-0.034209,-0.014315,0.024195,0.9990190000000002,-0.393803,0.270455,0.151,0.646688,-0.091025,-0.059599,-0.061203,-0.034323,-0.258006,0.354808,-0.25056,0.02587,0.002492,0.146609,0.180397,0.077303,0.13661,-0.182422,0.759665,1.417524,0.313499,-0.167203,0.169731,0.046314,-0.475701,0.690433,-0.833598,0.264199,-0.024782
0.1272,-0.009164,0.783275,-0.031932,-0.009129000000000002,0.017327,0.999298,-0.362285,0.232023,0.121437,0.505188,-0.065425,-0.071594,-0.055695,-0.04011,-0.243197,0.327427,-0.240444,0.034666,0.002987,0.141449,0.178043,0.085055,0.105638,-0.120677,0.749983,1.373149,0.328712,-0.136812,0.161758,0.03917,-0.471534,0.683782,-0.837381,0.258003,-0.02429
0.130974,-0.003979,0.785499,-0.028316,-0.004545,0.011647,0.9995210000000002,-0.337762,0.207853,0.11617,0.44535,-0.035705,-0.04732,-0.046517,-0.048356,-0.230006,0.295935,-0.227532,0.0434,0.001828,0.134988,0.175649,0.091914,0.077093,-0.063458,0.736086,1.314907,0.332827,-0.122994,0.154931,0.028835,-0.464282,0.677688,-0.841176,0.250062,-0.021539
0.135549,0.002001,0.785857,-0.027744,-0.003084,0.008818,0.999571,-0.331423,0.204662,0.136365,0.449678,-0.056375,-0.032709,-0.041369,-0.057258,-0.22149,0.290954,-0.22832,0.05445,-7e-05,0.127777,0.175561,0.096604,0.064709,-0.027973,0.726198,1.269518,0.319916,-0.120778,0.1509,0.022602,-0.457439,0.674597,-0.844655,0.244839,-0.017311
0.140114,0.007973,0.786081,-0.025874,-0.001668,0.007177,0.999638,-0.329749,0.198034,0.150124,0.4587,-0.05934,-0.034434,-0.040862,-0.070291,-0.214494,0.296296,-0.233719,0.065638,-0.001017,0.119063,0.176928,0.09613,0.063356,-0.017305,0.722877,1.250531,0.299883,-0.123701,0.147893,0.021229,-0.456228,0.670587,-0.843625,0.242471,-0.019906
0.144964,0.01408,0.785774,-0.024489,-0.000586,0.005197,0.999686,-0.331723,0.192058,0.159745,0.478424,-0.071451,-0.031781,-0.042047,-0.082804,-0.207035,0.306943,-0.241053,0.076303,-0.001174,0.109789,0.178544,0.09377,0.066896,-0.018902,0.720868,1.250786,0.280977,-0.126661,0.145503,0.024801,-0.453933,0.666031,-0.841255,0.240396,-0.023666
0.150057,0.020376,0.785262,-0.023258,0.000787,0.002114,0.999727,-0.330678,0.186294,0.171252,0.494476,-0.089643,-0.026387,-0.042988,-0.094607,-0.197817,0.315311,-0.247814,0.086811,-0.000306,0.100733,0.179718,0.091324,0.06968,-0.024611,0.717512,1.261808,0.266588,-0.127141,0.142937,0.029629,-0.446869,0.663791,-0.842039,0.240617,-0.024344
0.155161,0.026784,0.784633,-0.021342,0.001759,-0.001558,0.999769,-0.325765,0.178725,0.184735,0.505281,-0.107269,-0.019856,-0.045759,-0.108347,-0.187079,0.328414,-0.257388,0.097437,0.001487,0.091225,0.180964,0.088393,0.067639,-0.030122,0.714187,1.278649,0.261443,-0.121437,0.138675,0.034069,-0.438609,0.664987,-0.843166,0.241424,-0.020734
0.160103,0.033226,0.783878,-0.018705,0.002309,-0.005763,0.999806,-0.318106,0.168933,0.198912,0.511916,-0.12346,-0.012854,-0.054552,-0.124808,-0.174553,0.35351,-0.268828,0.109012,0.004748,0.080292,0.182704,0.084599,0.058378,-0.027675,0.713024,1.290265,0.264748,-0.109092,0.133925,0.036705,-0.427437,0.668083,-0.847418,0.241494,-0.01476
0.164794,0.039404,0.783026,-0.014792,0.00298,-0.0115,0.99982,-0.308582,0.157522,0.215783,0.514584,-0.137651,-0.005835,-0.073741,-0.142987,-0.155639,0.394249,-0.279773,0.117449,0.009509,0.067379,0.185157,0.080389,0.044234,-0.017611,0.714103,1.294021,0.27195,-0.092324,0.129632,0.034969,-0.407493,0.671686,-0.862245,0.240164,-0.002949
0.169319,0.045003,0.782171,-0.009878,0.003433,-0.019347,0.999758,-0.296864,0.146833,0.237009,0.515143,-0.150799,0.000653,-0.102569,-0.160983,-0.1323,0.44986,-0.285655,0.118436,0.014905,0.051859,0.18848,0.075889,0.028326,-0.001032,0.717097,1.289123,0.280588,-0.077026,0.125723,0.031191,-0.380191,0.672984,-0.883226,0.232575,0.014237
0.173741,0.049964,0.781717,-0.005258,0.003151,-0.027373,0.999607,-0.284478,0.137596,0.258024,0.516913,-0.164248,0.006455,-0.139866,-0.178151,-0.111677,0.522191,-0.271276,0.110285,0.019843,0.034676,0.192555,0.070301,0.015422,0.016617,0.721904,1.28004,0.287018,-0.066315,0.122585,0.028446,-0.351834,0.6716,-0.903987,0.221241,0.032388
0.17854,0.054384,0.783649,-0.001441,0.001927,-0.033674,0.99943,-0.272144,0.129279,0.274811,0.521663,-0.177385,0.011446,-0.180361,-0.19464,-0.098112,0.607274,-0.240499,0.086051,0.023781,0.017419,0.197121,0.062151,0.007899,0.026612,0.730424,1.274141,0.289179,-0.060304,0.122357,0.027358,-0.326569,0.666746,-0.920464,0.207996,0.049859
0.183227,0.057955,0.78388,0.001742,-0.000189,-0.03827,0.999266,-0.258586,0.121419,0.287745,0.52374,-0.189016,0.015386,-0.222863,-0.210727,-0.09492900000000001,0.695663,-0.201315,0.04427,0.0261,0.000942,0.20167,0.051234,0.004946,0.028088,0.74482,1.27342,0.290215,-0.058891,0.126077,0.026482,-0.303554,0.657993,-0.93532,0.194784,0.065005
0.187933,0.06076,0.783726,0.004509,-0.00231,-0.041084,0.999143,-0.243633,0.113122,0.297353,0.520286,-0.196758,0.018372,-0.265734,-0.233333,-0.110913,0.783611,-0.156916,-0.004992,0.027359,-0.01466,0.205519,0.041264,0.006994,0.017394,0.759157,1.282567,0.289184,-0.064574,0.130394,0.029233,-0.283606,0.648886,-0.944863,0.183757,0.075797
0.192724,0.062939,0.783848,0.00631,-0.003472,-0.042462,0.999072,-0.228734,0.105553,0.30399,0.511593,-0.200809,0.020555,-0.303755,-0.26517,-0.1485,0.86086,-0.113965,-0.056146,0.027044,-0.029562,0.207859,0.021964,0.014684,0.002093,0.782063,1.299045,0.28589,-0.071807,0.149246,0.025805,-0.269846,0.620892,-0.949286,0.166455,0.094544
0.197742,0.064632,0.785628,0.00763,-0.0041,-0.041656,0.999094,-0.216315,0.098557,0.306046,0.504682,-0.204073,0.021723,-0.336582,-0.297377,-0.190535,0.923194,-0.0849,-0.064987,0.024091,-0.043557,0.208833,0.005854,0.024673,-0.018213,0.799684,1.319741,0.279811,-0.079657,0.169532,0.026951,-0.265046,0.592303,-0.944216,0.153525,0.108176
0.202856,0.06586,0.786079,0.008176,-0.004276,-0.038305,0.999224,-0.207094,0.092045,0.30291,0.50031,-0.208541,0.022605,-0.369502,-0.304034,-0.208461,0.9666920000000001,-0.082863,-0.058831,0.018976,-0.055458,0.209108,-0.007302,0.036212,-0.042516,0.810226,1.34152,0.266998,-0.086332,0.189327,0.0297,-0.267565,0.569327,-0.9310600000000001,0.143733,0.115939
0.208087,0.066698,0.786182,0.007827,-0.003794,-0.034647,0.999362,-0.200596,0.087971,0.297972,0.498866,-0.214771,0.022759,-0.405441,-0.283578,-0.199691,0.990108,-0.087595,-0.043042,0.014137,-0.064443,0.209293,-0.016612,0.045995,-0.06198,0.811364,1.355807,0.253193,-0.086895,0.205625,0.030126,-0.272154,0.554853,-0.917564,0.142863,0.113977
0.213466,0.067094,0.786186,0.007326,-0.002882,-0.032442,0.999443,-0.19582,0.086636,0.294501,0.500982,-0.223357,0.021595,-0.439263,-0.24975,-0.178782,0.988223,-0.081844,-0.022946,0.011905,-0.071273,0.209473,-0.021597,0.05274,-0.074221,0.806301,1.359481,0.242187,-0.083036,0.218445,0.024876,-0.270147,0.551843,-0.914654,0.150905,0.105812
0.219034,0.06717,0.786316,0.006995,-0.001369,-0.031425,0.999481,-0.190935,0.086107,0.292961,0.50158,-0.231628,0.019735,-0.467165,-0.217085,-0.159713,0.959029,-0.075489,-0.001981,0.013246,-0.076558,0.209857,-0.024827,0.056355,-0.079868,0.799838,1.35283,0.23338,-0.07996,0.227626,0.017379,-0.265933,0.558356,-0.916309,0.159858,0.095552
0.224865,0.06696,0.786786,0.007233,0.000495,-0.031471,0.999478,-0.182273,0.084405,0.293627,0.494091,-0.236521,0.017319,-0.483782,-0.193606,-0.149079,0.900245,-0.075744,0.018733,0.01771,-0.080676,0.210249,-0.026709,0.05654,-0.077531,0.794285,1.335498,0.2279,-0.077632,0.23235,0.009448,-0.262537,0.574777,-0.920742,0.179508,0.09605300000000001
0.230985,0.066473,0.787636,0.007869,0.002473,-0.031288,0.999476,-0.169084,0.080559,0.29443,0.476699,-0.23676,0.014591,-0.489596,-0.180451,-0.147635,0.816212,-0.070286,0.038852,0.024425,-0.084042,0.210976,-0.028536,0.053785,-0.066598,0.792062,1.307596,0.225877,-0.074546,0.233658,0.002394,-0.259693,0.59739,-0.919276,0.209876,0.121428
0.2374,0.065626,0.788585,0.009235,0.004519,-0.030754,0.999474,-0.152609,0.074519,0.295119,0.452164,-0.233516,0.011459,-0.484973,-0.17569,-0.156095,0.713752,-0.059788,0.046834,0.031784,-0.086901,0.212035,-0.030266,0.049901,-0.053293,0.794262,1.276013,0.225306,-0.077947,0.233752,-0.008144,-0.252378,0.619882,-0.91593,0.237553,0.163354
0.244174,0.064367,0.78928,0.01119,0.006323,-0.029957,0.999469,-0.134272,0.067557,0.295488,0.425686,-0.229808,0.007563,-0.47611,-0.174607,-0.168847,0.609769,-0.046499,0.050075,0.039128,-0.089454,0.213543,-0.031662,0.049739,-0.048325,0.796479,1.256856,0.226315,-0.082475,0.235724,-0.024974,-0.233072,0.639796,-0.926143,0.250143,0.204951
0.251453,0.062706,0.789534,0.013661,0.007572,-0.029237,0.99945,-0.11389,0.060143,0.295859,0.399111,-0.227089,0.002814,-0.464855,-0.17373,-0.180594,0.516466,-0.038771,0.046256,0.045512,-0.091832,0.215307,-0.030325,0.053647,-0.053378,0.796623,1.253343,0.228771,-0.081673,0.238707,-0.04149,-0.212186,0.655043,-0.941831,0.251521,0.228438
0.259421,0.060632,0.789149,0.017369,0.00798,-0.027776,0.999431,-0.091664,0.050773,0.295395,0.37415,-0.226175,-0.002609,-0.451723,-0.172899,-0.189966,0.442664,-0.029833,0.033061,0.050687,-0.094193,0.21706,-0.024697,0.05891,-0.066979,0.796291,1.263678,0.233472,-0.073259,0.243393,-0.056631,-0.192562,0.667217,-0.959877,0.250683,0.232962
0.268259,0.058213,0.787822,0.021945,0.007246,-0.026118,0.999392,-0.064345,0.039727,0.294684,0.346962,-0.225899,-0.008781,-0.434763,-0.171606,-0.196905,0.390621,-0.007175,0.037031,0.055137,-0.096468,0.217984,-0.014706,0.061782,-0.08031,0.796782,1.276203,0.239243,-0.063083,0.250435,-0.068781,-0.175147,0.674461,-0.97687,0.244976,0.216721
0.277916,0.055503,0.784016,0.026369,0.005346,-0.024695,0.999333,-0.02947,0.028643,0.294286,0.312579,-0.223889,-0.01577,-0.414151,-0.169584,-0.197201,0.370161,0.034229,-0.001915,0.058981,-0.09846,0.217604,-0.000438,0.063268,-0.086363,0.799328,1.281384,0.242835,-0.056499,0.258176,-0.07394,-0.163202,0.677956,-0.986435,0.235187,0.185024
0.287888,0.052299,0.784004,0.028895,0.002266,-0.025021,0.999267,0.014009,0.021636,0.295905,0.269624,-0.217354,-0.02467,-0.399401,-0.17159,-0.199783,0.379113,0.028558,-0.022932,0.063554,-0.099664,0.215928,0.017715,0.064332,-0.080275,0.803143,1.27624,0.249898,-0.055505,0.262843,-0.073178,-0.152742,0.683512,-0.992734,0.228736,0.149817
0.298251,0.048698,0.783107,0.030726,-0.002087,-0.026915,0.999163,0.048242,0.021325,0.2988,0.25468,-0.223469,-0.035233,-0.395859,-0.173521,-0.196389,0.421464,-0.010283,-0.026413,0.067598,-0.099005,0.215057,0.037901,0.062799,-0.064689,0.807119,1.263003,0.259373,-0.05852,0.261453,-0.069457,-0.145572,0.690906,-0.99167,0.223579,0.120684
0.308517,0.044988,0.781508,0.031702,-0.006989,-0.030094,0.99902,0.070353,0.026806,0.30242,0.267546,-0.240511,-0.045471,-0.395315,-0.173028,-0.189354,0.472151,-0.050072,-0.027065,0.070911,-0.096047,0.214447,0.062259,0.05726,-0.043863,0.808768,1.247099,0.271601,-0.058248,0.254675,-0.064928,-0.141347,0.698478,-0.984843,0.221741,0.105485
0.318555,0.041191,0.779782,0.031634,-0.010719,-0.030562,0.998975,0.081762,0.036047,0.301512,0.294289,-0.260952,-0.054475,-0.391342,-0.172758,-0.188637,0.514821,-0.087171,-0.026151,0.073463,-0.091146,0.21302,0.085342,0.050128,-0.025648,0.809206,1.234364,0.282062,-0.059496,0.247645,-0.059668,-0.139474,0.698705,-0.975401,0.218866,0.097619
0.32815,0.037403,0.778402,0.030416,-0.013308,-0.028595,0.99904,0.086279,0.048269,0.296417,0.326413,-0.277389,-0.062951,-0.381606,-0.171297,-0.193936,0.542867,-0.118386,-0.02595,0.074533,-0.084435,0.210845,0.105629,0.043139,-0.011003,0.809007,1.22455,0.288865,-0.06263,0.240769,-0.0537,-0.135149,0.692005,-0.966694,0.214889,0.094381
0.337146,0.033743,0.777411,0.028308,-0.015302,-0.025744,0.999151,0.085253,0.062649,0.287668,0.363654,-0.287211,-0.072124,-0.368796,-0.167703,-0.201344,0.561206,-0.144053,-0.026666,0.073885,-0.075724,0.209062,0.120368,0.033924,0.000731,0.809246,1.216452,0.290645,-0.069158,0.237609,-0.046628,-0.12817,0.67533,-0.957907,0.208098,0.088888
0.345433,0.030392,0.776778,0.025977,-0.016845,-0.022592,0.999265,0.078093,0.077096,0.276494,0.40695,-0.28882,-0.074808,-0.354595,-0.163426,-0.209327,0.573008,-0.165485,-0.027621,0.071892,-0.064555,0.209123,0.139019,0.031827,0.01595,0.801966,1.212408,0.285243,-0.076348,0.223281,-0.042188,-0.120454,0.667755,-0.946524,0.199927,0.077801
0.352778,0.027454,0.776404,0.023359,-0.017891,-0.019188,0.999383,0.061014,0.092218,0.26239,0.462542,-0.280391,-0.07635,-0.341609,-0.159262,-0.218215,0.582507,-0.184073,-0.028318,0.069365,-0.050921,0.211331,0.153149,0.025124,0.032628,0.790813,1.213817,0.285808,-0.078723,0.206963,-0.038569,-0.111809,0.661994,-0.933788,0.192687,0.065449
0.359082,0.024968,0.776344,0.019701,-0.017976,-0.015404,0.999526,0.031036,0.11,0.245046,0.535286,-0.262745,-0.075422,-0.331244,-0.154054,-0.228966,0.590255,-0.199713,-0.029042,0.066714,-0.035362,0.215174,0.165812,0.016921,0.050917,0.773944,1.216206,0.288459,-0.073892,0.187629,-0.039305,-0.104947,0.661664,-0.923498,0.183822,0.05508
0.365048,0.022791,0.778556,0.015282,-0.017733,-0.01112,0.9996640000000001,-0.011722,0.131457,0.224799,0.634075,-0.231238,-0.069406,-0.323209,-0.148193,-0.240818,0.600509,-0.214962,-0.029887,0.063571,-0.018494,0.219719,0.169707,0.003868,0.066728,0.757175,1.220318,0.29793,-0.069671,0.159672,-0.037266,-0.094969,0.671672,-0.920494,0.182602,0.044287
0.370147,0.021205,0.777346,0.009242,-0.016866,-0.006988,0.999791,-0.07263,0.158578,0.204753,0.753121,-0.191965,-0.063264,-0.32131,-0.14059,-0.252962,0.616104,-0.232637,-0.030444,0.059609,-0.000796,0.22411,0.175396,0.002082,0.079294,0.744442,1.2266,0.295076,-0.07126,0.128897,-0.033201,-0.087385,0.690097,-0.922276,0.18063,0.035037
0.375065,0.020195,0.774799,0.003429,-0.015408,-0.003465,0.999869,-0.142006,0.187699,0.190798,0.877542,-0.138206,-0.039709,-0.320551,-0.133534,-0.263994,0.629587,-0.250093,-0.030042,0.054915,0.016974,0.227538,0.175199,0.007879,0.081406,0.738012,1.242744,0.286918,-0.081851,0.090298,-0.029735,-0.078971,0.719623,-0.926994,0.185856,0.028914
0.380138,0.019736,0.772147,-0.001379,-0.013696,-0.00075,0.999905,-0.209358,0.220185,0.188585,0.99254,-0.085483,-0.022882,-0.316152,-0.127506,-0.273527,0.634388,-0.263782,-0.028539,0.049631,0.034293,0.229344,0.164913,0.018694,0.069038,0.739727,1.272028,0.274632,-0.098316,0.046314,-0.030543,-0.061766,0.754975,-0.940041,0.199321,0.027719
0.385873,0.019682,0.772094,-0.004552,-0.012562,0.001047,0.99991,-0.264923,0.254756,0.197572,1.086019,-0.030767,-0.017114,-0.305533,-0.122877,-0.28047,0.629908,-0.27211,-0.026062,0.045485,0.050277,0.229365,0.151077,0.036324,0.047801,0.746313,1.308315,0.25579,-0.119667,0.003855,-0.034792,-0.039288,0.791911,-0.963043,0.211433,0.03219
0.391946,0.02017,0.772323,-0.007435,-0.011778,0.001094,0.999902,-0.303564,0.292567,0.22118,1.144016,0.000848,-0.017068,-0.29249,-0.117329,-0.284109,0.620183,-0.276495,-0.022769,0.043811,0.064426,0.227206,0.135383,0.055311,0.027644,0.752375,1.344666,0.239547,-0.140261,-0.035684,-0.03951,-0.011286,0.827155,-0.99362,0.221153,0.0431
0.398427,0.021049,0.773393,-0.00952,-0.010735,-0.00058,0.999897,-0.335257,0.314525,0.243427,1.167345,-0.025425,-0.018728,-0.27689,-0.111127,-0.284117,0.603324,-0.277268,-0.018751,0.044248,0.075969,0.222836,0.123794,0.069948,0.014903,0.745911,1.375498,0.227034,-0.158785,-0.07297,-0.043574,0.018026,0.85329,-1.025163,0.222977,0.057107
0.405307,0.022225,0.775563,-0.010289,-0.00943,-0.001632,0.999901,-0.364915,0.315572,0.254833,1.159331,-0.048849,-0.013889,-0.256234,-0.106999,-0.284284,0.576718,-0.27403,-0.015257,0.045327,0.084641,0.216415,0.112472,0.078618,0.011227,0.732513,1.397319,0.220662,-0.170904,-0.097587,-0.045123,0.03466,0.862669,-1.041077,0.216973,0.067429
0.412583,0.023739,0.778544,-0.010517,-0.007417,-0.000197,0.999917,-0.391311,0.300642,0.255399,1.118275,-0.053183,-0.026152,-0.230556,-0.105679,-0.288798,0.540963,-0.267731,-0.009807,0.04524,0.090607,0.208235,0.103036,0.080772,0.015783,0.709698,1.40625,0.218683,-0.170013,-0.109965,-0.044068,0.038876,0.854605,-1.040772,0.20501,0.06609
0.420125,0.025607,0.781571,-0.011445,-0.004732,0.003836,0.999916,-0.418993,0.275799,0.242809,1.053736,-0.053497,-0.036709,-0.203862,-0.105498,-0.298382,0.503708,-0.261609,-0.002262,0.043931,0.094627,0.199665,0.096055,0.079107,0.024648,0.680157,1.403309,0.217173,-0.16105,-0.109601,-0.0412,0.031711,0.831539,-1.02269,0.187444,0.051855
0.427818,0.027772,0.784313,-0.012129,-0.000776,0.009522,0.999881,-0.444436,0.248964,0.226012,0.9675840000000001,-0.05493,-0.044988,-0.17982,-0.107185,-0.310919,0.467652,-0.25612,0.006494,0.041916,0.09757900000000001,0.191351,0.090375,0.072421,0.03732,0.64647,1.38532,0.213369,-0.145505,-0.0996,-0.038,0.017589,0.7983,-0.9891200000000001,0.165816,0.03329
0.435647,0.030302,0.7865,-0.013183,0.004205,0.015039,0.999791,-0.46299,0.227001,0.212304,0.862317,-0.049565,-0.04895,-0.159254,-0.108269,-0.323444,0.433257,-0.250833,0.015901,0.040248,0.10008,0.184189,0.081456,0.063439,0.052651,0.618893,1.352901,0.205085,-0.129309,-0.079763,-0.039806,0.004428,0.762202,-0.950491,0.137721,0.013215
0.443777,0.033263,0.787948,-0.015081,0.009446,0.019062,0.9996600000000002,-0.472197,0.209138,0.198511,0.74095,-0.034737,-0.052915,-0.140056,-0.106729,-0.333196,0.399023,-0.245275,0.02579,0.039766,0.102396,0.179476,0.082921,0.064253,0.066913,0.58545,1.314394,0.188397,-0.11771,-0.061585,-0.042277,-0.007063,0.731933,-0.913303,0.113048,-0.006166
0.452515,0.036583,0.788527,-0.017443,0.014784,0.020359,0.999531,-0.472464,0.188754,0.175604,0.611656,-0.021336,-0.059201,-0.117933,-0.101537,-0.338784,0.358154,-0.237245,0.035399,0.040441,0.104439,0.178362,0.09341,0.056816,0.071806,0.54631,1.282144,0.181269,-0.10878,-0.051193,-0.041007,-0.006334,0.709597,-0.88348,0.102264,-0.020587
0.46191,0.040283,0.787665,-0.020682,0.01798,0.020096,0.999422,-0.464325,0.163018,0.135159,0.497137,-0.018957,-0.04533,-0.087486,-0.09295900000000001,-0.34191,0.310577,-0.227766,0.045589,0.041124,0.104886,0.180654,0.107807,0.049551,0.065482,0.512566,1.262276,0.178477,-0.098442,-0.038753,-0.048285,0.002824,0.699068,-0.86616,0.09782,-0.028098
0.471771,0.044317,0.783698,-0.02393,0.01751,0.018372,0.999391,-0.450351,0.137556,0.09068300000000001,0.433354,0.010781,-0.029872,-0.054285,-0.08577,-0.341576,0.273099,-0.224346,0.056777,0.040676,0.103614,0.185325,0.121655,0.044409,0.051488,0.497064,1.25431,0.177303,-0.08334,-0.023111,-0.06403,0.015375,0.704008,-0.860367,0.09414,-0.02795
0.481073,0.048896,0.783397,-0.027579,0.015145,0.016098,0.999375,-0.442075,0.133029,0.076278,0.439189,0.027388,-0.008919,-0.031542,-0.082349,-0.338165,0.265655,-0.231815,0.067092,0.036793,0.10116,0.190965,0.13408,0.039601,0.036339,0.497741,1.254985,0.177756,-0.067682,-0.017621,-0.078869,0.033127,0.727523,-0.871847,0.112014,-0.018594
0.491066,0.053718,0.782558,-0.031829,0.012388,0.012537,0.999338,-0.436513,0.140669,0.08041,0.470446,-0.005743,-0.005688,-0.017779,-0.080768,-0.331162,0.27832,-0.24807,0.075989,0.031459,0.096817,0.195356,0.139866,0.036158,0.025372,0.518308,1.265056,0.186833,-0.051261,-0.01596,-0.089007,0.049345,0.762118,-0.894766,0.140672,-0.002897
0.50136,0.058805,0.782203,-0.032935,0.009922,0.008891,0.999369,-0.42173,0.142082,0.088666,0.488717,-0.033292,-0.00366,-0.008154,-0.087359,-0.322224,0.297826,-0.263622,0.086932,0.028446,0.088376,0.197222,0.137707,0.032569,0.017077,0.560392,1.286404,0.207575,-0.036592,-0.008505,-0.094808,0.053747,0.796226,-0.92134,0.181995,0.010294
0.511723,0.064233,0.782326,-0.030758,0.008377,0.003615,0.999485,-0.399071,0.138027,0.105314,0.492741,-0.056923,0.00045,-0.006295,-0.102537,-0.307579,0.326263,-0.27618,0.099459,0.028267,0.075474,0.196709,0.129611,0.028514,0.015413,0.617107,1.307137,0.228716,-0.028808,0.008684,-0.093401,0.04516,0.818917,-0.942067,0.21958,0.017929
0.521783,0.069667,0.78283,-0.026196,0.008662,-0.004187,0.999611,-0.375262,0.131047,0.128783,0.488684,-0.075542,0.005916,-0.016006,-0.123041,-0.28708,0.364442,-0.281844,0.106198,0.030085,0.058808,0.19449,0.117728,0.026496,0.022773,0.677796,1.321389,0.249278,-0.031,0.031468,-0.086243,0.029363,0.8282,-0.955371,0.249523,0.021755
0.531397,0.074838,0.783812,-0.020401,0.010256,-0.013603,0.999647,-0.353178,0.122549,0.155385,0.482113,-0.09094600000000001,0.010562,-0.036835,-0.146121,-0.263597,0.413795,-0.275535,0.103409,0.033061,0.039795,0.191706,0.102212,0.02619,0.038161,0.734655,1.324722,0.266145,-0.046256,0.053215,-0.076466,0.023841,0.827073,-0.961572,0.264401,0.032588
0.541014,0.079653,0.786966,-0.014774,0.012213,-0.02364,0.999537,-0.332539,0.114549,0.181756,0.477071,-0.10515,0.014477,-0.066182,-0.169692,-0.242553,0.478983,-0.254635,0.088895,0.036466,0.020032,0.189323,0.091334,0.03129,0.051994,0.778514,1.327634,0.279902,-0.068459,0.077773,-0.072658,0.021533,0.81935,-0.96196,0.255032,0.049556
0.550069,0.083688,0.787944,-0.01009,0.013832,-0.03322,0.9993010000000001,-0.317285,0.109088,0.205179,0.479358,-0.122257,0.017254,-0.102826,-0.190699,-0.228247,0.552928,-0.228872,0.055547,0.039291,0.0012,0.187762,0.081774,0.038556,0.054127,0.813441,1.339982,0.288032,-0.091301,0.106255,-0.073423,0.023851,0.799572,-0.960493,0.234369,0.076591
0.558716,0.086997,0.78777,-0.006239,0.014605,-0.041974,0.9989920000000002,-0.30443,0.105151,0.225363,0.485936,-0.140497,0.019363,-0.139842,-0.210648,-0.221865,0.630205,-0.206247,0.011968,0.040621,-0.016007,0.187035,0.078587,0.04995,0.046276,0.830181,1.359174,0.282909,-0.109042,0.13084,-0.079999,0.030485,0.775887,-0.9621400000000001,0.21025,0.100589
0.567038,0.089633,0.786892,-0.003298,0.014704,-0.047728,0.998747,-0.294157,0.101059,0.239263,0.49595,-0.158981,0.02109,-0.171715,-0.233819,-0.231902,0.703944,-0.185469,-0.025901,0.041064,-0.031666,0.187111,0.077493,0.062123,0.033373,0.835479,1.379755,0.272411,-0.115553,0.156492,-0.086519,0.03468,0.74713,-0.964544,0.19127,0.112311
0.575103,0.091627,0.785675,-0.000937,0.014398,-0.050184,0.998636,-0.286398,0.09612,0.246616,0.509004,-0.177458,0.022321,-0.19606,-0.261096,-0.255633,0.768673,-0.163086,-0.053323,0.040061,-0.045742,0.187439,0.076102,0.076638,0.021617,0.832984,1.394001,0.258543,-0.117515,0.182005,-0.089956,0.033115,0.717352,-0.965932,0.176834,0.109198
0.582901,0.093019,0.784344,0.001452,0.013994,-0.049562,0.998672,-0.281289,0.089583,0.248237,0.525067,-0.195884,0.023049,-0.212534,-0.289986,-0.285281,0.820429,-0.143046,-0.072099,0.037643,-0.058446,0.187593,0.066812,0.087583,0.007723,0.833587,1.404246,0.245278,-0.118788,0.217955,-0.084547,0.016088,0.676813,-0.960663,0.168579,0.095405
0.590349,0.093931,0.783386,0.003583,0.013505,-0.046278,0.998831,-0.276767,0.081768,0.245009,0.540861,-0.213045,0.023419,-0.221488,-0.310346,-0.306408,0.853148,-0.134012,-0.079535,0.034582,-0.070194,0.187359,0.051346,0.099436,-0.008901,0.836775,1.414132,0.23292,-0.119862,0.260524,-0.067233,-0.018127,0.629579,-0.940332,0.164655,0.077453
0.598081,0.094615,0.784064,0.005041,0.012828,-0.042615,0.9989960000000001,-0.269631,0.074699,0.240175,0.55264,-0.227681,0.023214,-0.229371,-0.31331,-0.311984,0.863369,-0.144095,-0.078043,0.031112,-0.081114,0.186704,0.033813,0.112028,-0.024416,0.839113,1.422289,0.223875,-0.122765,0.300548,-0.043277,-0.057135,0.585865,-0.907461,0.158857,0.068255
0.605465,0.094836,0.783941,0.006352,0.012594,-0.041152,0.999053,-0.261074,0.070059,0.238217,0.560143,-0.240594,0.02198,-0.233171,-0.313383,-0.320978,0.853663,-0.15355,-0.082161,0.028274,-0.091171,0.185266,0.01533,0.118562,-0.036587,0.841475,1.428198,0.224818,-0.122715,0.336393,-0.023311,-0.085675,0.546827,-0.875358,0.151572,0.065836
0.61246,0.094632,0.78371,0.007419,0.012961,-0.041617,0.999022,-0.25204,0.068021,0.239122,0.564528,-0.25224,0.019789,-0.232206,-0.321673,-0.342846,0.841758,-0.156585,-0.08867,0.026605,-0.10062,0.183045,0.000183,0.122677,-0.039819,0.83564,1.428179,0.232494,-0.116001,0.356714,-0.015461,-0.09705200000000001,0.527523,-0.856692,0.149586,0.070801
0.619012,0.094001,0.783413,0.008582,0.013804,-0.042907,0.998947,-0.243657,0.067304,0.241491,0.56744,-0.262675,0.01685,-0.235509,-0.326918,-0.357309,0.83591,-0.164149,-0.087829,0.02496,-0.109248,0.18066,-0.010994,0.122055,-0.032874,0.82484,1.418281,0.242023,-0.103461,0.365647,-0.020688,-0.092731,0.522829,-0.859868,0.152989,0.085081
0.625157,0.09298600000000001,0.783256,0.009545,0.015297,-0.045099,0.99882,-0.235355,0.067897,0.244992,0.566933,-0.270967,0.013343,-0.253396,-0.318493,-0.348354,0.834579,-0.170683,-0.091962,0.023318,-0.116184,0.178668,-0.020041,0.116116,-0.016877,0.811758,1.397329,0.24993,-0.090759,0.364601,-0.033024,-0.08148,0.527929,-0.87782,0.160986,0.100465
0.631036,0.091534,0.78335,0.009938,0.017602,-0.048341,0.998626,-0.22709,0.07075,0.249928,0.562792,-0.277114,0.009134,-0.281639,-0.306684,-0.331224,0.834304,-0.166664,-0.083187,0.023279,-0.120718,0.176853,-0.027543,0.10837,0.00107,0.798081,1.372851,0.256886,-0.079124,0.355979,-0.047218,-0.068986,0.539466,-0.901533,0.171104,0.11378
0.636715,0.08955,0.78345,0.010289,0.02066,-0.051817,0.9983900000000001,-0.220676,0.074634,0.254995,0.557986,-0.282179,0.004191,-0.316985,-0.295709,-0.314305,0.834248,-0.159856,-0.07487,0.024405,-0.122846,0.175588,-0.034095,0.101218,0.012546,0.785122,1.352571,0.260861,-0.068939,0.344185,-0.061221,-0.057703,0.551007,-0.926841,0.181069,0.122658
0.64237,0.086988,0.78347,0.010093,0.023893,-0.054612,0.998171,-0.214997,0.079918,0.258418,0.553026,-0.287141,-0.00216,-0.356688,-0.282305,-0.294684,0.830708,-0.155704,-0.064832,0.026026,-0.123156,0.175126,-0.040172,0.094495,0.017911,0.773068,1.333136,0.261226,-0.06284,0.332708,-0.070463,-0.051362,0.558723,-0.943961,0.188279,0.125507
0.648127,0.083832,0.783478,0.009234,0.027114,-0.056423,0.9979960000000001,-0.208967,0.086378,0.259677,0.546621,-0.291623,-0.009525,-0.397172,-0.266641,-0.274101,0.817192,-0.149152,-0.054416,0.027672,-0.12186,0.175526,-0.045389,0.090313,0.014998,0.76233,1.317313,0.257274,-0.057779,0.323977,-0.0751,-0.048929,0.560131,-0.950501,0.191342,0.124731
0.654065,0.079997,0.783307,0.008757,0.030369,-0.057403,0.997851,-0.203744,0.092719,0.259414,0.541085,-0.296576,-0.01774,-0.4353,-0.251894,-0.255753,0.790589,-0.141928,-0.043759,0.028821,-0.119016,0.176694,-0.050048,0.089034,0.00291,0.755541,1.309954,0.252144,-0.051973,0.318602,-0.076566,-0.050741,0.553249,-0.947908,0.188682,0.122203
0.660392,0.075525,0.783017,0.008325,0.033832,-0.057159,0.997757,-0.198793,0.099108,0.257023,0.535181,-0.301392,-0.026895,-0.468672,-0.23596,-0.239075,0.748623,-0.135586,-0.031124,0.029383,-0.115221,0.178093,-0.055258,0.089974,-0.013896,0.753468,1.306853,0.246326,-0.04875,0.316628,-0.072974,-0.059145,0.539892,-0.936155,0.181401,0.122681
0.66741,0.070499,0.782711,0.008304,0.037035,-0.055946,0.997712,-0.190544,0.104064,0.253264,0.525114,-0.304969,-0.036522,-0.49486,-0.218345,-0.222043,0.691825,-0.127172,-0.019323,0.029979,-0.110722,0.179068,-0.059257,0.092629,-0.032165,0.756494,1.308003,0.238665,-0.051074,0.31803,-0.063715,-0.076075,0.522191,-0.919594,0.172917,0.127732
0.675385,0.064911,0.782369,0.009231,0.039329,-0.054524,0.9976950000000001,-0.175368,0.106568,0.2498,0.507999,-0.30741,-0.04615,-0.511643,-0.196913,-0.197146,0.622062,-0.114447,-0.005602,0.030789,-0.105292,0.179258,-0.060144,0.092828,-0.044026,0.762801,1.307676,0.229476,-0.063738,0.322027,-0.049817,-0.101247,0.502901,-0.905747,0.169558,0.130725
0.68446,0.058682,0.781808,0.011146,0.040413,-0.052354,0.997748,-0.15304,0.107009,0.246304,0.48483,-0.309119,-0.055862,-0.5138,-0.176497,-0.172494,0.542241,-0.099084,0.012601,0.032229,-0.099278,0.178159,-0.057017,0.091227,-0.049659,0.770703,1.307599,0.217356,-0.087546,0.32664,-0.030487,-0.132731,0.4867,-0.893433,0.173492,0.126101
0.694624,0.051851,0.780667,0.013244,0.039792,-0.050405,0.997848,-0.123488,0.108246,0.243749,0.458642,-0.309983,-0.067269,-0.500263,-0.16152,-0.163296,0.466434,-0.078665,0.023526,0.034373,-0.093467,0.175259,-0.048505,0.089541,-0.048017,0.778488,1.308617,0.210274,-0.116641,0.329148,-0.0118,-0.157146,0.479481,-0.88512,0.178466,0.11571
0.705705,0.044703,0.777757,0.013975,0.037146,-0.047966,0.99806,-0.087968,0.112743,0.240196,0.43219,-0.309197,-0.08148,-0.473627,-0.150687,-0.164587,0.430634,-0.034476,0.015993,0.037302,-0.086679,0.171117,-0.034894,0.088733,-0.0421,0.784676,1.31141,0.211231,-0.141746,0.329404,0.001731,-0.167933,0.484035,-0.884561,0.183643,0.09954
0.71699,0.037375,0.777747,0.014374,0.031732,-0.04524,0.998369,-0.052105,0.11895,0.235025,0.416517,-0.304287,-0.095021,-0.451249,-0.145852,-0.168935,0.445815,-0.053463,-0.008599,0.040887,-0.077769,0.16779,-0.017829,0.087823,-0.036765,0.789914,1.31862,0.217658,-0.152625,0.325403,0.006731,-0.163409,0.502683,-0.892782,0.189813,0.089416
0.728452,0.030012,0.777953,0.013099,0.024869,-0.043557,0.998655,-0.025374,0.130766,0.225067,0.424033,-0.293706,-0.107024,-0.428504,-0.140716,-0.179148,0.472454,-0.08393,-0.008718,0.04464,-0.066158,0.165746,0.003201,0.087289,-0.029396,0.79283,1.329569,0.226682,-0.144918,0.313508,0.004251,-0.146303,0.536358,-0.903465,0.19543,0.087314
0.739707,0.022863,0.778838,0.010003,0.018419,-0.041498,0.998919,-0.015844,0.148248,0.207955,0.460795,-0.270892,-0.116783,-0.400589,-0.131366,-0.190982,0.489677,-0.111942,-0.011623,0.047668,-0.051492,0.164657,0.028609,0.083684,-0.01182,0.792238,1.341556,0.238796,-0.130404,0.29561,-0.005436,-0.119757,0.578131,-0.917044,0.199786,0.094029
0.751023,0.016211,0.782579,0.00618,0.012312,-0.035232,0.999284,-0.022898,0.167545,0.182453,0.526021,-0.230765,-0.117013,-0.366692,-0.123557,-0.208072,0.497318,-0.136679,-0.015268,0.051415,-0.034268,0.165011,0.052899,0.0687,0.026943,0.785416,1.343029,0.257612,-0.114021,0.279754,-0.024682,-0.084804,0.615466,-0.941606,0.203478,0.113152
0.761419,0.010411,0.783851,0.002428,0.006488,-0.028328,0.9995750000000002,-0.046439,0.185658,0.158133,0.609881,-0.186063,-0.095712,-0.333669,-0.116926,-0.226184,0.49969,-0.158282,-0.018479,0.056074,-0.014192,0.166943,0.075676,0.043211,0.082745,0.768672,1.326277,0.280659,-0.100445,0.26911,-0.048934,-0.049278,0.637023,-0.967358,0.191805,0.13526
0.771102,0.005323,0.783313,-0.002171,0.001281,-0.022914,0.999734,-0.080694,0.208805,0.143854,0.708511,-0.143699,-0.065543,-0.30584,-0.107909,-0.242484,0.504077,-0.178916,-0.021222,0.061337,0.007547,0.169859,0.09775,0.016503,0.136211,0.743683,1.292128,0.292195,-0.093558,0.262805,-0.071391,-0.026127,0.644488,-0.98291,0.177106,0.145475
0.780328,0.000861,0.78149,-0.006942,-0.003222,-0.020403,0.999763,-0.11875,0.236547,0.141832,0.808944,-0.103928,-0.025761,-0.28284,-0.096348,-0.253695,0.510614,-0.199344,-0.023144,0.066958,0.030317,0.172651,0.121623,0.000474,0.163517,0.715467,1.258328,0.282382,-0.083759,0.255288,-0.088838,-0.020004,0.64571,-0.980174,0.169372,0.140034
0.789386,-0.003037,0.779245,-0.011899,-0.007485,-0.021325,0.999674,-0.149426,0.27549,0.162866,0.895916,-0.061023,0.018373,-0.262747,-0.081702,-0.258355,0.518869,-0.219622,-0.024973,0.072108,0.052966,0.174465,0.149417,0.000262,0.163842,0.693842,1.235362,0.259192,-0.081785,0.240445,-0.102245,-0.022608,0.65479,-0.963839,0.167668,0.122959
0.798308,-0.006307,0.777367,-0.01718,-0.011428,-0.02609,0.999447,-0.165629,0.326978,0.20805,0.960555,-0.016117,0.054015,-0.246231,-0.063897,-0.255544,0.530011,-0.239512,-0.026876,0.076528,0.074706,0.175072,0.184018,0.023642,0.146529,0.673966,1.238066,0.222189,-0.098937,0.205471,-0.111678,-0.032846,0.688442,-0.943414,0.178542,0.099665
0.807492,-0.009239,0.777035,-0.022596,-0.014634,-0.033827,0.999065,-0.166886,0.382997,0.271116,0.9996870000000002,0.015957,0.078045,-0.232093,-0.044147,-0.246748,0.541976,-0.258153,-0.028552,0.079855,0.095212,0.174126,0.219374,0.053061,0.122522,0.661738,1.261621,0.184964,-0.123281,0.165804,-0.118418,-0.049102,0.738563,-0.931152,0.19233,0.074143
0.816618,-0.011894,0.776362,-0.026445,-0.017924,-0.043612,0.998538,-0.169109,0.39889,0.309336,1.012741,-0.020795,0.072579,-0.216153,-0.025638,-0.233125,0.548971,-0.274256,-0.030165,0.082182,0.112499,0.171963,0.243235,0.073163,0.10874,0.664868,1.296925,0.163189,-0.152073,0.114792,-0.127116,-0.052142,0.79455,-0.9478430000000002,0.224598,0.058527
0.825654,-0.014392,0.776152,-0.027983,-0.021273,-0.052525,0.998001,-0.190095,0.362515,0.299267,1.009101,-0.099804,0.082857,-0.197186,-0.012284,-0.219165,0.550324,-0.288116,-0.031266,0.083383,0.124188,0.169905,0.25247,0.082406,0.110807,0.683038,1.333267,0.168713,-0.182646,0.063474,-0.137626,-0.029588,0.843279,-1.002592,0.258807,0.06235
0.83451,-0.016642,0.776778,-0.027967,-0.023617,-0.05716,0.997694,-0.217364,0.308179,0.266365,0.981987,-0.146247,0.056629,-0.177232,-0.005822,-0.211149,0.547327,-0.300187,-0.031264,0.081576,0.130793,0.167217,0.246875,0.081364,0.113984,0.7124,1.372735,0.194589,-0.21068,0.013722,-0.138892,0.010422,0.873372,-1.078766,0.286826,0.075301
0.843112,-0.018571,0.778044,-0.027384,-0.024226,-0.057147,0.997696,-0.238935,0.267396,0.249508,0.929601,-0.176946,0.025317,-0.158268,-0.004547,-0.211022,0.540011,-0.309835,-0.030235,0.076828,0.134227,0.163032,0.230041,0.087268,0.117001,0.744566,1.410412,0.218514,-0.233027,-0.011491,-0.135343,0.035362,0.876135,-1.13301,0.280879,0.086109
0.85153,-0.020162,0.779696,-0.026551,-0.023134,-0.055196,0.997854,-0.256228,0.252265,0.260498,0.862265,-0.185646,0.01602,-0.14036,-0.005273,-0.2148,0.526899,-0.316006,-0.028583,0.071197,0.135882,0.157876,0.213068,0.09240300000000001,0.120508,0.761801,1.442014,0.232002,-0.245486,-0.025524,-0.123615,0.031518,0.852871,-1.148522,0.256888,0.079787
0.85988,-0.021336,0.781166,-0.025782,-0.020698,-0.053082,0.998043,-0.271829,0.249779,0.290303,0.788072,-0.187166,0.029122,-0.123568,-0.006255,-0.219286,0.509197,-0.319271,-0.026155,0.066919,0.136681,0.152754,0.198968,0.093628,0.128372,0.761116,1.462769,0.236243,-0.248406,-0.030107,-0.100818,-0.005107,0.815228,-1.111416,0.226226,0.052025
0.868299,-0.022127,0.782137,-0.024743,-0.017942,-0.051472,0.998207,-0.290218,0.244322,0.316447,0.716383,-0.181693,0.044293,-0.10623,-0.007414,-0.222484,0.488105,-0.320816,-0.023005,0.065467,0.136346,0.148198,0.188707,0.089243,0.142511,0.745609,1.468692,0.231863,-0.237772,-0.02717,-0.071431,-0.056516,0.77707,-1.031496,0.186645,0.019849
0.877002,-0.022505,0.782667,-0.023375,-0.015639,-0.051217,0.998291,-0.315787,0.222307,0.313014,0.652228,-0.166667,0.048591,-0.088046,-0.008582,-0.221899,0.466643,-0.322361,-0.019405,0.067251,0.134231,0.144707,0.182904,0.075724,0.169528,0.719378,1.450377,0.225513,-0.213669,-0.020156,-0.045084,-0.09727400000000001,0.749522,-0.943494,0.144969,0.002795
0.886224,-0.022507,0.783224,-0.021404,-0.014371,-0.052312,0.998298,-0.34407,0.181395,0.269631,0.591022,-0.129019,0.033034,-0.066018,-0.010568,-0.218028,0.44216,-0.322852,-0.015471,0.071266,0.129706,0.142144,0.181382,0.059006,0.204535,0.690246,1.408176,0.216395,-0.185688,-0.011642,-0.024683,-0.124797,0.732943,-0.874312,0.115327,-0.001455
0.896021,-0.022232,0.783746,-0.019167,-0.013607,-0.054755,0.998223,-0.366819,0.126958,0.195542,0.525045,-0.077563,0.006387,-0.041659,-0.012922,-0.2116,0.415661,-0.322594,-0.011178,0.076172,0.122858,0.139962,0.180969,0.033767,0.237475,0.65954,1.357603,0.215367,-0.158524,-0.00201,-0.012543,-0.128769,0.721222,-0.844139,0.100384,-0.002301
0.906475,-0.021743,0.783925,-0.017205,-0.013414,-0.058591,0.998044,-0.376466,0.07472,0.114452,0.454851,-0.035737,-0.013197,-0.015188,-0.015098,-0.20321,0.389217,-0.32334,-0.006022,0.079637,0.114619,0.137397,0.185514,0.009005,0.257046,0.630308,1.31413,0.214437,-0.142063,0.00613,-0.007068,-0.116371,0.718935,-0.84989,0.105466,0.001005
0.917497,-0.021137,0.783689,-0.015754,-0.014248,-0.06172,0.997867,-0.374148,0.042037,0.06164,0.401111,0.019977,-0.005517,0.016726,-0.016943,-0.19658,0.359076,-0.324046,0.00012,0.080021,0.106271,0.134745,0.192703,-0.011252,0.262628,0.604336,1.2851,0.21334,-0.132257,0.01253,-0.005063,-0.097581,0.725163,-0.873272,0.116878,0.00972
0.928874,-0.020261,0.781587,-0.015363,-0.016477,-0.063178,0.997748,-0.362173,0.034582,0.062109,0.392379,0.063801,0.032867,0.049944,-0.018836,-0.1928,0.335138,-0.328649,0.006431,0.077778,0.098821,0.13279,0.199354,-0.028027,0.254968,0.585682,1.276672,0.216047,-0.125009,0.016031,-0.004689,-0.078929,0.740624,-0.898255,0.133401,0.020526
0.94015,-0.018867,0.78038,-0.015315,-0.020618,-0.06471,0.997574,-0.353795,0.032712,0.069467,0.428548,0.024339,0.040834,0.077988,-0.023418,-0.1888,0.330751,-0.340489,0.01341,0.075767,0.090932,0.132688,0.208492,-0.036834,0.238228,0.575882,1.2832,0.216327,-0.122233,0.01743,-0.006085,-0.062702,0.765201,-0.924217,0.160517,0.034587
0.951296,-0.017382,0.77935,-0.013576,-0.024652,-0.066384,0.997397,-0.340196,0.027615,0.076905,0.456494,-0.01309,0.045196,0.09819000000000001,-0.033401,-0.185086,0.340327,-0.355473,0.020379,0.074311,0.08089,0.134379,0.214062,-0.038212,0.227214,0.580528,1.289294,0.208239,-0.123873,0.028933,-0.01325,-0.057034,0.784454,-0.941137,0.177129,0.051279
0.961731,-0.015825,0.778651,-0.010813,-0.027886,-0.0688,0.997182,-0.325834,0.021241,0.085989,0.477101,-0.041546,0.047669,0.102229,-0.04715,-0.178428,0.374458,-0.365399,0.027935,0.073308,0.068371,0.137949,0.206947,-0.041444,0.218547,0.603892,1.300285,0.210025,-0.130805,0.045903,-0.025026,-0.05283,0.79949,-0.960945,0.190588,0.060888
0.971227,-0.014343,0.778662,-0.007557,-0.03054,-0.071798,0.996923,-0.309828,0.014283,0.095721,0.489797,-0.065631,0.050421,0.088167,-0.062004,-0.166504,0.436147,-0.359777,0.027272,0.072457,0.054122,0.143239,0.197577,-0.044052,0.210233,0.632319,1.316675,0.215773,-0.138899,0.064184,-0.032987,-0.045886,0.809157,-0.982096,0.203916,0.067566
0.980351,-0.013036,0.781479,-0.003362,-0.032319,-0.075436,0.996621,-0.290622,0.00593,0.106909,0.491847,-0.082937,0.053345,0.053333,-0.077754,-0.146821,0.53289,-0.330078,0.017861,0.071034,0.038313,0.150221,0.183449,-0.045818,0.204202,0.666302,1.334335,0.219462,-0.144375,0.086044,-0.036745,-0.037999,0.807515,-0.996541,0.2138,0.071131
0.988619,-0.011937,0.782641,0.00196,-0.033404,-0.07996,0.996236,-0.271879,-0.003663,0.120249,0.486932,-0.09593,0.055752,-0.003097,-0.096632,-0.126995,0.655474,-0.276638,-0.001702,0.069447,0.020938,0.158761,0.172848,-0.051837,0.199228,0.693579,1.350953,0.221211,-0.144647,0.100845,-0.04765,-0.030934,0.808572,-0.997979,0.214279,0.074413
0.996412,-0.011041,0.782186,0.006372,-0.0343,-0.08533,0.995742,-0.258217,-0.010429,0.133715,0.489307,-0.112031,0.056959,-0.075482,-0.117448,-0.112511,0.797886,-0.20549,-0.024652,0.06794,0.002655,0.168198,0.165162,-0.05521,0.198074,0.715389,1.362839,0.220512,-0.142875,0.120495,-0.058603,-0.027175,0.803391,-0.991046,0.208771,0.077085
1.003883,-0.010485,0.78034,0.010723,-0.035249,-0.090312,0.995232,-0.246289,-0.01703,0.14647,0.49403,-0.129468,0.057609,-0.154823,-0.139691,-0.100697,0.944968,-0.13901,-0.044017,0.065941,-0.016054,0.177623,0.156924,-0.059619,0.194586,0.735289,1.37285,0.221232,-0.136573,0.148306,-0.06922,-0.021814,0.784935,-0.983955,0.204795,0.08182
1.011628,-0.01033,0.7805,0.01388,-0.036182,-0.093322,0.994882,-0.23274,-0.022978,0.15486,0.496084,-0.144194,0.057907,-0.227348,-0.165621,-0.098998,1.07273,-0.075963,-0.04572,0.062957,-0.034186,0.185844,0.151473,-0.056697,0.188787,0.749681,1.381143,0.217145,-0.131457,0.175586,-0.077402,-0.017718,0.764826,-0.975158,0.203625,0.083834
1.019296,-0.010652,0.780086,0.016523,-0.037004,-0.093673,0.994778,-0.219673,-0.029829,0.157934,0.496815,-0.156903,0.058344,-0.287618,-0.190386,-0.107042,1.160297,-0.038952,-0.045649,0.059318,-0.051192,0.192658,0.142448,-0.047472,0.177897,0.764439,1.390529,0.211013,-0.127787,0.203499,-0.082167,-0.016295,0.74468,-0.962906,0.201713,0.0808
1.026913,-0.011411,0.779893,0.018223,-0.037189,-0.091328,0.994959,-0.207921,-0.036589,0.155404,0.496492,-0.167578,0.059428,-0.337832,-0.198499,-0.114215,1.206634,-0.054556,-0.035007,0.056221,-0.066347,0.197697,0.128431,-0.032796,0.160651,0.782141,1.407103,0.206361,-0.126305,0.231822,-0.083228,-0.016918,0.727785,-0.949722,0.200806,0.075036
1.034417,-0.012583,0.780095,0.019607,-0.036546,-0.088331,0.995227,-0.196969,-0.042423,0.150958,0.494312,-0.176827,0.060034,-0.381245,-0.193525,-0.118543,1.215484,-0.070518,-0.034373,0.055045,-0.079028,0.200618,0.111532,-0.016765,0.140337,0.800455,1.428929,0.204142,-0.127896,0.25912,-0.082318,-0.017966,0.715882,-0.93831,0.202973,0.071451
1.041759,-0.014095,0.780764,0.020419,-0.034312,-0.086055,0.99549,-0.187754,-0.045584,0.146722,0.489329,-0.18493,0.058013,-0.416816,-0.181244,-0.122081,1.183892,-0.074831,-0.021011,0.055999,-0.089143,0.201136,0.093718,-0.001609,0.119855,0.814477,1.452087,0.205378,-0.133134,0.281786,-0.079363,-0.018075,0.709028,-0.927221,0.207079,0.071381
1.048963,-0.015786,0.781811,0.020863,-0.030224,-0.085062,0.995699,-0.180879,-0.046481,0.143845,0.481676,-0.19292,0.051218,-0.444724,-0.166139,-0.125234,1.112611,-0.071732,-0.015209,0.058058,-0.097321,0.199474,0.077799,0.011012,0.102385,0.81983,1.471386,0.20811,-0.136511,0.29656,-0.077745,-0.011607,0.708545,-0.923148,0.209106,0.075022
1.056083,-0.01759,0.783099,0.021325,-0.024666,-0.084938,0.995853,-0.176351,-0.047021,0.142299,0.472262,-0.196267,0.056717,-0.464232,-0.147243,-0.125316,1.007506,-0.080161,-0.010734,0.060275,-0.104086,0.196057,0.069372,0.022256,0.09465,0.813966,1.475865,0.20306,-0.13244,0.299174,-0.077219,-0.005062,0.720422,-0.923129,0.210569,0.085212
1.063121,-0.019489,0.784186,0.021777,-0.017988,-0.084289,0.996041,-0.173929,-0.047483,0.139709,0.461069,-0.20094,0.05304,-0.476036,-0.122216,-0.114765,0.876453,-0.083416,-0.003988,0.062739,-0.109893,0.191423,0.061287,0.02749,0.092269,0.80225,1.467604,0.197794,-0.122993,0.299442,-0.069466,-0.013997,0.729622,-0.9115,0.216937,0.100413
1.070214,-0.021556,0.78475,0.022639,-0.010732,-0.082729,0.996257,-0.173856,-0.048754,0.135797,0.451498,-0.205922,0.049741,-0.479114,-0.088617,-0.083189,0.730782,-0.081243,0.00034,0.0648,-0.114422,0.186181,0.054065,0.028575,0.094181,0.789242,1.447134,0.194092,-0.110523,0.297436,-0.060797,-0.027591,0.735269,-0.898682,0.223672,0.114495
1.077591,-0.023765,0.7847,0.023789,-0.003657,-0.080013,0.996503,-0.174254,-0.051142,0.130147,0.443986,-0.212115,0.046685,-0.477632,-0.055377,-0.037272,0.595875,-0.073716,0.01878,0.066773,-0.117754,0.181884,0.04622,0.027312,0.098423,0.778683,1.417082,0.191477,-0.100617,0.291247,-0.055083,-0.032537,0.741044,-0.893432,0.228691,0.126439
1.085405,-0.026062,0.784032,0.025895,0.001867,-0.076715,0.996715,-0.17158,-0.056158,0.123928,0.437515,-0.219615,0.044183,-0.473584,-0.037097,-0.005436,0.492817,-0.066007,0.019745,0.069922,-0.120256,0.179294,0.036772,0.025429,0.101056,0.774185,1.384338,0.186998,-0.096364,0.283781,-0.056368,-0.02076,0.745413,-0.90124,0.224364,0.139379
1.093714,-0.028426,0.782506,0.029302,0.00571,-0.072851,0.996896,-0.165267,-0.064502,0.11744,0.431251,-0.227891,0.042424,-0.468018,-0.039204,-0.01058,0.427188,-0.044344,0.00938,0.075192,-0.122483,0.178364,0.025175,0.024822,0.097337,0.776091,1.359738,0.182546,-0.096508,0.275751,-0.063511,0.001683,0.745915,-0.921636,0.214237,0.148927
1.102642,-0.030896,0.778874,0.032626,0.008127,-0.067991,0.997119,-0.153763,-0.073751,0.109065,0.421691,-0.235547,0.040688,-0.457383,-0.053509,-0.038167,0.403117,0.002272,-0.029183,0.080985,-0.123655,0.177791,0.013569,0.028744,0.081897,0.783213,1.35549,0.181753,-0.099401,0.267344,-0.069134,0.020943,0.741491,-0.941287,0.206329,0.152865
1.111937,-0.033792,0.779459,0.035808,0.008656,-0.06174,0.997412,-0.134634,-0.082851,0.097755,0.408098,-0.241346,0.038243,-0.450013,-0.068889,-0.059542,0.408069,0.021807,-0.051069,0.085487,-0.122991,0.176755,0.00511,0.034134,0.058054,0.79262,1.369497,0.183395,-0.102698,0.259515,-0.071331,0.03154,0.733475,-0.954188,0.200902,0.150369
1.122209,-0.036924,0.780171,0.038035,0.008045,-0.055957,0.997676,-0.107327,-0.089746,0.085759,0.386474,-0.244789,0.035313,-0.440482,-0.078927,-0.069848,0.424749,-0.001635,-0.058312,0.088404,-0.120012,0.174938,0.004655,0.038504,0.035194,0.796532,1.389433,0.183161,-0.105102,0.248536,-0.068874,0.030216,0.72552,-0.956842,0.202538,0.141338
1.133205,-0.040402,0.780888,0.039738,0.006447,-0.051941,0.997838,-0.075202,-0.093739,0.075701,0.362154,-0.246091,0.031577,-0.427749,-0.085422,-0.076737,0.444622,-0.032432,-0.059273,0.089713,-0.114542,0.172095,0.0146,0.037932,0.021624,0.791985,1.403825,0.184517,-0.100921,0.233295,-0.065974,0.024726,0.720741,-0.955102,0.205244,0.129449
1.144687,-0.044153,0.781623,0.039808,0.00416,-0.048479,0.998022,-0.040252,-0.093288,0.065384,0.337279,-0.249642,0.027548,-0.409071,-0.087781,-0.084852,0.459096,-0.061488,-0.059073,0.089434,-0.10593,0.168309,0.033407,0.032401,0.020021,0.782418,1.40518,0.188309,-0.093296,0.215743,-0.066662,0.025115,0.719664,-0.960672,0.203025,0.120028
1.156378,-0.048043,0.782489,0.036876,0.001266,-0.044474,0.998329,-0.008768,-0.085617,0.054021,0.322773,-0.256267,0.023577,-0.380594,-0.084398,-0.098084,0.45969,-0.085023,-0.05987,0.087195,-0.093807,0.164048,0.058801,0.025029,0.028433,0.769727,1.390965,0.189764,-0.084405,0.195692,-0.068356,0.029855,0.720661,-0.972868,0.199188,0.118196
1.167859,-0.051933,0.783414,0.030987,-0.00239,-0.038109,0.99879,0.011037,-0.070926,0.040204,0.332847,-0.266788,0.01851,-0.34321,-0.07659,-0.118326,0.44734,-0.102691,-0.061401,0.082784,-0.077781,0.160526,0.084482,0.019277,0.038673,0.758214,1.367877,0.187289,-0.081559,0.176137,-0.064211,0.023701,0.719713,-0.9750740000000001,0.200746,0.114629
1.178929,-0.055597,0.784409,0.023255,-0.006085,-0.028755,0.9992970000000002,0.016196,-0.052481,0.021926,0.368432,-0.275398,0.010847,-0.302061,-0.066761,-0.144685,0.427997,-0.116027,-0.062821,0.076476,-0.05808,0.158002,0.10362,0.017981,0.04211,0.752892,1.34854,0.186342,-0.089747,0.158647,-0.053098,0.000506,0.714241,-0.9585840000000002,0.206071,0.098282
1.189504,-0.058695,0.785763,0.015604,-0.009513,-0.017472,0.99968,0.007289,-0.035784,0.000989,0.426525,-0.269758,0.008582,-0.263265,-0.058246,-0.173038,0.410928,-0.12802,-0.063197,0.069166,-0.035986,0.15666,0.116365,0.022088,0.032386,0.752771,1.344105,0.18872,-0.105072,0.143,-0.03903,-0.032517,0.707084,-0.92923,0.210252,0.069144
1.199914,-0.061094,0.789406,0.008757,-0.013068,-0.006329,0.999856,-0.013004,-0.023735,-0.019346,0.508881,-0.245997,0.011846,-0.228638,-0.051611,-0.199276,0.400905,-0.140667,-0.062007,0.062042,-0.01288,0.156861,0.134674,0.030968,0.008295,0.745389,1.355042,0.186712,-0.126752,0.126713,-0.02338,-0.069629,0.709619,-0.893637,0.210462,0.031883
1.209467,-0.062677,0.790024,0.001623,-0.016833,0.003912,0.999849,-0.050695,-0.011805,-0.033265,0.616459,-0.212667,0.015871,-0.202425,-0.044885,-0.223164,0.402592,-0.158331,-0.059711,0.055436,0.010668,0.158411,0.148025,0.049221,-0.019251,0.740589,1.374844,0.180598,-0.15366,0.110978,-0.01088,-0.099708,0.71566,-0.870736,0.209347,6.2e-05
1.218509,-0.063645,0.788667,-0.005596,-0.020461,0.013336,0.999686,-0.098839,0.002142,-0.038417,0.738228,-0.171792,0.021683,-0.182984,-0.038315,-0.244822,0.413716,-0.180083,-0.056792,0.049504,0.034456,0.160461,0.159096,0.068078,-0.044589,0.733012,1.397997,0.177166,-0.178805,0.09326400000000001,0.001182,-0.12191,0.724178,-0.853982,0.210094,-0.02695
1.227215,-0.064185,0.785692,-0.012079,-0.023771,0.021191,0.99942,-0.151771,0.018474,-0.035156,0.863141,-0.130456,0.020951,-0.168762,-0.03262,-0.262946,0.431305,-0.204276,-0.053828,0.04464,0.057706,0.163144,0.171215,0.08199,-0.0601,0.720339,1.412121,0.172432,-0.193451,0.073777,0.006803,-0.126616,0.737159,-0.852406,0.208266,-0.038878
1.235712,-0.064414,0.78223,-0.01711,-0.02639,0.026464,0.999155,-0.203957,0.037687,-0.023453,0.978246,-0.086258,0.008266,-0.158406,-0.02802,-0.275399,0.451684,-0.228596,-0.051256,0.040866,0.079098,0.16616,0.185046,0.087961,-0.062681,0.704771,1.413226,0.17185,-0.198375,0.050266,0.006688,-0.12017,0.753758,-0.859221,0.207598,-0.039087
1.244337,-0.064462,0.780623,-0.020845,-0.02904,0.029266,0.998932,-0.24942,0.064296,-0.000582,1.076157,-0.049861,-0.01146,-0.148412,-0.024125,-0.282215,0.472284,-0.251748,-0.049056,0.038211,0.097648,0.169094,0.200634,0.083676,-0.056689,0.688637,1.406328,0.180892,-0.197148,0.023054,0.000835,-0.098069,0.775748,-0.872602,0.209026,-0.026233
1.25295,-0.064253,0.778593,-0.023095,-0.031121,0.030059,0.998797,-0.28936,0.091874,0.02595,1.143619,-0.047412,-0.012807,-0.138926,-0.021433,-0.28421,0.490622,-0.273333,-0.047225,0.037007,0.112872,0.171882,0.213563,0.071222,-0.045721,0.681113,1.39267,0.19425,-0.185531,-0.006677,-0.007251,-0.068287,0.80046,-0.897617,0.213104,-0.011227
1.261511,-0.063729,0.776974,-0.024572,-0.031981,0.030358,0.998725,-0.329446,0.109275,0.045341,1.181745,-0.070502,-0.002551,-0.130615,-0.020096,-0.284308,0.506075,-0.292357,-0.045839,0.036946,0.124692,0.174881,0.223485,0.06308,-0.033866,0.674814,1.377268,0.203652,-0.175081,-0.031751,-0.016858,-0.037591,0.820046,-0.9256200000000001,0.213651,0.005282
1.270083,-0.062991,0.776303,-0.024553,-0.031927,0.031639,0.998688,-0.365397,0.116636,0.059724,1.186597,-0.081722,0.005835,-0.119105,-0.021327,-0.284965,0.511893,-0.30715,-0.043783,0.037912,0.132906,0.177378,0.22892,0.058168,-0.026955,0.671215,1.366589,0.209757,-0.169724,-0.046263,-0.024685,-0.012329,0.827383,-0.95053,0.210009,0.016625
1.278627,-0.061999,0.776461,-0.024108,-0.030805,0.03332,0.998679,-0.394869,0.117691,0.071152,1.154625,-0.082219,0.007035,-0.106043,-0.02334,-0.286207,0.509947,-0.318511,-0.039844,0.039649,0.138022,0.179519,0.230608,0.05668,-0.024713,0.66888,1.362189,0.212326,-0.169776,-0.050411,-0.027405,0.001671,0.823134,-0.964052,0.200887,0.01937
1.287166,-0.06079,0.777199,-0.023496,-0.028709,0.034173,0.998727,-0.418741,0.11425,0.081962,1.089015,-0.087565,0.012833,-0.093316,-0.025298,-0.286384,0.503898,-0.327931,-0.03456,0.041475,0.140899,0.181746,0.229888,0.056896,-0.023589,0.66714,1.361607,0.21392,-0.170623,-0.047288,-0.023936,0.001337,0.812262,-0.959334,0.190294,0.016291
1.295697,-0.059428,0.778448,-0.022212,-0.025456,0.034045,0.998849,-0.433467,0.106457,0.094115,0.988744,-0.095612,0.018565,-0.080887,-0.027683,-0.284841,0.492061,-0.333896,-0.028733,0.043896,0.14201,0.183913,0.227931,0.055524,-0.020963,0.664795,1.360457,0.215924,-0.171208,-0.039113,-0.018876,-0.005744,0.7993,-0.942216,0.177424,0.008354
1.304256,-0.057926,0.779791,-0.020938,-0.021211,0.032155,0.999038,-0.437379,0.093185,0.103123,0.853614,-0.093925,0.020859,-0.069405,-0.029055,-0.280544,0.475909,-0.336689,-0.023178,0.047391,0.141287,0.185962,0.22283,0.052322,-0.015201,0.666316,1.357291,0.219592,-0.167659,-0.025253,-0.015405,-0.012506,0.791236,-0.91917,0.160323,-0.002284
1.312892,-0.056417,0.780595,-0.019767,-0.015834,0.028815,0.999264,-0.431214,0.072169,0.102204,0.689301,-0.083973,0.019481,-0.059588,-0.02919,-0.273724,0.457157,-0.337394,-0.018778,0.051494,0.138724,0.187599,0.221277,0.045617,-0.007112,0.664968,1.351332,0.221843,-0.160776,-0.016956,-0.016175,-0.005967,0.790418,-0.9033000000000002,0.149278,-0.010128
1.321613,-0.055016,0.780484,-0.018128,-0.009648,0.023911,0.999503,-0.418852,0.038095,0.074155,0.517131,-0.06149,0.012625,-0.051617,-0.02913,-0.264174,0.437555,-0.336843,-0.015597,0.055793,0.13365,0.188452,0.221301,0.038678,-0.000801,0.664247,1.345625,0.221928,-0.156345,-0.011741,-0.025668,0.022797,0.799035,-0.901303,0.141778,-0.011947
1.330435,-0.053659,0.779001,-0.015789,-0.003437,0.01883,0.999692,-0.405001,0.001829,0.027927,0.402177,0.039622,0.039185,-0.043812,-0.030274,-0.254277,0.417514,-0.334985,-0.012714,0.059712,0.125482,0.18906,0.221063,0.035999,0.004199,0.666224,1.336906,0.216613,-0.15711,-0.006771,-0.045639,0.070244,0.813777,-0.918118,0.126801,0.00562
1.338986,-0.051622,0.779406,-0.015239,0.000372,0.016933,0.99974,-0.401018,-0.007419,0.020266,0.392296,0.055286,0.055149,-0.03748,-0.032992,-0.250082,0.414362,-0.341382,-0.007746,0.060024,0.115879,0.190582,0.216239,0.032015,0.005461,0.674458,1.333037,0.214061,-0.158616,-0.000481,-0.070245,0.123855,0.832398,-0.945578,0.113016,0.038363
1.34834,-0.049654,0.778798,-0.016232,0.001903,0.017561,0.999712,-0.408259,-0.005905,0.026924,0.429017,0.022009,0.060724,-0.030258,-0.035234,-0.250722,0.423258,-0.350381,-0.004092,0.059231,0.10525,0.193603,0.206658,0.033951,0.005301,0.689592,1.335462,0.212576,-0.160345,0.009505,-0.09273,0.167375,0.85071,-0.974932,0.112111,0.072818
1.35782,-0.047927,0.778945,-0.015505,0.003508,0.017647,0.9997180000000001,-0.407684,-0.006065,0.033898,0.450795,0.003512,0.060554,-0.023316,-0.039237,-0.24982,0.43011,-0.349831,-0.002517,0.057742,0.092309,0.196136,0.188344,0.030789,0.002753,0.713201,1.345444,0.219953,-0.162999,0.018093,-0.103904,0.19008,0.870486,-0.997577,0.128357,0.098572
1.367445,-0.045831,0.779544,-0.014709,0.004519,0.013373,0.999792,-0.399478,-0.003915,0.044171,0.465291,-0.019778,0.060448,-0.020919,-0.043586,-0.241041,0.444461,-0.341471,-0.000805,0.056264,0.078115,0.197006,0.172754,0.025515,-0.000196,0.7331,1.361991,0.230414,-0.165225,0.018725,-0.104001,0.197744,0.894948,-1.017352,0.162993,0.114052
1.376994,-0.043387,0.7811,-0.013263,0.005208,0.005692,0.999882,-0.381821,-0.000861,0.059914,0.464911,-0.038865,0.062291,-0.026014,-0.049516,-0.223021,0.471057,-0.323631,0.000332,0.05448,0.062624,0.196695,0.153859,0.020891,-0.001284,0.755005,1.380128,0.242319,-0.163191,0.02206,-0.10315,0.193683,0.917575,-1.03323,0.195737,0.121478
1.386755,-0.040819,0.785604,-0.010459,0.005677,-0.004307,0.99992,-0.35587,0.000682,0.079787,0.451628,-0.050111,0.063912,-0.04093,-0.058357,-0.198151,0.518837,-0.293251,-0.002776,0.053167,0.0454,0.196021,0.136084,0.013169,0.000185,0.770886,1.39309,0.247611,-0.157523,0.020528,-0.100659,0.185247,0.934188,-1.04963,0.223443,0.12386
1.396079,-0.038367,0.788137,-0.006516,0.0058,-0.015401,0.999843,-0.329192,0.000435,0.102281,0.435372,-0.060038,0.064766,-0.06791,-0.069891,-0.172598,0.582134,-0.255261,-0.014925,0.0528,0.026754,0.195428,0.114553,0.007635,0.00193,0.786534,1.403689,0.246213,-0.148757,0.019916,-0.090639,0.173045,0.935978,-1.059307,0.2497,0.124494
1.405133,-0.036066,0.789378,-0.0022,0.005516,-0.028182,0.999585,-0.305285,0.000644,0.127962,0.424574,-0.072259,0.065009,-0.104623,-0.083944,-0.151047,0.661863,-0.212789,-0.03441,0.052358,0.007279,0.195542,0.096238,0.003717,0.005475,0.791978,1.406194,0.239236,-0.136805,0.017231,-0.082892,0.16407,0.924115,-1.0638,0.257458,0.127372
1.413979,-0.033855,0.78927,0.002044,0.004061,-0.04144,0.9991310000000002,-0.283583,0.000783,0.154628,0.421732,-0.088498,0.065111,-0.1484,-0.100913,-0.134871,0.755377,-0.167736,-0.054299,0.051845,-0.012204,0.195905,0.079171,0.000411,0.00839,0.790792,1.400903,0.229806,-0.128663,0.009909,-0.078214,0.159549,0.907723,-1.053135,0.247559,0.123345
1.422665,-0.031761,0.78779,0.006547,0.001788,-0.05317,0.998562,-0.264244,-0.001734,0.179093,0.424909,-0.107771,0.06577,-0.194213,-0.121667,-0.123263,0.854684,-0.127654,-0.062836,0.050851,-0.030904,0.196213,0.061135,0.001518,0.005691,0.787809,1.394852,0.219014,-0.118162,0.006744,-0.07521,0.15857,0.884397,-1.030818,0.223716,0.115271
1.431091,-0.029981,0.785487,0.011049,-0.001166,-0.062157,0.998005,-0.24773,-0.006571,0.19884,0.433902,-0.128762,0.066619,-0.236242,-0.146373,-0.119708,0.948504,-0.093824,-0.063952,0.048771,-0.0488,0.196317,0.039848,0.005564,-0.003079,0.788,1.389711,0.20842,-0.104227,0.004715,-0.07668,0.174624,0.859789,-1.011185,0.193474,0.109593
1.439231,-0.028545,0.783489,0.014674,-0.004315,-0.067462,0.997605,-0.233768,-0.012399,0.21195,0.446545,-0.14828,0.06755,-0.271334,-0.175683,-0.127645,1.028377,-0.054839,-0.065367,0.045523,-0.065951,0.196037,0.009161,0.010075,-0.022141,0.797489,1.392363,0.208531,-0.098588,0.00614,-0.082466,0.211616,0.831355,-1.004271,0.164906,0.107583
1.447271,-0.027521,0.783586,0.018266,-0.007414,-0.06928,0.997402,-0.224159,-0.019365,0.219366,0.466682,-0.167506,0.068589,-0.297886,-0.206632,-0.140483,1.091768,-0.029043,-0.061688,0.041181,-0.081568,0.195436,-0.023499,0.018343,-0.042549,0.810008,1.398097,0.209888,-0.097681,0.002619,-0.096912,0.269818,0.806103,-1.026608,0.150589,0.102224
1.454722,-0.026927,0.781792,0.021373,-0.009818,-0.067947,0.997412,-0.223052,-0.026146,0.220606,0.496976,-0.187591,0.069454,-0.322202,-0.21756,-0.142507,1.127757,-0.047212,-0.048344,0.036275,-0.094493,0.195162,-0.058303,0.028442,-0.06387,0.822994,1.408354,0.209747,-0.100414,-0.00235,-0.111032,0.327606,0.783123,-1.065625,0.156242,0.09291700000000001
1.461632,-0.026679,0.779657,0.02237,-0.011481,-0.064927,0.997573,-0.228305,-0.028891,0.216922,0.534786,-0.205568,0.069276,-0.347618,-0.201941,-0.130384,1.13809,-0.09007,-0.047191,0.032455,-0.103799,0.195195,-0.092705,0.040115,-0.083441,0.834429,1.422997,0.213238,-0.109697,-0.005791,-0.113937,0.365495,0.766342,-1.094988,0.172604,0.088258
1.467961,-0.026784,0.777816,0.022166,-0.011863,-0.0619,0.997766,-0.23791,-0.027676,0.213042,0.574433,-0.218878,0.067468,-0.367952,-0.181465,-0.118937,1.117598,-0.133294,-0.036258,0.030947,-0.109384,0.195441,-0.123861,0.048937,-0.097231,0.837499,1.433882,0.215412,-0.114594,-0.009127,-0.106356,0.378987,0.756853,-1.101627,0.187518,0.085594
1.473706,-0.027193,0.776635,0.021053,-0.011471,-0.059309,0.997952,-0.248114,-0.023951,0.208857,0.610134,-0.22695,0.064027,-0.383462,-0.162891,-0.112678,1.067524,-0.15795,-0.040387,0.030776,-0.111992,0.19615,-0.147169,0.052691,-0.100067,0.830142,1.432003,0.217472,-0.109466,-0.015069,-0.093168,0.375795,0.759163,-1.090443,0.203697,0.08677
1.478902,-0.027869,0.77618,0.01963,-0.010325,-0.056945,0.9981310000000002,-0.256569,-0.019584,0.204454,0.63718,-0.230948,0.059992,-0.39109,-0.148886,-0.112521,0.986504,-0.179589,-0.047625,0.031335,-0.112279,0.197073,-0.160048,0.055937,-0.098582,0.813861,1.420666,0.215901,-0.102308,-0.030392,-0.07856,0.366811,0.777981,-1.068344,0.214748,0.08776
1.483663,-0.028704,0.776165,0.018058,-0.008663,-0.054253,0.998326,-0.261771,-0.016117,0.199057,0.654063,-0.234046,0.056647,-0.392644,-0.126033,-0.102326,0.878873,-0.191346,-0.053751,0.032041,-0.110432,0.197929,-0.16909,0.055203,-0.093559,0.793158,1.400564,0.213908,-0.089508,-0.045872,-0.064724,0.355529,0.800524,-1.046329,0.225796,0.088307
1.488049,-0.029684,0.775704,0.016617,-0.006662,-0.050798,0.9985480000000002,-0.264099,-0.014358,0.192265,0.662199,-0.237841,0.054554,-0.388148,-0.089462,-0.066171,0.756408,-0.207161,-0.035377,0.033163,-0.106758,0.198549,-0.173715,0.053425,-0.09064100000000001,0.772305,1.376253,0.209089,-0.079195,-0.060188,-0.051977,0.343342,0.822687,-1.024526,0.233783,0.089011
1.492081,-0.030704,0.773508,0.014192,-0.004152,-0.046589,0.998805,-0.264398,-0.012521,0.183504,0.66205,-0.23962,0.053325,-0.377134,-0.049343,-0.014402,0.643632,-0.22069,-0.013687,0.035554,-0.101544,0.198881,-0.174593,0.055051,-0.09421,0.752148,1.35535,0.203452,-0.070261,-0.072294,-0.038519,0.330258,0.840728,-1.001638,0.237556,0.089008
1.494975,-0.031902,0.773856,0.012181,-0.00194,-0.042656,0.999014,-0.26522,-0.010635,0.175538,0.661866,-0.238464,0.052337,-0.369428,-0.034496,0.003587,0.616538,-0.217845,-0.012833,0.040688,-0.095643,0.199655,-0.17306,0.057684,-0.101465,0.73702,1.336706,0.197436,-0.066383,-0.080451,-0.027661,0.322052,0.851058,-0.98365,0.238131,0.086242
1.497981,-0.033495,0.773917,0.012664,0.000147,-0.038934,0.9991620000000001,-0.270176,-0.011402,0.170003,0.668828,-0.236109,0.050875,-0.368788,-0.039934,-0.009875,0.61837,-0.228019,-0.016301,0.046769,-0.090124,0.201092,-0.169591,0.059182,-0.110383,0.7277,1.321893,0.195624,-0.059077,-0.087675,-0.025228,0.33171,0.854718,-0.98611,0.234955,0.080712
1.500509,-0.035001,0.774786,0.011585,0.003045,-0.03453,0.9993320000000001,-0.275662,-0.010242,0.162603,0.670396,-0.22724,0.049035,-0.365299,-0.043567,-0.024389,0.610904,-0.226113,-0.016805,0.051771,-0.084214,0.202433,-0.164411,0.062302,-0.121295,0.725984,1.314092,0.200016,-0.058028,-0.094948,-0.027437,0.358396,0.853208,-1.011827,0.231669,0.067816
1.502694,-0.036764,0.775688,0.011117,0.005268,-0.029483,0.99949,-0.280419,-0.010175,0.154554,0.672088,-0.217927,0.046808,-0.360746,-0.04736,-0.037503,0.603964,-0.226724,-0.015587,0.055231,-0.078181,0.203453,-0.154134,0.063425,-0.129637,0.730365,1.307464,0.209155,-0.059724,-0.097401,-0.02696,0.374128,0.849007,-1.027848,0.226395,0.057968
1.504638,-0.03862,0.776763,0.010259,0.007745,-0.024012,0.999629,-0.285423,-0.009869,0.145148,0.672534,-0.207913,0.044521,-0.35439,-0.049795,-0.050686,0.592179,-0.22591,-0.015837,0.057352,-0.072255,0.204053,-0.140204,0.064169,-0.136587,0.740087,1.301913,0.219305,-0.062965,-0.09564,-0.018917,0.364715,0.843193,-1.012311,0.217596,0.056274
1.506339,-0.040516,0.777856,0.009486,0.0103,-0.018772,0.999726,-0.290228,-0.010044,0.135395,0.671724,-0.198074,0.042575,-0.348364,-0.05178,-0.06339,0.579758,-0.224794,-0.017623,0.058663,-0.066417,0.20431,-0.125449,0.065333,-0.144673,0.754674,1.300018,0.227446,-0.069983,-0.093651,-0.009653,0.344371,0.838099,-0.980517,0.207859,0.062115
1.507836,-0.042426,0.778874,0.008864,0.012774,-0.013796,0.999784,-0.294239,-0.011011,0.1252,0.669715,-0.190748,0.040939,-0.343212,-0.053479,-0.075146,0.56851,-0.224626,-0.019726,0.059595,-0.060682,0.204317,-0.110666,0.066931,-0.154474,0.774475,1.303196,0.233702,-0.08043,-0.09263,-0.003042,0.326283,0.833167,-0.949845,0.199637,0.066654
1.509227,-0.044387,0.78017,0.008525,0.015163,-0.008337,0.999814,-0.297079,-0.013473,0.113681,0.666016,-0.185238,0.03945,-0.338593,-0.056067,-0.08735,0.558899,-0.225378,-0.021493,0.060866,-0.054979,0.204422,-0.099604,0.064718,-0.16338,0.803204,1.308729,0.239525,-0.090676,-0.087042,0.00074,0.313194,0.822767,-0.93079,0.197166,0.066654
1.510635,-0.046432,0.783653,0.008175,0.017209,-0.001732,0.999817,-0.29833,-0.017412,0.100289,0.663933,-0.180031,0.037934,-0.332885,-0.059704,-0.101586,0.550348,-0.226229,-0.022994,0.062143,-0.049374,0.204702,-0.084194,0.064577,-0.175732,0.826187,1.320436,0.243128,-0.103206,-0.084678,-0.003379,0.303134,0.81862,-0.919749,0.191734,0.062631
1.511831,-0.048587,0.785046,0.007891,0.018786,0.00643,0.9997720000000001,-0.299692,-0.022464,0.083948,0.659098,-0.175946,0.036337,-0.325992,-0.064775,-0.118495,0.541275,-0.227886,-0.024123,0.06372,-0.043616,0.204687,-0.068233,0.067718,-0.192653,0.846774,1.34357,0.244194,-0.122886,-0.085809,-0.008234,0.29936,0.823375,-0.915042,0.187492,0.05439
1.512961,-0.050856,0.785995,0.007495,0.019972,0.017042,0.999627,-0.301237,-0.029448,0.063094,0.653944,-0.171621,0.034555,-0.316507,-0.071415,-0.139572,0.53014,-0.229492,-0.024888,0.06561,-0.037546,0.20445,-0.058749,0.067839,-0.221831,0.859983,1.375386,0.246752,-0.148823,-0.089366,-0.011191,0.295133,0.831904,-0.912542,0.187837,0.048596
1.51411,-0.053252,0.786965,0.006624,0.020967,0.03066,0.999288,-0.304989,-0.037719,0.037126,0.652067,-0.16417,0.032179,-0.303578,-0.078964,-0.16617,0.515399,-0.230322,-0.025557,0.067381,-0.03113,0.20448,-0.050514,0.069978,-0.246843,0.869902,1.403784,0.241604,-0.168213,-0.086279,-0.015228,0.288463,0.837028,-0.910231,0.188485,0.040601
1.515276,-0.055693,0.788033,0.005359,0.021549,0.047686,0.998616,-0.312398,-0.047924,0.006049,0.656833,-0.150947,0.02935,-0.28662,-0.087773,-0.199031,0.49715,-0.230436,-0.025709,0.068759,-0.02411,0.204882,-0.043335,0.072644,-0.266355,0.874659,1.427506,0.234226,-0.182022,-0.07788,-0.019139,0.278042,0.840693,-0.905248,0.188963,0.034163
1.51632,-0.058085,0.788975,0.003992,0.02169,0.068397,0.997414,-0.323092,-0.061135,-0.029481,0.66793,-0.135647,0.025497,-0.267984,-0.098802,-0.238279,0.479516,-0.231041,-0.025123,0.07021,-0.016353,0.205643,-0.03487,0.073574,-0.275397,0.87032,1.439511,0.226116,-0.187821,-0.065141,-0.024369,0.262312,0.844689,-0.901317,0.188453,0.029643
1.517193,-0.060295,0.789707,0.002548,0.021746,0.091734,0.995543,-0.33714,-0.077283,-0.067213,0.684515,-0.117485,0.02221,-0.250097,-0.111751,-0.282336,0.465221,-0.23282,-0.023746,0.071794,-0.008043,0.206626,-0.026373,0.075456,-0.273492,0.861121,1.439975,0.21734,-0.18614,-0.048948,-0.029204,0.252268,0.84585,-0.896389,0.192326,0.025916
1.517986,-0.062238,0.790209,0.001236,0.021479,0.116232,0.992989,-0.35236,-0.096424,-0.105955,0.704615,-0.096843,0.017621,-0.232839,-0.126011,-0.328803,0.454968,-0.236243,-0.021624,0.07341,0.000403,0.20763,-0.020094,0.074281,-0.268062,0.845245,1.440231,0.213542,-0.182165,-0.039356,-0.030858,0.248291,0.84923,-0.893742,0.20305,0.027857
1.518734,-0.063892,0.790451,0.000223,0.020995,0.141849,0.989666,-0.369703,-0.118234,-0.144259,0.728489,-0.072902,0.003313,-0.215712,-0.141698,-0.377365,0.448091,-0.241142,-0.018765,0.07422,0.008644,0.208622,-0.018588,0.075559,-0.266753,0.831089,1.440002,0.211873,-0.17225,-0.023585,-0.038787,0.246337,0.853717,-0.89104,0.20858,0.02912
1.519517,-0.065107,0.790217,-0.000927,0.020145,0.168857,0.985434,-0.38973,-0.142106,-0.181705,0.758521,-0.049482,-0.030103,-0.198273,-0.15856,-0.428454,0.445246,-0.247844,-0.014855,0.074061,0.016321,0.20932,-0.018334,0.083273,-0.284277,0.815959,1.464108,0.21075,-0.160194,-0.011682,-0.046934,0.246694,0.864045,-0.891174,0.215767,0.03221
1.520474,-0.065887,0.789418,-0.001751,0.018854,0.196449,0.980331,-0.408476,-0.16346,-0.21179,0.788936,-0.03692,-0.095244,-0.178956,-0.176141,-0.480894,0.443858,-0.255368,-0.009988,0.072283,0.023183,0.209103,-0.018481,0.094708,-0.312206,0.799905,1.50817,0.212047,-0.145053,-0.002129,-0.054959,0.249249,0.877791,-0.893668,0.222378,0.042175
1.521589,-0.066178,0.788139,-0.002617,0.016928,0.223221,0.974617,-0.42379,-0.17532,-0.226478,0.814615,-0.041957,-0.186996,-0.158367,-0.192897,-0.532561,0.444634,-0.26358,-0.00437,0.068191,0.029255,0.207869,-0.015544,0.100544,-0.325697,0.783512,1.540676,0.214438,-0.134808,0.004175,-0.064184,0.255524,0.894214,-0.900329,0.22868,0.057291
1.522838,-0.065638,0.787096,-0.003667,0.014627,0.24861,0.968486,-0.435008,-0.179312,-0.213521,0.835008,-0.056907,-0.245039,-0.137043,-0.208145,-0.582563,0.4462,-0.270187,0.001572,0.061152,0.034332,0.20547,-0.008417,0.099024,-0.31554,0.767217,1.54827,0.219431,-0.132579,0.005754,-0.0747,0.266105,0.912439,-0.911693,0.232984,0.073656
1.524427,-0.064527,0.787884,-0.005039,0.012127,0.273404,0.96181,-0.446126,-0.179267,-0.170317,0.851446,-0.083643,-0.247648,-0.115679,-0.222575,-0.631316,0.451157,-0.276844,0.008235,0.050239,0.038439,0.202202,0.001658,0.09397,-0.292596,0.754617,1.541363,0.2248,-0.134958,0.004397,-0.086952,0.280644,0.92946,-0.929219,0.235349,0.090441
1.526256,-0.062703,0.787606,-0.00552,0.00998,0.295141,0.955386,-0.457947,-0.134765,-0.123529,0.854515,-0.134717,-0.247687,-0.094626,-0.236338,-0.674335,0.455957,-0.283435,0.015543,0.04153,0.041377,0.198344,0.012697,0.084774,-0.263567,0.7475,1.523976,0.23141,-0.139516,0.003346,-0.099229,0.288017,0.939451,-0.943254,0.240031,0.106444
1.528251,-0.059889,0.787105,-0.007059,0.007745,0.313218,0.949624,-0.46857,-0.038137,-0.038383,0.843982,-0.179212,-0.246268,-0.07281,-0.244856,-0.71112,0.456941,-0.288228,0.024005,0.035977,0.045094,0.194027,0.023582,0.073384,-0.23299,0.747373,1.502389,0.242885,-0.14029,0.003112,-0.110422,0.285771,0.940232,-0.951842,0.246056,0.111858
1.530385,-0.055973,0.786739,-0.009675,0.005692,0.327188,0.944893,-0.464519,0.083556,0.080338,0.813151,-0.19125,-0.213007,-0.050539,-0.247378,-0.7408,0.451647,-0.290152,0.033704,0.03531,0.049594,0.189127,0.033735,0.059118,-0.201412,0.754905,1.472653,0.254229,-0.135059,0.005625,-0.120139,0.272441,0.93222,-0.951835,0.249253,0.106597
1.532579,-0.050908,0.78658,-0.013402,0.003539,0.339003,0.940683,-0.436317,0.19607,0.230243,0.751778,-0.189585,-0.127366,-0.025426,-0.243506,-0.766758,0.436401,-0.287173,0.044685,0.037285,0.054692,0.183144,0.042441,0.045718,-0.17168,0.769542,1.437849,0.26473,-0.129999,0.011663,-0.126538,0.248457,0.917882,-0.941838,0.250292,0.093563
1.534762,-0.044637,0.786344,-0.017527,0.000999,0.348561,0.937122,-0.383311,0.281787,0.387145,0.655693,-0.175099,-0.050658,0.002915,-0.235225,-0.788987,0.412003,-0.279168,0.057107,0.04082,0.059617,0.176197,0.051056,0.033967,-0.144954,0.785837,1.402578,0.27968,-0.123408,0.018195,-0.130246,0.219506,0.90276,-0.925839,0.252264,0.077808
1.53692,-0.037286,0.785094,-0.018366,-0.000803,0.355451,0.934514,-0.320802,0.313626,0.507894,0.543162,-0.106548,0.000107,0.034906,-0.23004,-0.806736,0.377239,-0.265057,0.071114,0.045856,0.062101,0.169382,0.060064,0.020607,-0.125539,0.802469,1.369852,0.291345,-0.116083,0.023072,-0.136255,0.194211,0.888014,-0.911201,0.253025,0.064271
1.538645,-0.029233,0.786652,-0.01666,-0.003318,0.359427,0.933019,-0.28726,0.297329,0.530419,0.500945,-0.091162,0.02659,0.064739,-0.23282,-0.817389,0.352969,-0.253421,0.086646,0.053458,0.059845,0.164906,0.068945,0.011385,-0.116123,0.817889,1.349792,0.307649,-0.112944,0.025561,-0.142125,0.175153,0.875054,-0.900422,0.25098,0.053882
1.540021,-0.019915,0.787074,-0.014201,-0.00619,0.365056,0.930857,-0.266529,0.276318,0.527928,0.491111,-0.109194,0.032138,0.091695,-0.244831,-0.828061,0.345371,-0.247777,0.104155,0.058917,0.054929,0.161295,0.086398,0.000357,-0.098585,0.81744,1.324449,0.330764,-0.101225,0.02577,-0.145973,0.157146,0.870265,-0.896818,0.246552,0.041473
1.541129,-0.010179,0.78747,-0.008872,-0.007463,0.37252,0.9279520000000001,-0.245732,0.247736,0.52571,0.478617,-0.116138,0.033972,0.115605,-0.268044,-0.840697,0.34709,-0.242222,0.121541,0.061885,0.047213,0.157955,0.099394,-0.020704,-0.058315,0.808935,1.267002,0.354917,-0.089744,0.026653,-0.149536,0.141578,0.864733,-0.895748,0.247785,0.032929
1.541776,-1.5e-05,0.787526,-0.002249,-0.007653,0.380401,0.924787,-0.225981,0.214613,0.522744,0.467302,-0.125667,0.039019,0.133503,-0.300871,-0.85068,0.362676,-0.237423,0.140031,0.063712,0.037087,0.155044,0.109293,-0.0301,-0.040102,0.801461,1.22318,0.353305,-0.08823,0.028209,-0.151958,0.128275,0.856835,-0.895472,0.247458,0.027166
1.54202,0.010265,0.787559,0.006282,-0.006883,0.388001,0.921612,-0.202106,0.173422,0.51926,0.446023,-0.13175,0.046096,0.142171,-0.345576,-0.851875,0.397843,-0.229152,0.151953,0.065925,0.025608,0.152939,0.114983,-0.028707,-0.047417,0.799906,1.205678,0.334734,-0.093878,0.030688,-0.153875,0.118126,0.848553,-0.895894,0.246191,0.023761
1.542069,0.020293,0.787706,0.016606,-0.005854,0.395417,0.918333,-0.175845,0.128144,0.515727,0.421966,-0.136492,0.054464,0.14093,-0.400148,-0.840794,0.453415,-0.212861,0.146252,0.068631,0.012411,0.152295,0.116458,-0.023403,-0.069857,0.801436,1.209168,0.313423,-0.092938,0.033034,-0.154064,0.110434,0.841099,-0.894714,0.243217,0.024736
1.542591,0.029782,0.789473,0.027215,-0.004379,0.40216,0.915154,-0.15319,0.086966,0.512959,0.406935,-0.143562,0.062372,0.127869,-0.45822,-0.817505,0.524546,-0.181295,0.105439,0.070925,-0.003385,0.153304,0.114078,-0.019323,-0.08982,0.803979,1.217243,0.300926,-0.089905,0.031966,-0.151678,0.109735,0.836571,-0.895451,0.240176,0.033093
1.543384,0.03835,0.789478,0.037527,-0.002609,0.408394,0.91203,-0.134873,0.050319,0.509759,0.398743,-0.153127,0.069175,0.103385,-0.516195,-0.795132,0.603685,-0.145216,0.001909,0.072469,-0.021524,0.155553,0.108637,-0.014949,-0.112299,0.80637,1.236806,0.293755,-0.088048,0.02143,-0.147942,0.118208,0.840418,-0.896405,0.23695,0.04362
1.544835,0.046527,0.78845,0.047397,-0.00075,0.417252,0.907554,-0.120393,0.015221,0.499798,0.394186,-0.16266,0.075533,0.070633,-0.569104,-0.769885,0.686988,-0.113986,-0.139222,0.071505,-0.040711,0.158674,0.100216,-0.008933,-0.139108,0.809529,1.270659,0.286643,-0.089949,0.012984,-0.141449,0.12942,0.843323,-0.9015860000000001,0.233971,0.051352
1.546932,0.054386,0.786745,0.055512,-0.000242,0.432127,0.900102,-0.105696,-0.018596,0.475713,0.387826,-0.170011,0.081304,0.021723,-0.597387,-0.707084,0.775395,-0.089887,-0.212175,0.064145,-0.058773,0.162658,0.08863,-0.002356,-0.163852,0.813133,1.308494,0.2799,-0.095729,0.010624,-0.128744,0.137,0.840194,-0.9049140000000001,0.228661,0.055672
1.54947,0.062187,0.784805,0.060359,-0.002803,0.455248,0.888312,-0.088478,-0.048566,0.433275,0.379445,-0.175211,0.086837,-0.072198,-0.564765,-0.554433,0.881179,-0.101855,-0.180431,0.046813,-0.07144,0.168797,0.069934,-0.00014,-0.177785,0.820233,1.335125,0.274761,-0.102845,0.014308,-0.104711,0.140741,0.83034,-0.9041110000000001,0.22835,0.049043
1.552442,0.069963,0.783601,0.061974,-0.005905,0.477931,0.876188,-0.070419,-0.07037,0.388714,0.369493,-0.179462,0.090463,-0.175835,-0.477821,-0.378501,0.968493,-0.116577,-0.12905,0.031029,-0.077869,0.173709,0.052303,0.000771,-0.183476,0.824979,1.347951,0.265926,-0.108741,0.021048,-0.084805,0.146019,0.81189,-0.909089,0.229113,0.031557
1.555849,0.077619,0.78345,0.061646,-0.006984,0.495456,0.866415,-0.054249,-0.085415,0.352021,0.357004,-0.182244,0.092105,-0.256557,-0.373064,-0.241315,1.008932,-0.12109,-0.063596,0.024205,-0.081241,0.175544,0.030344,0.0024,-0.184167,0.833885,1.350753,0.25572,-0.11251,0.033424,-0.073195,0.157153,0.778217,-0.927112,0.232013,-0.004057
1.559517,0.085235,0.783944,0.060424,-0.006137,0.509047,0.858593,-0.039339,-0.097353,0.32195,0.34086,-0.183297,0.092686,-0.312854,-0.285834,-0.153549,1.00789,-0.126197,-0.024271,0.024762,-0.083527,0.175127,0.015574,0.002036,-0.180972,0.835012,1.349873,0.250654,-0.108745,0.043671,-0.059534,0.168984,0.750444,-0.948146,0.242317,-0.04458
1.563264,0.092803,0.784774,0.0585,-0.004214,0.520436,0.851884,-0.025258,-0.107328,0.295357,0.321574,-0.182461,0.092827,-0.349013,-0.24329,-0.127494,0.971891,-0.132835,-0.028149,0.028779,-0.08611,0.173602,0.007726,0.003084,-0.175754,0.828701,1.34632,0.244827,-0.09911,0.051209,-0.041213,0.174037,0.730693,-0.949429,0.250109,-0.064659
1.567055,0.100374,0.785641,0.056029,-0.001396,0.531334,0.845306,-0.01308,-0.116267,0.268738,0.301965,-0.180971,0.09259,-0.371739,-0.238279,-0.152759,0.9062770000000001,-0.13538,-0.045157,0.032717,-0.089248,0.171982,0.001356,0.002605,-0.166965,0.820963,1.339837,0.242098,-0.089971,0.058778,-0.025596,0.180022,0.712486,-0.9439360000000001,0.253749,-0.07129
1.570848,0.108073,0.786148,0.053515,0.00234,0.542943,0.838059,-0.003649,-0.12563,0.240327,0.284992,-0.180312,0.092508,-0.382936,-0.251569,-0.214979,0.816844,-0.135642,-0.077827,0.034959,-0.093051,0.170843,0.0012,0.001286,-0.152941,0.80924,1.326628,0.242738,-0.07687,0.058653,-0.019233,0.188951,0.705841,-0.9397200000000001,0.254182,-0.068272
1.574734,0.116037,0.785931,0.051273,0.006477,0.555833,0.829686,0.001161,-0.134697,0.209536,0.278198,-0.18458,0.092246,-0.39281,-0.254241,-0.272736,0.724709,-0.130754,-0.095543,0.034795,-0.096284,0.171058,0.004,-0.001273,-0.139152,0.799813,1.310924,0.242419,-0.0651,0.054871,-0.020322,0.196079,0.705876,-0.936533,0.251149,-0.062634
1.578759,0.124468,0.78513,0.048778,0.0095,0.569379,0.820572,0.004289,-0.141024,0.177107,0.280556,-0.194196,0.090557,-0.413049,-0.227574,-0.28063,0.650083,-0.117342,-0.082856,0.032843,-0.096752,0.172801,0.011427,-0.004355,-0.126752,0.793014,1.29302,0.241735,-0.061489,0.053251,-0.0289,0.194783,0.706059,-0.928688,0.242207,-0.057137
1.582988,0.133548,0.784056,0.04571,0.010942,0.582047,0.811795,0.008517,-0.143498,0.145388,0.288217,-0.208207,0.087141,-0.44211,-0.167255,-0.213956,0.590898,-0.101281,-0.041339,0.030494,-0.09341,0.175611,0.018453,-0.005637,-0.121582,0.793577,1.283767,0.24531,-0.06323,0.051398,-0.036111,0.190443,0.706739,-0.9183770000000001,0.237115,-0.055147
1.587563,0.143441,0.782914,0.042808,0.011472,0.592553,0.804311,0.016081,-0.143486,0.117568,0.296071,-0.223872,0.083902,-0.461505,-0.098755,-0.114769,0.532111,-0.082614,0.00289,0.030524,-0.087735,0.177869,0.032115,-0.002407,-0.125944,0.797429,1.284544,0.247395,-0.066458,0.045284,-0.044044,0.184673,0.713944,-0.90154,0.232759,-0.053214
1.592559,0.154283,0.781547,0.041024,0.011312,0.601104,0.798037,0.027436,-0.142728,0.09342,0.305007,-0.242563,0.080524,-0.461256,-0.054309,-0.043196,0.474327,-0.060752,0.02445,0.033728,-0.081737,0.178952,0.041308,-0.001751,-0.137503,0.803062,1.291477,0.256526,-0.078836,0.039373,-0.050493,0.17499,0.725591,-0.880029,0.228275,-0.049167
1.597865,0.166116,0.779789,0.040809,0.009877,0.60881,0.792204,0.04577,-0.141966,0.071006,0.311016,-0.259588,0.076515,-0.446237,-0.040498,-0.026501,0.429725,-0.042085,0.014226,0.038574,-0.076346,0.178961,0.05542,0.003313,-0.154951,0.815508,1.304829,0.262157,-0.09038,0.036565,-0.056046,0.163672,0.740707,-0.857171,0.226953,-0.037192
1.603319,0.178812,0.776667,0.041894,0.007461,0.616201,0.786438,0.069397,-0.141402,0.049568,0.315772,-0.277026,0.072672,-0.420298,-0.050563,-0.059825,0.406829,-0.022925,-0.016599,0.043635,-0.071431,0.177571,0.071728,0.012273,-0.176238,0.832024,1.323831,0.26553,-0.104343,0.035345,-0.061513,0.158976,0.76009,-0.844832,0.231386,-0.01669
1.608899,0.191878,0.775069,0.04309,0.00366,0.624454,0.779864,0.096098,-0.138293,0.027023,0.321128,-0.294619,0.069388,-0.392566,-0.06497,-0.100283,0.41344,0.001392,-0.069803,0.04698,-0.065368,0.174759,0.087926,0.02512,-0.198714,0.84926,1.347418,0.267399,-0.121097,0.035675,-0.065094,0.161449,0.781517,-0.845611,0.23795,0.004489
1.614372,0.204895,0.77529,0.043794,-0.00057,0.632443,0.773368,0.117646,-0.131859,0.007774,0.336313,-0.306289,0.065577,-0.37456,-0.07418,-0.130337,0.437062,-0.004365,-0.093572,0.048872,-0.057161,0.171755,0.103111,0.038457,-0.216492,0.863416,1.37177,0.269111,-0.135662,0.036158,-0.063425,0.160635,0.80183,-0.848587,0.245712,0.013376
1.619652,0.218019,0.775399,0.044876,-0.004559,0.638597,0.768218,0.129569,-0.12515,-0.004362,0.368867,-0.303971,0.061712,-0.361469,-0.081189,-0.148714,0.476607,-0.042481,-0.090951,0.050803,-0.046823,0.168973,0.12188,0.04451,-0.216452,0.870734,1.384788,0.27876,-0.145234,0.037735,-0.057152,0.149586,0.821138,-0.846426,0.259545,0.0042
1.624816,0.230849,0.776848,0.045587,-0.008012,0.643594,0.763966,0.131151,-0.117781,-0.013182,0.415206,-0.277647,0.055335,-0.340581,-0.084767,-0.163818,0.500031,-0.076806,-0.08781,0.053724,-0.035575,0.165416,0.144715,0.040357,-0.191776,0.867614,1.377719,0.30192,-0.144647,0.041494,-0.045649,0.125015,0.836317,-0.831579,0.271565,-0.01327
1.629831,0.243565,0.78232,0.044064,-0.011723,0.648453,0.759888,0.124235,-0.107535,-0.021952,0.475588,-0.234024,0.0478,-0.307649,-0.081757,-0.180796,0.495096,-0.097178,-0.086053,0.056591,-0.023761,0.160765,0.169988,0.0284,-0.146673,0.851651,1.344074,0.320574,-0.137664,0.045696,-0.034904,0.108492,0.850851,-0.823697,0.27788,-0.01873
1.634567,0.255177,0.785506,0.040958,-0.015373,0.653361,0.755782,0.094851,-0.09566400000000001,-0.031359,0.561065,-0.177408,0.041351,-0.274308,-0.073742,-0.19796,0.478107,-0.111157,-0.084475,0.057578,-0.010507,0.155962,0.191757,0.025125,-0.121865,0.835612,1.325857,0.322978,-0.131633,0.048559,-0.026803,0.10292,0.861665,-0.826006,0.277092,-0.013102
1.638862,0.265922,0.786683,0.035835,-0.019682,0.65997,0.750179,0.043909,-0.079081,-0.036234,0.676831,-0.119987,0.032097,-0.24477,-0.063448,-0.220039,0.461291,-0.12453,-0.083392,0.056,0.004159,0.151133,0.207937,0.032244,-0.118601,0.822441,1.325785,0.313364,-0.138945,0.052192,-0.020008,0.104257,0.867378,-0.834772,0.269417,-0.005035
1.642556,0.276159,0.786047,0.030168,-0.023376,0.668053,0.743135,-0.020928,-0.063859,-0.043373,0.808596,-0.068289,-0.011459,-0.220916,-0.055563,-0.245051,0.450573,-0.1407,-0.081572,0.052398,0.019267,0.14625,0.218129,0.043491,-0.126388,0.806315,1.332956,0.295589,-0.148913,0.056154,-0.016444,0.110455,0.867495,-0.847668,0.25414,0.00435
1.646041,0.286454,0.786267,0.025548,-0.025727,0.675541,0.736431,-0.086882,-0.046294,-0.039197,0.937125,-0.023868,-0.061579,-0.198905,-0.050059,-0.267966,0.441582,-0.157107,-0.079431,0.047312,0.033734,0.141386,0.227412,0.052692,-0.139283,0.785943,1.343606,0.272711,-0.160611,0.056404,-0.016524,0.118181,0.864183,-0.862352,0.237216,0.012195
1.649206,0.296877,0.785934,0.021626,-0.027456,0.680774,0.731659,-0.148607,-0.021872,-0.024064,1.045191,0.022628,-0.091264,-0.178385,-0.043379,-0.285055,0.433088,-0.172769,-0.077646,0.041954,0.046895,0.137234,0.234323,0.058775,-0.147178,0.764204,1.347934,0.249426,-0.166989,0.054114,-0.018882,0.124418,0.860846,-0.873594,0.221223,0.018683
1.65201,0.307425,0.785715,0.018709,-0.029042,0.683269,0.729349,-0.199093,0.014918,0.003788,1.116422,0.025101,-0.091424,-0.157902,-0.035171,-0.294586,0.424327,-0.186651,-0.07592,0.037582,0.05891,0.133621,0.24107,0.059987,-0.148509,0.742584,1.348015,0.235932,-0.169336,0.047171,-0.022318,0.130616,0.861845,-0.884783,0.213479,0.023425
1.654459,0.31811,0.785697,0.016523,-0.031068,0.683334,0.729257,-0.23822,0.061769,0.04197,1.150352,-0.014988,-0.065138,-0.136082,-0.02495,-0.297441,0.414844,-0.199329,-0.074334,0.035162,0.06978,0.130495,0.249109,0.058246,-0.148615,0.721483,1.350496,0.228964,-0.165561,0.037398,-0.025748,0.13555,0.86708,-0.896255,0.212885,0.027709
1.656581,0.328831,0.785946,0.014849,-0.032845,0.681624,0.730814,-0.26566,0.105837,0.08112,1.145835,-0.044922,-0.04124,-0.11373,-0.014307,-0.295128,0.404032,-0.210575,-0.07289,0.035274,0.079524,0.127628,0.257235,0.056809,-0.150624,0.702542,1.360091,0.223296,-0.14856,0.027243,-0.0285,0.135795,0.87259,-0.905978,0.216628,0.030704
1.6584,0.339444,0.786396,0.013092,-0.033752,0.678696,0.733526,-0.28522,0.139908,0.117417,1.103618,-0.070459,-0.023957,-0.093575,-0.004407,-0.289294,0.393875,-0.221091,-0.07176,0.037834,0.08806,0.125218,0.261927,0.059186,-0.155808,0.690445,1.380926,0.21355,-0.131746,0.019519,-0.03118,0.131225,0.874468,-0.915123,0.222105,0.030994
