hanqing-shi/Humanoids-Motion-Generation/dataset/data_joint/walk/walk1_subject5_seg1.csv
root_x,root_y,root_z,root_qx,root_qy,root_qz,root_qw,left_hip_pitch_joint,left_hip_roll_joint,left_hip_yaw_joint,left_knee_joint,left_ankle_pitch_joint,left_ankle_roll_joint,right_hip_pitch_joint,right_hip_roll_joint,right_hip_yaw_joint,right_knee_joint,right_ankle_pitch_joint,right_ankle_roll_joint,waist_yaw_joint,waist_roll_joint,waist_pitch_joint,left_shoulder_pitch_joint,left_shoulder_roll_joint,left_shoulder_yaw_joint,left_elbow_joint,left_wrist_roll_joint,left_wrist_pitch_joint,left_wrist_yaw_joint,right_shoulder_pitch_joint,right_shoulder_roll_joint,right_shoulder_yaw_joint,right_elbow_joint,right_wrist_roll_joint,right_wrist_pitch_joint,right_wrist_yaw_joint
0.017362,0.020715,0.780503,0.005447,0.055861,-0.01958,0.998232,-0.170529,-0.059496,-0.023723,0.354622,-0.32688,0.049305,-0.228833,-0.039363,0.062972,0.438993,-0.325853,0.063199,-0.015468,-0.015557,-0.010277,0.176682,0.05372,0.06102,0.934844,0.9792090000000001,0.420999,0.059373,0.231203,-0.124654,-0.087771,0.620353,-0.862936,0.262553,0.051259
0.019443,0.023275,0.777092,0.009455,0.054198,-0.024476,0.998185,-0.175097,-0.069986,-0.012414,0.380545,-0.350111,0.053849,-0.278212,-0.043985,0.07512,0.544837,-0.34234,0.060247,-0.011016,-0.020338,-0.003242,0.17113,0.068247,0.093385,0.961115,0.9765680000000002,0.448079,0.045088,0.232989,-0.146745,-0.074186,0.643119,-0.876042,0.263976,0.062246
0.022366,0.025758,0.774521,0.01502,0.0524,-0.032196,0.997994,-0.179276,-0.081238,0.005076,0.407946,-0.375638,0.056265,-0.340689,-0.049265,0.085321,0.675772,-0.347191,0.066869,-0.006582,-0.026464,0.00416,0.16425,0.082481,0.129041,0.986589,0.968176,0.467574,0.025221,0.230861,-0.175504,-0.06004,0.665599,-0.88826,0.267681,0.067756
0.02594,0.027927,0.77035,0.021529,0.050738,-0.041587,0.997613,-0.182041,-0.092845,0.025881,0.433609,-0.401691,0.056966,-0.408312,-0.062398,0.076845,0.809567,-0.340441,0.069171,-0.00265,-0.033937,0.011199,0.153113,0.099269,0.15325,1.01865,0.970988,0.478079,0.003289,0.226828,-0.205559,-0.046051,0.687833,-0.89857,0.271853,0.068588
0.030261,0.029772,0.76633,0.026945,0.049511,-0.049822,0.9971660000000001,-0.180024,-0.102708,0.043978,0.449691,-0.422936,0.056935,-0.471008,-0.08431,0.047718,0.92441,-0.33512,0.049132,-0.000725,-0.041816,0.017161,0.132551,0.119518,0.167756,1.060852,0.987839,0.483106,-0.020146,0.223978,-0.22818,-0.037798,0.707792,-0.902377,0.277063,0.063882
0.036198,0.031426,0.765601,0.030233,0.048947,-0.054742,0.996842,-0.17287,-0.109879,0.05507,0.455461,-0.437946,0.056603,-0.528357,-0.112003,0.000902,1.001516,-0.337873,0.014319,-0.00185,-0.048695,0.021737,0.099223,0.141603,0.174085,1.108155,1.015975,0.484757,-0.052365,0.224949,-0.238598,-0.038477,0.723166,-0.897309,0.283902,0.05183
0.043342,0.032584,0.764234,0.031796,0.049373,-0.056339,0.996683,-0.163432,-0.115198,0.059096,0.456156,-0.450091,0.057039,-0.569938,-0.141967,-0.060016,1.023833,-0.339747,-0.027079,-0.005926,-0.053684,0.024686,0.052452,0.159797,0.164091,1.147073,1.052047,0.483545,-0.104668,0.230324,-0.236303,-0.041698,0.733688,-0.885242,0.292672,0.031336
0.051806,0.033267,0.762965,0.032068,0.050504,-0.05599,0.9966370000000001,-0.151367,-0.118991,0.05803,0.453353,-0.461074,0.058986,-0.600443,-0.166162,-0.128207,0.999351,-0.336191,-0.067373,-0.012413,-0.056357,0.026593,0.004278,0.177925,0.134414,1.156344,1.089593,0.46896,-0.178404,0.235976,-0.232575,-0.0441,0.740262,-0.872384,0.297828,0.015515
0.061685,0.033471,0.761725,0.031377,0.051673,-0.055092,0.99665,-0.135196,-0.121085,0.054351,0.447718,-0.472142,0.06166,-0.626709,-0.170451,-0.18064,0.941884,-0.328377,-0.071196,-0.020379,-0.056328,0.028543,-0.038154,0.20338,0.104304,1.135922,1.122551,0.421134,-0.243624,0.243601,-0.227617,-0.039561,0.743799,-0.863886,0.300052,0.005446
0.072975,0.033181,0.760267,0.03064,0.052435,-0.054412,0.99667,-0.115012,-0.1225,0.050461,0.441053,-0.484407,0.064095,-0.650226,-0.153427,-0.20579,0.865628,-0.315151,-0.056168,-0.028405,-0.054101,0.031301,-0.075114,0.228111,0.084985,1.087477,1.145476,0.367507,-0.269552,0.252799,-0.222465,-0.028043,0.745104,-0.860424,0.302398,0.001173
0.085582,0.032464,0.758848,0.028745,0.053019,-0.054054,0.996715,-0.089364,-0.12088,0.046509,0.428399,-0.494594,0.065758,-0.670845,-0.128329,-0.2163,0.779315,-0.286909,-0.048944,-0.035272,-0.050476,0.034976,-0.109297,0.241252,0.074308,1.022888,1.159594,0.336744,-0.240885,0.265614,-0.214885,-0.012153,0.742315,-0.859448,0.306967,0.003505
0.099511,0.031276,0.757261,0.026331,0.053164,-0.053596,0.9967990000000002,-0.058601,-0.117437,0.042375,0.411164,-0.503466,0.066946,-0.688625,-0.103745,-0.218951,0.69553,-0.253428,-0.038339,-0.041095,-0.04592,0.039404,-0.139715,0.24942,0.065928,0.95305,1.167125,0.323105,-0.168966,0.275793,-0.204675,0.004758,0.742231,-0.857372,0.315482,0.013643
0.114804,0.029646,0.755204,0.023856,0.052938,-0.052924,0.996909,-0.023463,-0.113278,0.037981,0.390888,-0.512827,0.066945,-0.699877,-0.083475,-0.219703,0.617598,-0.235466,-0.031278,-0.04643,-0.040879,0.044148,-0.166918,0.251756,0.053153,0.886989,1.170059,0.318136,-0.075321,0.284404,-0.192279,0.019909,0.744817,-0.853029,0.325365,0.03012
0.131462,0.027636,0.752385,0.021505,0.05196,-0.051411,0.997093,0.014334,-0.10932,0.032166,0.37306,-0.526133,0.067294,-0.710261,-0.061511,-0.202509,0.561017,-0.21858,-0.039225,-0.052598,-0.034941,0.049473,-0.189034,0.254542,0.039189,0.825119,1.168052,0.309405,0.005584,0.287762,-0.1788,0.03114,0.754813,-0.848116,0.332459,0.046547
0.149276,0.025253,0.748975,0.019322,0.050418,-0.049018,0.997337,0.050119,-0.105142,0.025322,0.365023,-0.537674,0.066038,-0.720735,-0.03784,-0.165539,0.53392,-0.209012,-0.035637,-0.059913,-0.028036,0.055259,-0.20457,0.245636,0.027271,0.772223,1.158318,0.301479,0.060065,0.294467,-0.166767,0.040519,0.761848,-0.843549,0.333348,0.057848
0.167907,0.022517,0.745224,0.016468,0.049489,-0.045478,0.997603,0.08152,-0.098768,0.01663,0.36468,-0.54962,0.062073,-0.725968,-0.01917,-0.135712,0.527937,-0.204833,-0.032106,-0.067786,-0.020315,0.060429,-0.212795,0.226817,0.024645,0.725266,1.135363,0.294186,0.082171,0.301942,-0.154788,0.049001,0.767615,-0.839642,0.327329,0.063722
0.187282,0.019318,0.741427,0.013376,0.049618,-0.039565,0.997895,0.104797,-0.090005,0.005427,0.377124,-0.558258,0.055048,-0.722324,-0.016169,-0.132838,0.537985,-0.173698,-0.041626,-0.075764,-0.011544,0.063899,-0.215572,0.1995,0.026546,0.684649,1.100684,0.288251,0.081288,0.310299,-0.142438,0.055222,0.772548,-0.835229,0.315855,0.066717
0.207442,0.015728,0.73803,0.009676,0.051101,-0.031318,0.998155,0.118476,-0.078013,-0.008612,0.405092,-0.554725,0.045388,-0.711746,-0.025433,-0.155489,0.566069,-0.142965,-0.074671,-0.083611,-0.001651,0.065651,-0.214584,0.173082,0.017286,0.653666,1.070357,0.283855,0.066128,0.318208,-0.128744,0.059322,0.776291,-0.830528,0.303304,0.068131
0.228625,0.011971,0.740631,0.005338,0.052635,-0.023145,0.998331,0.126539,-0.063933,-0.022013,0.45252,-0.525399,0.036019,-0.700444,-0.03225,-0.177044,0.601608,-0.123737,-0.093775,-0.09129300000000001,0.009097,0.066898,-0.206386,0.158148,-0.013561,0.634158,1.064987,0.282062,0.040112,0.32277,-0.115093,0.064525,0.780761,-0.828806,0.295069,0.0673
0.250448,0.008173,0.742959,0.002293,0.052503,-0.01776,0.99846,0.118536,-0.052056,-0.031187,0.52783,-0.460503,0.024202,-0.68283,-0.032102,-0.186394,0.634797,-0.133035,-0.096579,-0.098282,0.01856,0.068896,-0.186494,0.154546,-0.059302,0.62552,1.091431,0.285137,0.011148,0.321577,-0.104005,0.073846,0.787706,-0.832975,0.293595,0.065362
0.27271,0.004463,0.744561,9.8e-05,0.050729,-0.014509,0.998607,0.086074,-0.042509,-0.036539,0.64491,-0.352547,0.003977,-0.6507,-0.02676,-0.19008,0.652841,-0.156265,-0.1049,-0.104025,0.024785,0.071615,-0.157238,0.155177,-0.101578,0.629789,1.136278,0.295838,-0.009221,0.314599,-0.093996,0.086711,0.794876,-0.840703,0.296307,0.067056
0.294545,0.000722,0.74833,-0.000684,0.048134,-0.010897,0.998781,0.018505,-0.039721,-0.050006,0.808096,-0.201706,-0.045296,-0.606421,-0.021259,-0.194511,0.645277,-0.182119,-0.120834,-0.10746,0.027542,0.07373,-0.12606,0.150539,-0.125043,0.65136,1.175179,0.315533,-0.016705,0.30497,-0.085882,0.098195,0.79459,-0.845954,0.298123,0.075916
0.317201,-0.002677,0.755005,-0.000476,0.045581,-0.006129,0.9989420000000001,-0.075896,-0.049944,-0.077723,1.003965,-0.074747,-0.108921,-0.551531,-0.018702,-0.201701,0.621099,-0.206396,-0.126707,-0.108216,0.02812,0.074667,-0.09855100000000001,0.139754,-0.12501,0.689231,1.191375,0.341457,-0.017456,0.295097,-0.083398,0.106687,0.780789,-0.846435,0.29585,0.090295
0.340227,-0.005709,0.760834,-0.000346,0.043345,-0.001641,0.999059,-0.183363,-0.045719,-0.077787,1.183293,-0.01331,-0.141907,-0.494293,-0.01763,-0.211988,0.591535,-0.228692,-0.114315,-0.107615,0.028793,0.07498,-0.07444,0.128717,-0.107955,0.737764,1.184231,0.366276,-0.019204,0.283463,-0.090977,0.11479,0.754132,-0.845319,0.289633,0.102147
0.363719,-0.008209,0.765758,-0.001606,0.040939,-0.0009010000000000001,0.99916,-0.292388,-0.015639,-0.056551,1.31071,-0.044078,-0.134368,-0.437522,-0.01132,-0.219268,0.562204,-0.248445,-0.101475,-0.103865,0.031207,0.075478,-0.05107,0.119285,-0.089893,0.799776,1.166082,0.384676,-0.019486,0.272436,-0.108692,0.124286,0.715705,-0.849161,0.28324,0.100293
0.387987,-0.010368,0.769703,-0.002282,0.03785,-0.005232,0.999267,-0.390969,0.030873,-0.021715,1.369656,-0.086828,-0.111332,-0.379682,-0.000551,-0.216806,0.533355,-0.268528,-0.091425,-0.095728,0.034908,0.075247,-0.02796,0.122238,-0.081821,0.862008,1.152954,0.391385,-0.036686,0.250414,-0.133962,0.130633,0.686084,-0.85628,0.280549,0.078064
0.41297,-0.012031,0.771982,-0.004947,0.034488,-0.012304,0.999317,-0.481887,0.071498,0.006512,1.371551,-0.128378,-0.075697,-0.324411,0.015103,-0.208536,0.511928,-0.291561,-0.083342,-0.083351,0.03961,0.074541,-0.000352,0.143258,-0.089041,0.917957,1.15628,0.385659,-0.070775,0.217386,-0.155435,0.12828,0.675743,-0.859785,0.283109,0.040163
0.43891,-0.013237,0.77242,-0.010194,0.03123,-0.019603,0.999268,-0.55832,0.097056,0.024132,1.317613,-0.17623,-0.05121,-0.271633,0.033562,-0.199405,0.499555,-0.319785,-0.075492,-0.068629,0.045889,0.073246,0.030231,0.166651,-0.10997,0.969388,1.174957,0.377748,-0.105211,0.188841,-0.167684,0.112754,0.671133,-0.855944,0.288972,0.001016
0.466095,-0.014152,0.771469,-0.016707,0.027894,-0.02622,0.999127,-0.615867,0.101914,0.03049,1.209432,-0.207933,-0.030471,-0.216512,0.052055,-0.190962,0.489334,-0.351643,-0.066713,-0.053192,0.053783,0.071663,0.065358,0.183356,-0.133118,1.006695,1.196781,0.374944,-0.131487,0.164727,-0.173959,0.084061,0.672411,-0.845378,0.289193,-0.02929
0.494445,-0.015032,0.769803,-0.021755,0.02448,-0.032104,0.998948,-0.650319,0.094234,0.032622,1.052704,-0.201636,-0.01744,-0.153917,0.066604,-0.182156,0.469848,-0.382473,-0.057094,-0.038477,0.061984,0.069558,0.102668,0.195964,-0.141662,1.030111,1.207272,0.372367,-0.145639,0.144296,-0.182337,0.056443,0.667788,-0.833772,0.287391,-0.044055
0.523467,-0.015833,0.767046,-0.026775,0.02125,-0.0377,0.998704,-0.657678,0.082565,0.032388,0.855137,-0.182658,-0.042684,-0.088949,0.07922,-0.173608,0.448095,-0.412767,-0.047037,-0.025138,0.069771,0.066501,0.141993,0.203347,-0.130375,1.041795,1.201969,0.374728,-0.147557,0.127207,-0.194925,0.040847,0.65994,-0.829993,0.282512,-0.048237
0.552146,-0.016881,0.763926,-0.028201,0.0189,-0.04388,0.99846,-0.647919,0.067436,0.031658,0.648168,-0.122272,-0.061754,-0.024538,0.08461,-0.162882,0.420033,-0.43484,-0.036993,-0.013119,0.075636,0.062545,0.181933,0.202608,-0.104524,1.04496,1.183963,0.379147,-0.141404,0.112502,-0.214272,0.03483,0.651292,-0.840102,0.274409,-0.046318
0.580095,-0.017934,0.759874,-0.028853,0.017052,-0.050765,0.998148,-0.634669,0.060657,0.031563,0.479997,-0.058021,-0.068169,0.029849,0.086658,-0.149994,0.40632,-0.456339,-0.027017,-0.002952,0.078699,0.058764,0.216815,0.193805,-0.073935,1.045716,1.163516,0.388509,-0.133397,0.09806,-0.232433,0.037199,0.644638,-0.855711,0.270283,-0.041937
0.607349,-0.018808,0.755327,-0.030489,0.014859,-0.057986,0.997741,-0.622199,0.063307,0.03872,0.386167,-0.041913,-0.051401,0.072236,0.087886,-0.136573,0.416542,-0.476609,-0.016834,0.004915,0.079461,0.055771,0.246372,0.182055,-0.046414,1.047965,1.147052,0.397333,-0.127682,0.086571,-0.244308,0.039457,0.640417,-0.868285,0.271368,-0.035438
0.634241,-0.019339,0.753744,-0.030945,0.012023,-0.064868,0.997341,-0.613234,0.067435,0.051101,0.372818,-0.034637,-0.022689,0.106431,0.084019,-0.125062,0.44864,-0.483252,-0.004387,0.010591,0.077615,0.053634,0.267393,0.166731,-0.027835,1.054863,1.137745,0.401984,-0.128328,0.080637,-0.250501,0.037199,0.635206,-0.874602,0.276317,-0.026821
0.660389,-0.019158,0.749465,-0.028867,0.008439,-0.070773,0.997039,-0.603105,0.065414,0.054825,0.418527,0.005521,-0.024388,0.125873,0.07078,-0.11258,0.505255,-0.472989,0.012041,0.014551,0.072569,0.051892,0.276588,0.148863,-0.021412,1.068616,1.137562,0.402154,-0.137494,0.081949,-0.254373,0.031907,0.626712,-0.875772,0.281493,-0.017155
0.684912,-0.018235,0.748205,-0.02329,0.003959,-0.074354,0.996952,-0.594691,0.051291,0.055224,0.477668,0.040505,-0.029803,0.117737,0.046802,-0.096052,0.61079,-0.428776,0.033265,0.017226,0.064932,0.051286,0.269622,0.128786,-0.028418,1.088599,1.148052,0.399403,-0.154181,0.090102,-0.259694,0.025872,0.615475,-0.873856,0.284839,-0.007297
0.708661,-0.016635,0.745143,-0.016138,-0.001392,-0.075669,0.997001,-0.58539,0.02892,0.059357,0.546287,0.014429,0.009569,0.070842,0.016104,-0.079814,0.782503,-0.355933,0.050651,0.019404,0.054955,0.053427,0.247282,0.110456,-0.04322,1.106884,1.165811,0.395161,-0.173788,0.10225,-0.265952,0.02259,0.604624,-0.871384,0.286692,0.004974
0.731231,-0.015157,0.74417,-0.007223,-0.006053,-0.076128,0.9970540000000001,-0.571729,0.006962,0.071918,0.604504,-0.04344,0.015781,-0.008574,-0.025552,-0.067096,0.99789,-0.298651,0.07252,0.02126,0.04236,0.057267,0.21554,0.09448,-0.051775,1.10756,1.17881,0.390065,-0.186511,0.11174,-0.272714,0.026162,0.595384,-0.871503,0.288115,0.02327
0.752659,-0.014394,0.743157,0.00325,-0.008545,-0.07769,0.996936,-0.55196,-0.013857,0.088081,0.64176,-0.10091,0.01156,-0.110665,-0.096436,-0.076802,1.202017,-0.303502,0.040078,0.02252,0.026974,0.060891,0.183181,0.081889,-0.037336,1.0761,1.17249,0.384844,-0.179562,0.111016,-0.27913,0.039474,0.587484,-0.875502,0.28853,0.04555
0.773136,-0.014635,0.743376,0.014163,-0.008029,-0.077567,0.996854,-0.526626,-0.03682,0.100179,0.653823,-0.148816,-0.001911,-0.217807,-0.197796,-0.115514,1.328883,-0.358038,-0.057608,0.020124,0.009553,0.062591,0.154058,0.073399,0.002897,1.01149,1.143366,0.377782,-0.146876,0.099085,-0.283366,0.059493,0.580663,-0.881107,0.287485,0.063237
0.792844,-0.016183,0.744239,0.024829,-0.005942,-0.07062,0.997177,-0.502175,-0.066172,0.100124,0.656076,-0.191287,-0.024208,-0.323092,-0.265245,-0.141749,1.367236,-0.403838,-0.131523,0.012104,-0.00802,0.063383,0.125605,0.067683,0.049744,0.927494,1.104025,0.363803,-0.094978,0.083983,-0.286576,0.078223,0.574123,-0.883943,0.285915,0.071112
0.812287,-0.018941,0.746258,0.032723,-0.003836,-0.055767,0.9979,-0.47699,-0.099473,0.083493,0.653783,-0.226437,-0.040152,-0.419174,-0.273096,-0.135068,1.329833,-0.423689,-0.125705,0.001624,-0.022783,0.063878,0.092189,0.065056,0.077401,0.840716,1.073945,0.342277,-0.03832,0.070948,-0.29209,0.093841,0.567968,-0.87664,0.284954,0.071937
0.831425,-0.0227,0.750944,0.038701,-0.00172,-0.03562,0.998614,-0.454058,-0.133891,0.054526,0.651577,-0.259759,-0.052678,-0.503568,-0.238019,-0.094214,1.232107,-0.417704,-0.092375,-0.008738,-0.034144,0.064344,0.060985,0.070325,0.074997,0.755763,1.061465,0.310352,0.012222,0.067182,-0.299475,0.105235,0.556725,-0.86656,0.282302,0.067971
0.85073,-0.027535,0.753326,0.043094,0.001137,-0.012244,0.998995,-0.431905,-0.165885,0.016935,0.654456,-0.289763,-0.062442,-0.561531,-0.180726,-0.021242,1.077812,-0.41376,-0.037515,-0.018643,-0.042943,0.06383,0.034356,0.084925,0.051086,0.677708,1.066091,0.268744,0.053773,0.067815,-0.307258,0.120933,0.539865,-0.857738,0.283099,0.060101
0.870049,-0.032978,0.754358,0.042671,0.004197,0.016409,0.998946,-0.406994,-0.193045,-0.035334,0.655064,-0.313389,-0.066537,-0.584002,-0.086664,0.122751,0.883313,-0.369076,0.00298,-0.029735,-0.047815,0.061971,0.003273,0.104735,0.007084,0.598182,1.081785,0.238738,0.075406,0.075496,-0.313554,0.135573,0.519031,-0.850574,0.282986,0.050431
0.889052,-0.038744,0.752935,0.037377,0.007049,0.05324,0.9978570000000001,-0.38145,-0.218529,-0.106312,0.659087,-0.327502,-0.061105,-0.555983,0.032222,0.376241,0.694311,-0.292508,0.084693,-0.041389,-0.046597,0.058975,-0.024989,0.132544,-0.044406,0.522258,1.097634,0.20805,0.082731,0.081492,-0.314079,0.143612,0.507284,-0.842084,0.28516,0.038999
0.907343,-0.044727,0.753173,0.03106,0.008869,0.098869,0.994576,-0.363826,-0.248799,-0.191414,0.675888,-0.345426,-0.055035,-0.493684,0.118672,0.650221,0.566519,-0.241616,0.167054,-0.049442,-0.041916,0.056308,-0.065449,0.149094,-0.105219,0.464017,1.110549,0.187859,0.082041,0.100464,-0.311267,0.138304,0.493516,-0.82923,0.291145,0.024157
0.924465,-0.051649,0.753201,0.025985,0.00985,0.14866,0.988498,-0.352327,-0.281756,-0.281481,0.704874,-0.365709,-0.061113,-0.442112,0.15186,0.754472,0.525571,-0.185804,0.244168,-0.046716,-0.039745,0.055798,-0.113479,0.150423,-0.170035,0.427349,1.11629,0.175942,0.07841,0.128727,-0.303154,0.121306,0.479434,-0.813109,0.301977,0.006212
0.940735,-0.059976,0.752466,0.021608,0.010743,0.204768,0.978513,-0.346162,-0.316485,-0.379589,0.742529,-0.384726,-0.083269,-0.425153,0.143398,0.723991,0.550717,-0.167419,0.247533,-0.03859,-0.039863,0.057379,-0.1595,0.137629,-0.234768,0.408814,1.112515,0.169079,0.073447,0.16008,-0.288615,0.097277,0.472138,-0.797614,0.318004,-0.015833
0.955382,-0.068919,0.752506,0.015136,0.014064,0.266797,0.963531,-0.346642,-0.349653,-0.48837,0.777991,-0.399411,-0.128489,-0.434099,0.097415,0.609784,0.580451,-0.201914,0.247117,-0.028731,-0.040706,0.059169,-0.195217,0.12073,-0.297667,0.400385,1.101996,0.165546,0.067118,0.185161,-0.263983,0.073102,0.482368,-0.78321,0.337953,-0.044776
0.968616,-0.077572,0.757541,0.00418,0.020419,0.333043,0.9426810000000002,-0.359178,-0.377587,-0.598958,0.811776,-0.415485,-0.215252,-0.438378,0.04272,0.471347,0.588905,-0.231118,0.237205,-0.019064,-0.038389,0.059849,-0.213751,0.110835,-0.35833,0.39564,1.092942,0.166226,0.061207,0.196059,-0.234709,0.062853,0.521621,-0.769768,0.357351,-0.073572
0.980781,-0.085879,0.760272,-0.008422,0.026817,0.401263,0.915532,-0.380053,-0.413906,-0.662514,0.85209,-0.418458,-0.24638,-0.437575,-0.011457,0.331579,0.590312,-0.248724,0.214071,-0.011102,-0.030691,0.061449,-0.209196,0.113627,-0.415485,0.393024,1.093882,0.172199,0.059259,0.191143,-0.218973,0.088088,0.593803,-0.761919,0.366889,-0.072913
0.992003,-0.093406,0.762921,-0.018751,0.031039,0.469163,0.882367,-0.411289,-0.444388,-0.665898,0.886546,-0.413941,-0.247697,-0.420977,-0.070928,0.190703,0.579148,-0.260582,0.192994,-0.005124,-0.019209,0.065013,-0.183179,0.131148,-0.465675,0.395925,1.107111,0.182782,0.061315,0.175712,-0.230158,0.16322,0.68588,-0.769061,0.354226,-0.016025
1.002539,-0.100321,0.766046,-0.025864,0.032851,0.535927,0.843229,-0.45864,-0.443569,-0.613114,0.908436,-0.414482,-0.247742,-0.386429,-0.13214,0.047048,0.556793,-0.267181,0.17657,-0.001471,-0.005686,0.069832,-0.148396,0.160824,-0.500636,0.410635,1.12515,0.198763,0.062598,0.159291,-0.264334,0.272672,0.769196,-0.794582,0.315598,0.073736
1.012524,-0.106676,0.769121,-0.033086,0.031895,0.600527,0.798283,-0.526465,-0.385968,-0.491521,0.931793,-0.410116,-0.24759,-0.338978,-0.184702,-0.103328,0.528911,-0.269543,0.163563,0.000151,0.009852,0.073807,-0.117471,0.198606,-0.505775,0.440131,1.134831,0.225672,0.057088,0.149635,-0.301717,0.374554,0.823453,-0.822478,0.273587,0.142426
1.022195,-0.112032,0.7718,-0.04144,0.029591,0.658266,0.751061,-0.588835,-0.284368,-0.349427,0.954487,-0.404797,-0.245025,-0.286007,-0.221869,-0.253891,0.498055,-0.270084,0.154876,0.00563,0.024672,0.07407,-0.092773,0.237022,-0.46669,0.479696,1.126896,0.27083,0.045723,0.149525,-0.32525,0.437304,0.853132,-0.834259,0.259576,0.168917
1.031354,-0.115834,0.77391,-0.050381,0.026252,0.708224,0.703699,-0.62779,-0.173943,-0.219588,0.965425,-0.396692,-0.194731,-0.230888,-0.243247,-0.398399,0.466829,-0.270627,0.148761,0.014742,0.0367,0.070392,-0.072754,0.27016,-0.37862,0.518545,1.104048,0.334643,0.043684,0.157322,-0.330273,0.451864,0.872149,-0.821497,0.278017,0.156503
1.039377,-0.117843,0.775388,-0.058613,0.02141,0.751721,0.656523,-0.649212,-0.074217,-0.127874,0.958832,-0.388886,-0.127797,-0.173338,-0.252243,-0.534296,0.436782,-0.272221,0.147119,0.024465,0.044864,0.064869,-0.058633,0.298045,-0.257238,0.547549,1.085713,0.407936,0.077424,0.170065,-0.319146,0.425145,0.890412,-0.787152,0.312915,0.109862
1.04588,-0.118398,0.776746,-0.064774,0.016817,0.790538,0.608746,-0.662449,0.013961,-0.061819,0.937695,-0.369237,-0.059841,-0.112003,-0.253133,-0.663383,0.400095,-0.269699,0.150001,0.03275,0.04937,0.059269,-0.054478,0.326036,-0.141182,0.57639,1.100634,0.470755,0.154727,0.185078,-0.299391,0.378456,0.911778,-0.746958,0.347838,0.041388
1.050554,-0.118002,0.777834,-0.069661,0.012874,0.824928,0.560781,-0.676519,0.09670500000000001,-0.005549,0.903814,-0.331207,0.010691,-0.051682,-0.247398,-0.786335,0.359695,-0.262682,0.156701,0.040252,0.051342,0.054627,-0.06295,0.365728,-0.048495,0.642478,1.172056,0.484898,0.230683,0.199988,-0.276972,0.341684,0.936627,-0.721293,0.373907,-0.024971
1.053279,-0.117137,0.778262,-0.074903,0.009223,0.854075,0.514646,-0.691737,0.179176,0.058469,0.856264,-0.275755,0.09146000000000001,0.000373,-0.2362,-0.899977,0.323355,-0.254135,0.165782,0.048192,0.052601,0.051072,-0.084509,0.408868,-0.018672,0.736675,1.274989,0.48543,0.231103,0.207587,-0.260512,0.333645,0.962479,-0.719143,0.385085,-0.061838
1.053986,-0.116069,0.777981,-0.080773,0.006143,0.877592,0.472515,-0.704327,0.257624,0.131906,0.795574,-0.225544,0.138254,0.041788,-0.22295,-1.000621,0.293834,-0.24545,0.176431,0.056452,0.053754,0.048646,-0.108822,0.439294,-0.054538,0.825933,1.355231,0.482298,0.141386,0.202711,-0.256441,0.350613,0.983146,-0.733509,0.378321,-0.063462
1.052471,-0.114824,0.777,-0.086821,0.002948,0.896158,0.435149,-0.712506,0.31936,0.204121,0.729464,-0.183719,0.169167,0.075809,-0.209145,-1.08745,0.270865,-0.237339,0.188739,0.064146,0.054575,0.04756,-0.123291,0.459466,-0.090263,0.893711,1.39298,0.451641,0.020175,0.189003,-0.262127,0.374245,0.990729,-0.749399,0.358937,-0.0497
1.04852,-0.113483,0.775489,-0.092309,-0.000208,0.911142,0.401621,-0.718812,0.358405,0.263473,0.672359,-0.162148,0.176308,0.106986,-0.195829,-1.162943,0.250506,-0.228104,0.204065,0.070552,0.054411,0.047919,-0.120202,0.464592,-0.103685,0.9359710000000001,1.398505,0.413181,-0.075148,0.172805,-0.273358,0.38784,0.981562,-0.755602,0.33781,-0.040964
1.041917,-0.11227,0.773573,-0.097069,-0.003068,0.923329,0.371525,-0.728348,0.376098,0.297376,0.639099,-0.160436,0.160822,0.136812,-0.184931,-1.228814,0.23262,-0.217137,0.221872,0.076163,0.05285,0.049569,-0.096516,0.44461,-0.100752,0.961605,1.386449,0.398741,-0.117027,0.162147,-0.288505,0.386556,0.953273,-0.752064,0.322716,-0.04483
1.032573,-0.111517,0.771431,-0.101343,-0.005949,0.932806,0.345785,-0.743116,0.372999,0.291303,0.634857,-0.167802,0.147205,0.163503,-0.179685,-1.282754,0.222836,-0.201796,0.239273,0.082397,0.050099,0.052123,-0.051844,0.414995,-0.07987,0.9728500000000002,1.359554,0.396987,-0.109289,0.149407,-0.300908,0.375742,0.920007,-0.745033,0.315834,-0.060547
1.020955,-0.111588,0.76921,-0.105437,-0.008056,0.939699,0.325245,-0.755603,0.35502,0.262269,0.649442,-0.183954,0.121362,0.183246,-0.180473,-1.322871,0.21937,-0.186702,0.246994,0.08923,0.047196,0.054817,0.011716,0.371217,-0.045451,0.978461,1.321808,0.402703,-0.067166,0.133547,-0.309594,0.36025,0.890075,-0.737573,0.313624,-0.086459
1.007132,-0.112691,0.766612,-0.10941,-0.010092,0.944343,0.31007,-0.759527,0.335993,0.241205,0.671595,-0.219482,0.048376,0.195041,-0.190654,-1.344347,0.228794,-0.172561,0.247487,0.095724,0.045484,0.05671,0.092363,0.317287,-0.000645,0.985889,1.276829,0.406633,-0.017406,0.108116,-0.311572,0.340936,0.879142,-0.723991,0.310789,-0.119726
0.990954,-0.114555,0.762798,-0.112221,-0.009833,0.947451,0.299409,-0.757335,0.311211,0.228062,0.698805,-0.251927,-0.00451,0.203897,-0.218164,-1.349469,0.25351,-0.148984,0.247683,0.102332,0.043965,0.057675,0.169076,0.240413,0.036198,1.003346,1.235289,0.419742,0.003978,0.080228,-0.313598,0.312447,0.880599,-0.70331,0.306166,-0.1474
0.972211,-0.116369,0.763909,-0.112791,-0.007588,0.950419,0.289698,-0.749858,0.280169,0.22683,0.726226,-0.289617,-0.013938,0.213395,-0.267928,-1.347727,0.303669,-0.103341,0.247694,0.108583,0.042177,0.057224,0.242225,0.155959,0.055615,1.043453,1.206619,0.424639,-0.008429,0.067098,-0.316176,0.280993,0.882705,-0.683637,0.304247,-0.164188
0.951718,-0.118163,0.765354,-0.110612,-0.003346,0.954079,0.278363,-0.729614,0.243393,0.236011,0.745555,-0.322794,-0.012739,0.22982,-0.341194,-1.345817,0.37853,-0.026352,0.247585,0.113927,0.039138,0.055156,0.295,0.075161,0.045633,1.106238,1.20375,0.4206,-0.058339,0.05188,-0.32347,0.265054,0.891858,-0.667006,0.307987,-0.161707
0.929907,-0.119138,0.764503,-0.106835,0.001891,0.958519,0.264242,-0.696653,0.20193,0.246789,0.749041,-0.347251,-0.027164,0.248811,-0.435604,-1.297139,0.485212,0.064327,0.245747,0.114291,0.033138,0.051636,0.330031,0.008376,0.018389,1.172875,1.218687,0.404676,-0.117287,0.045341,-0.330978,0.263671,0.892264,-0.662606,0.309775,-0.147747
0.908854,-0.119154,0.762609,-0.102227,0.006866,0.963374,0.247815,-0.653733,0.156933,0.251624,0.736427,-0.367961,-0.034076,0.246508,-0.534543,-1.159669,0.609326,0.122112,0.201848,0.105828,0.02226,0.049033,0.353942,-0.0398,0.003747,1.217646,1.225988,0.383158,-0.154008,0.041951,-0.329648,0.267745,0.882264,-0.665169,0.307309,-0.135658
0.888392,-0.118202,0.761852,-0.095943,0.01177,0.96869,0.228682,-0.605911,0.105656,0.244151,0.713895,-0.380952,-0.020201,0.158901,-0.585561,-0.963458,0.729436,0.095588,-0.034632,0.087741,0.009382,0.051782,0.374587,-0.067234,0.02062,1.232759,1.20954,0.361278,-0.154537,0.041258,-0.320216,0.264673,0.863225,-0.666714,0.305069,-0.13538
0.868536,-0.116339,0.761273,-0.089247,0.01823,0.974279,0.206115,-0.559035,0.045444,0.222513,0.684814,-0.381145,0.018954,0.014729,-0.561794,-0.709163,0.840372,-0.03103,-0.039562,0.062993,-0.001264,0.057594,0.379142,-0.083388,0.05374,1.222179,1.182478,0.352702,-0.138109,0.046179,-0.309875,0.25001,0.83944,-0.665464,0.305621,-0.146568
0.84822,-0.11368,0.759211,-0.083813,0.023826,0.978439,0.187258,-0.508141,-0.010126,0.196871,0.649849,-0.374825,0.072519,-0.112649,-0.517435,-0.527817,0.939239,-0.119569,-0.035119,0.045883,-0.009735,0.060933,0.362282,-0.086061,0.073457,1.196449,1.171168,0.356779,-0.116357,0.057002,-0.297939,0.230926,0.816919,-0.663949,0.306479,-0.162241
0.82699,-0.110388,0.759807,-0.078602,0.028475,0.981501,0.172241,-0.456328,-0.055914,0.173264,0.617266,-0.378034,0.124529,-0.218128,-0.483509,-0.428502,1.019253,-0.179318,-0.03411,0.034226,-0.017849,0.061791,0.333633,-0.068671,0.068732,1.167021,1.185256,0.355544,-0.088527,0.067643,-0.286075,0.219094,0.803047,-0.666633,0.307451,-0.173015
0.804562,-0.106213,0.760274,-0.072759,0.032685,0.983914,0.159848,-0.40161,-0.090537,0.154575,0.591898,-0.390292,0.144319,-0.317942,-0.450159,-0.36231,1.075176,-0.235134,-0.047384,0.021699,-0.026159,0.061789,0.295964,-0.038308,0.053868,1.132391,1.209702,0.349721,-0.05973,0.070108,-0.276056,0.221196,0.80792,-0.676906,0.311127,-0.170858
0.780625,-0.101404,0.759914,-0.066395,0.036661,0.985905,0.149126,-0.343753,-0.11731,0.139115,0.572588,-0.41192,0.146641,-0.414631,-0.414353,-0.316394,1.102232,-0.277232,-0.071116,0.00721,-0.034711,0.061573,0.250487,-0.001893,0.049072,1.091014,1.224399,0.345584,-0.033698,0.060806,-0.267716,0.235834,0.834072,-0.69434,0.320891,-0.148473
0.754941,-0.09643,0.758759,-0.060099,0.03961,0.987853,0.137716,-0.280718,-0.140185,0.120673,0.551694,-0.43816,0.140408,-0.507899,-0.362619,-0.270612,1.097767,-0.300027,-0.092261,-0.008009,-0.041837,0.061424,0.1936,0.036052,0.058747,1.046404,1.223289,0.34765,-0.01395,0.045224,-0.259173,0.254422,0.869747,-0.713895,0.334157,-0.107059
0.727606,-0.091551,0.756583,-0.053758,0.042453,0.9897800000000002,0.125076,-0.213398,-0.162768,0.097041,0.528889,-0.46584,0.133043,-0.594045,-0.299152,-0.224973,1.058756,-0.307171,-0.106156,-0.020854,-0.046303,0.06169,0.123074,0.071575,0.073007,1.003637,1.212632,0.354001,-0.004002,0.034983,-0.252438,0.265566,0.894765,-0.72818,0.343002,-0.060888
0.698877,-0.086975,0.753822,-0.048215,0.043792,0.991576,0.11196,-0.139972,-0.181469,0.069093,0.49623,-0.488113,0.129828,-0.657742,-0.240834,-0.196878,0.974996,-0.292973,-0.085555,-0.029552,-0.048188,0.061615,0.043174,0.106238,0.084102,0.965313,1.200627,0.355034,-0.002689,0.039648,-0.246653,0.265054,0.892889,-0.732653,0.34191,-0.028836
0.669158,-0.082717,0.750567,-0.043842,0.043294,0.993184,0.098941,-0.061477,-0.193747,0.038973,0.452565,-0.502333,0.130167,-0.698805,-0.190368,-0.187017,0.848562,-0.257987,-0.046049,-0.035572,-0.047666,0.061093,-0.044282,0.12973,0.082864,0.9245,1.193255,0.355487,-0.008327,0.057656,-0.237117,0.258507,0.867155,-0.732287,0.333683,-0.023362
0.638852,-0.078606,0.746699,-0.040911,0.041812,0.994491,0.08698,0.016627,-0.199356,0.010452,0.405727,-0.510766,0.13053,-0.716794,-0.150339,-0.195599,0.685372,-0.209723,-0.020903,-0.040468,-0.045458,0.059852,-0.122062,0.15013,0.070653,0.870375,1.187453,0.34178,-0.012065,0.081472,-0.232769,0.252372,0.828042,-0.733729,0.318905,-0.034046
0.608326,-0.074557,0.742845,-0.039086,0.038507,0.995567,0.076392,0.09086300000000001,-0.196277,-0.013744,0.36207,-0.513797,0.129038,-0.722884,-0.118276,-0.212129,0.522783,-0.139879,0.014507,-0.045959,-0.041316,0.058804,-0.184841,0.171517,0.050938,0.798868,1.180366,0.312891,-0.009075,0.103009,-0.229666,0.251783,0.791423,-0.741497,0.304798,-0.05076
0.577103,-0.070331,0.741109,-0.037239,0.033986,0.996499,0.066686,0.159297,-0.187754,-0.031259,0.33603,-0.511962,0.12501,-0.722772,-0.085978,-0.202896,0.40241,-0.097324,0.032167,-0.054089,-0.034383,0.058905,-0.229451,0.187733,0.023334,0.718396,1.170374,0.278828,0.010448,0.122627,-0.228604,0.253895,0.762419,-0.753711,0.297081,-0.062606
0.545198,-0.066074,0.737621,-0.034069,0.030648,0.997295,0.057468,0.217306,-0.178936,-0.043751,0.334856,-0.506064,0.117578,-0.726055,-0.059971,-0.178327,0.366015,-0.111565,0.009128,-0.06449,-0.025876,0.060201,-0.25594,0.200605,-0.012022,0.636526,1.159805,0.246928,0.042456,0.139789,-0.229466,0.250794,0.74569,-0.763806,0.298743,-0.06533
0.51264,-0.061609,0.734694,-0.030696,0.028783,0.9979650000000002,0.047918,0.262684,-0.170216,-0.054046,0.357378,-0.477212,0.105315,-0.723799,-0.045843,-0.154449,0.407678,-0.124867,-0.005798,-0.07532,-0.017371,0.060561,-0.266833,0.211981,-0.055608,0.561537,1.156756,0.222609,0.076321,0.156164,-0.227815,0.235855,0.740277,-0.76637,0.309308,-0.062932
0.479988,-0.056728,0.73341,-0.028697,0.025981,0.998602,0.035996,0.294573,-0.156058,-0.069601,0.39269,-0.423004,0.089224,-0.712162,-0.043534,-0.14753,0.478742,-0.124818,-0.031932,-0.085618,-0.009651,0.058242,-0.266119,0.225036,-0.105221,0.499329,1.169401,0.208302,0.098324,0.174654,-0.217227,0.208331,0.743265,-0.760645,0.325578,-0.062945
0.447359,-0.051525,0.734061,-0.028453,0.020062,0.999136,0.02268,0.302264,-0.134512,-0.091273,0.453602,-0.324553,0.057791,-0.68407,-0.04206,-0.154936,0.516979,-0.075415,-0.076211,-0.095028,-0.00249,0.053591,-0.252957,0.238366,-0.151055,0.451024,1.194827,0.204818,0.103178,0.19275,-0.195575,0.176359,0.754906,-0.751551,0.342774,-0.067552
0.415242,-0.045954,0.737554,-0.027656,0.015825,0.999431,0.011055,0.268817,-0.122421,-0.129031,0.577769,-0.180501,-0.036271,-0.646394,-0.039992,-0.165422,0.544923,-0.040362,-0.125452,-0.103089,0.00324,0.050022,-0.223891,0.243333,-0.180703,0.416196,1.218483,0.211874,0.098839,0.206936,-0.174297,0.150939,0.777757,-0.747342,0.358368,-0.069173
0.383527,-0.040629,0.746449,-0.027097,0.012614,0.99955,0.002431,0.202856,-0.129025,-0.177977,0.758089,-0.0367,-0.145611,-0.607656,-0.037379,-0.176859,0.570423,-0.06638,-0.146509,-0.109272,0.007225,0.049826,-0.181682,0.23791,-0.190198,0.396543,1.226757,0.226951,0.091475,0.211115,-0.157613,0.140901,0.810001,-0.75233,0.370135,-0.055912
0.351886,-0.035743,0.754347,-0.02646,0.010618,0.999573,-0.006425,0.099599,-0.146817,-0.207278,0.964571,0.086514,-0.234499,-0.555183,-0.039647,-0.197175,0.574516,-0.109922,-0.138686,-0.114436,0.009277,0.051876,-0.136482,0.224221,-0.187576,0.397425,1.217561,0.245959,0.079225,0.206042,-0.147633,0.145961,0.843006,-0.765221,0.376032,-0.024317
0.320809,-0.031478,0.761821,-0.02643,0.007125,0.999456,-0.018392,-0.03913,-0.130499,-0.179409,1.153069,0.140842,-0.244741,-0.491061,-0.040519,-0.224991,0.552624,-0.151029,-0.119654,-0.119471,0.011476,0.055371,-0.10069,0.210598,-0.182161,0.423316,1.20187,0.26789,0.059295,0.194583,-0.144213,0.159957,0.866957,-0.781774,0.373439,0.015002
0.289838,-0.028135,0.768484,-0.026615,0.002902,0.999294,-0.02634,-0.181832,-0.082753,-0.140982,1.283688,0.062218,-0.217588,-0.422859,-0.032435,-0.247084,0.516659,-0.181636,-0.106934,-0.11802,0.015952,0.058059,-0.072806,0.197054,-0.174057,0.475129,1.187727,0.29506,0.039211,0.178619,-0.150354,0.176245,0.878478,-0.800582,0.364705,0.045214
0.258485,-0.025708,0.77352,-0.025895,-0.0009500000000000001,0.99932,-0.026249,-0.315029,-0.029961,-0.099152,1.350435,-0.006661,-0.16349,-0.354972,-0.015989,-0.255287,0.480594,-0.208759,-0.097737,-0.10919,0.021884,0.059733,-0.044747,0.181352,-0.157144,0.549209,1.173884,0.328241,0.028231,0.159294,-0.163508,0.189436,0.879532,-0.820145,0.355385,0.055613
0.226511,-0.024052,0.775978,-0.024892,-0.006981,0.9994710000000001,-0.019753,-0.43002,0.023264,-0.059022,1.357384,-0.079585,-0.096124,-0.293412,0.008161,-0.252521,0.457554,-0.239984,-0.090553,-0.094656,0.028712,0.060787,-0.014422,0.167838,-0.128331,0.639778,1.155172,0.36449,0.022796,0.139407,-0.17432,0.194706,0.871995,-0.835132,0.347605,0.046015
0.193396,-0.022734,0.775945,-0.024011,-0.014966,0.999547,-0.010223,-0.527413,0.070326,-0.022413,1.310084,-0.151191,-0.040337,-0.234278,0.036676,-0.24323,0.444026,-0.277678,-0.082644,-0.07673,0.036494,0.061245,0.015561,0.159572,-0.092678,0.743,1.131098,0.398928,0.009926,0.121734,-0.179674,0.190031,0.855732,-0.839918,0.338508,0.024138
0.158926,-0.021566,0.773837,-0.023558,-0.024086,0.999432,-2.9e-05,-0.600316,0.103701,0.010827,1.206741,-0.195094,0.00428,-0.17441,0.066148,-0.230217,0.434821,-0.319517,-0.071274,-0.057456,0.044947,0.060907,0.042233,0.158608,-0.061586,0.855941,1.110448,0.427392,-0.021274,0.107069,-0.182795,0.18034,0.832097,-0.834591,0.324467,-0.00012
0.123296,-0.020403,0.770478,-0.022837,-0.031127,0.9992,0.010463,-0.645597,0.119637,0.041054,1.051641,-0.195182,0.028309,-0.107983,0.090904,-0.211723,0.419695,-0.360431,-0.059636,-0.038994,0.052551,0.059825,0.067584,0.158577,-0.048717,0.970841,1.104316,0.448942,-0.071859,0.092083,-0.192374,0.171936,0.808096,-0.827413,0.303539,-0.019601
0.087318,-0.019151,0.766247,-0.021881,-0.034282,0.998943,0.021402,-0.66119,0.113629,0.05834,0.858393,-0.181221,0.008297,-0.038792,0.106256,-0.18908,0.401194,-0.396076,-0.052514,-0.022913,0.057573,0.05861,0.093487,0.15973,-0.057182,1.079969,1.117435,0.453871,-0.134634,0.078382,-0.208275,0.173262,0.781061,-0.825967,0.285042,-0.034763
0.051899,-0.017876,0.761309,-0.020829,-0.035,0.998636,0.032665,-0.656662,0.093855,0.056617,0.665693,-0.144751,-0.001879,0.023175,0.111998,-0.16891,0.394598,-0.425556,-0.046792,-0.009391,0.059408,0.05826,0.122538,0.159584,-0.081796,1.1689,1.145496,0.441556,-0.194783,0.064894,-0.226176,0.180156,0.753549,-0.830367,0.272359,-0.048914
0.01769,-0.016759,0.757078,-0.020143,-0.033529,0.998306,0.04308,-0.642707,0.078143,0.060499,0.521929,-0.108806,-0.004563,0.074122,0.106485,-0.157879,0.402695,-0.440373,-0.029963,0.000979,0.058511,0.058714,0.156259,0.155464,-0.107519,1.226335,1.173605,0.418246,-0.236565,0.05625,-0.240313,0.180834,0.724833,-0.838182,0.265061,-0.065297
-0.015943,-0.016243,0.757174,-0.019293,-0.030512,0.997997,0.051954,-0.624478,0.066352,0.071714,0.462949,-0.07395,-0.026898,0.114664,0.092162,-0.152493,0.434837,-0.434748,-0.001236,0.00826,0.054947,0.059319,0.19015,0.144296,-0.116711,1.252986,1.186889,0.400491,-0.252538,0.052274,-0.248422,0.17578,0.698417,-0.840837,0.263981,-0.084215
-0.048569,-0.016407,0.754271,-0.017476,-0.024538,0.997762,0.059692,-0.604809,0.044836,0.065164,0.487323,-0.011201,-0.006525,0.132533,0.067994,-0.135349,0.501838,-0.403077,0.028314,0.013458,0.048297,0.060413,0.218879,0.126047,-0.104477,1.258427,1.18107,0.394702,-0.248738,0.056351,-0.25395,0.167672,0.67414,-0.83897,0.266495,-0.102527
-0.079907,-0.017415,0.752827,-0.014334,-0.016342,0.9976,0.065733,-0.585601,0.027895,0.080476,0.54899,-0.006866,0.045958,0.116112,0.036572,-0.112025,0.625097,-0.333586,0.03417,0.015934,0.040432,0.063189,0.23669,0.102649,-0.082243,1.253671,1.166451,0.39615,-0.237461,0.068715,-0.261066,0.160117,0.653887,-0.836596,0.271956,-0.116005
-0.110605,-0.018755,0.752427,-0.009785,-0.007924,0.997433,0.070487,-0.562368,0.010724,0.098934,0.611774,-0.068687,0.067991,0.056854,0.004717,-0.078833,0.811231,-0.206774,0.056379,0.016791,0.031693,0.068079,0.2388,0.080182,-0.066061,1.244565,1.15784,0.396724,-0.228168,0.087255,-0.266968,0.15423,0.640655,-0.834942,0.280324,-0.12169
-0.141792,-0.019543,0.754081,-0.005443,0.000263,0.997161,0.075099,-0.521752,-0.005919,0.118591,0.647254,-0.134114,0.080946,-0.032778,-0.025145,-0.042117,1.032336,-0.069708,0.108142,0.01636,0.022163,0.073016,0.224314,0.062868,-0.061794,1.229934,1.16057,0.392406,-0.222048,0.107164,-0.268864,0.150137,0.634911,-0.833017,0.290438,-0.118883
-0.172822,-0.019555,0.756363,-0.002831,0.007748,0.996732,0.080361,-0.468828,-0.020749,0.13813,0.652391,-0.187941,0.080435,-0.138762,-0.071865,-0.023402,1.230155,0.010787,0.198153,0.014274,0.011446,0.076004,0.195712,0.055063,-0.06367,1.205498,1.170061,0.383597,-0.212491,0.123438,-0.266033,0.14914,0.635512,-0.82944,0.298215,-0.111451
-0.203496,-0.018442,0.758887,-0.002405,0.017618,0.996236,0.08484,-0.413364,-0.041001,0.155796,0.639708,-0.231069,0.080217,-0.252207,-0.12117,-0.013003,1.361487,-0.01818,0.15597,0.008413,-0.001612,0.076786,0.156278,0.055347,-0.066365,1.170029,1.181774,0.3737,-0.19144,0.135026,-0.263892,0.151948,0.641496,-0.826108,0.301609,-0.105249
-0.234548,-0.016359,0.761639,-0.002435,0.024561,0.996097,0.084748,-0.352251,-0.062322,0.160903,0.6142,-0.267167,0.081061,-0.356166,-0.175086,-0.026988,1.412561,-0.076695,0.072144,-0.001068,-0.01471,0.075236,0.1064,0.066026,-0.071103,1.127511,1.197933,0.367312,-0.157192,0.145723,-0.259228,0.158802,0.654245,-0.818361,0.302723,-0.104343
-0.265929,-0.0132,0.763437,-0.002058,0.032046,0.996296,0.079772,-0.290917,-0.087842,0.155897,0.588838,-0.300202,0.081563,-0.436942,-0.230144,-0.064145,1.380887,-0.144163,-0.009644,-0.013686,-0.027162,0.072674,0.055425,0.081366,-0.078954,1.078363,1.217491,0.359498,-0.111634,0.165156,-0.25457,0.159968,0.667201,-0.809997,0.302488,-0.107664
-0.297938,-0.009396,0.764609,-0.001673,0.038534,0.996739,0.070875,-0.224871,-0.113394,0.141387,0.556306,-0.329189,0.079131,-0.490516,-0.267477,-0.117089,1.274858,-0.204554,-0.073716,-0.028211,-0.039137,0.069084,0.00385,0.09857,-0.08323,1.026195,1.234129,0.346893,-0.060954,0.190338,-0.246022,0.157417,0.672895,-0.799347,0.30636,-0.111485
-0.330466,-0.005077,0.764873,-0.001859,0.045037,0.997137,0.06072,-0.156942,-0.13699,0.122146,0.5207,-0.356718,0.075181,-0.528033,-0.281781,-0.16361,1.119203,-0.233879,-0.076217,-0.044068,-0.050225,0.064704,-0.04648,0.111501,-0.081043,0.963531,1.2378,0.332842,-0.018474,0.219058,-0.245353,0.151245,0.6691,-0.790023,0.306343,-0.11051
-0.363377,-0.000527,0.7644,-0.00314,0.050413,0.997424,0.050927,-0.086363,-0.155536,0.099991,0.47835,-0.379885,0.070675,-0.544659,-0.279301,-0.210592,0.91624,-0.225282,-0.079513,-0.059452,-0.060084,0.058473,-0.089546,0.126887,-0.07296,0.892225,1.225246,0.312601,0.012858,0.243331,-0.249737,0.148003,0.662003,-0.784872,0.304301,-0.104505
-0.396114,0.003765,0.763468,-0.005668,0.050132,0.997885,0.040991,-0.011735,-0.161463,0.072487,0.422399,-0.392106,0.066475,-0.546937,-0.243928,-0.230132,0.693273,-0.16856,-0.049739,-0.073479,-0.065472,0.051183,-0.127322,0.148587,-0.067974,0.817333,1.20559,0.291864,0.0322,0.262123,-0.251157,0.147313,0.652142,-0.78191,0.302301,-0.094783
-0.428347,0.007967,0.761283,-0.008146,0.047604,0.998371,0.030379,0.056693,-0.159041,0.045911,0.376986,-0.401064,0.063704,-0.54281,-0.184156,-0.188186,0.488545,-0.089907,-0.003657,-0.085661,-0.064999,0.044096,-0.159714,0.172009,-0.071667,0.744043,1.18897,0.276979,0.047786,0.276942,-0.253321,0.144209,0.639007,-0.77837,0.302548,-0.083838
-0.459789,0.012126,0.759213,-0.010217,0.043571,0.9988030000000001,0.019746,0.111362,-0.14876,0.026214,0.356457,-0.399261,0.060737,-0.540308,-0.117495,-0.078663,0.361658,-0.048165,0.041824,-0.096139,-0.060346,0.037952,-0.183522,0.195394,-0.075234,0.673818,1.176617,0.269126,0.069598,0.280846,-0.256399,0.140527,0.629482,-0.774803,0.304412,-0.074835
-0.491019,0.016744,0.760575,-0.011084,0.040357,0.99902,0.014408,0.150401,-0.137106,0.018499,0.378019,-0.392999,0.054751,-0.543749,-0.068154,0.000527,0.358104,-0.022865,0.006064,-0.100681,-0.056154,0.033127,-0.192744,0.207791,-0.070027,0.61557,1.160806,0.272392,0.109378,0.278218,-0.26207,0.140508,0.623593,-0.775581,0.30766,-0.069133
-0.521724,0.021846,0.75843,-0.009184,0.038037,0.9991310000000002,0.014349,0.1613,-0.123441,0.019903,0.456173,-0.367585,0.040254,-0.542494,-0.032182,0.043437,0.436193,0.02748,-0.030458,-0.100881,-0.05324,0.031175,-0.181711,0.208653,-0.051834,0.573625,1.133923,0.282506,0.158431,0.266038,-0.26696,0.144806,0.628558,-0.780785,0.314839,-0.066151
-0.55096,0.027201,0.760306,-0.005455,0.03355,0.999286,0.016496,0.132225,-0.103623,0.026572,0.597932,-0.288204,0.029147,-0.526866,-0.014183,0.036729,0.505798,-0.017406,-0.048827,-0.098673,-0.050632,0.03327,-0.154127,0.203164,-0.029724,0.553309,1.101349,0.29594,0.197913,0.244242,-0.261504,0.149735,0.645678,-0.78551,0.325963,-0.065139
-0.580002,0.032507,0.763254,-0.000619,0.028606,0.999489,0.014257,0.054213,-0.080894,0.024377,0.804253,-0.121732,-0.0159,-0.486568,-0.003457,0.020755,0.53919,-0.075251,-0.047277,-0.096763,-0.046583,0.039132,-0.120981,0.19325,-0.019483,0.560112,1.076598,0.31189,0.210073,0.220952,-0.246845,0.148315,0.665975,-0.785082,0.33763,-0.064938
-0.60975,0.03726,0.770146,0.003199,0.023245,0.9997,0.006972,-0.049919,-0.069814,-0.000742,1.029499,0.040663,-0.056928,-0.422028,0.001178,-0.002254,0.529566,-0.121744,-0.040594,-0.093189,-0.039971,0.045458,-0.091608,0.183645,-0.030397,0.592488,1.070249,0.329187,0.184539,0.201663,-0.228289,0.14171,0.677685,-0.778522,0.341996,-0.064311
-0.638996,0.041058,0.77511,0.004027,0.015126,0.999872,-0.003266,-0.169177,-0.057192,-0.026571,1.211787,0.113397,-0.073516,-0.355481,0.009117,-0.030745,0.499177,-0.156842,-0.04359,-0.087804,-0.029903,0.051406,-0.069169,0.181221,-0.05902,0.639205,1.082396,0.343147,0.125776,0.183656,-0.213397,0.140746,0.678687,-0.772218,0.334994,-0.064106
-0.668145,0.043842,0.77822,0.003185,0.007115,0.999912,-0.010691,-0.284506,-0.026264,-0.032385,1.319414,0.055768,-0.072641,-0.296663,0.021476,-0.052341,0.473149,-0.191415,-0.048319,-0.079632,-0.017061,0.056008,-0.04529,0.17924,-0.091808,0.690732,1.100461,0.349206,0.056984,0.160472,-0.212715,0.155387,0.677586,-0.777208,0.322004,-0.064717
-0.697652,0.045754,0.779601,0.002404,0.001101,0.999926,-0.011835,-0.383515,0.00252,-0.025913,1.343428,-0.005948,-0.052014,-0.242863,0.035863,-0.060802,0.455717,-0.228926,-0.051115,-0.068381,-0.004155,0.059264,-0.014644,0.166179,-0.117281,0.749273,1.112862,0.353066,0.005762,0.132623,-0.223967,0.183767,0.679417,-0.797802,0.312622,-0.063985
-0.727712,0.047039,0.778764,0.002525,-0.006279,0.999935,-0.009227,-0.463494,0.034159,-0.005993,1.299114,-0.060545,-0.016856,-0.194661,0.054682,-0.062918,0.454817,-0.273008,-0.051857,-0.055308,0.007755,0.062065,0.02986,0.158927,-0.126898,0.80766,1.115055,0.351816,-0.029058,0.091518,-0.230586,0.211672,0.700437,-0.819596,0.310814,-0.061444
-0.758469,0.048447,0.776324,0.002895,-0.013521,0.99989,-0.005308,-0.51948,0.06063,0.023783,1.193555,-0.129023,0.005157,-0.146871,0.073954,-0.063797,0.459109,-0.317986,-0.051088,-0.041141,0.018992,0.063668,0.079036,0.145477,-0.130972,0.873085,1.113122,0.359465,-0.052937,0.054881,-0.226804,0.21759,0.728832,-0.832354,0.307201,-0.060079
-0.789568,0.050278,0.772352,0.002303,-0.021987,0.999752,-0.002755,-0.554673,0.084429,0.066476,1.032348,-0.182788,0.021297,-0.102309,0.094738,-0.069521,0.468231,-0.361447,-0.050091,-0.026853,0.03019,0.063455,0.120247,0.134534,-0.132293,0.948327,1.114304,0.372425,-0.082421,0.024723,-0.212303,0.207621,0.74799,-0.830317,0.307311,-0.05972
-0.820388,0.052828,0.767635,-0.000257,-0.029818,0.9995480000000002,-0.003739,-0.560052,0.127292,0.173739,0.830498,-0.19767,0.032279,-0.060811,0.112994,-0.085297,0.47502,-0.395853,-0.050083,-0.01532,0.041501,0.060144,0.150398,0.12344,-0.136082,1.025725,1.122831,0.387415,-0.122668,-0.001079,-0.199327,0.196977,0.757146,-0.821012,0.308218,-0.062436
-0.850187,0.055979,0.76313,-0.003889,-0.035326,0.999321,-0.009705,-0.542307,0.173384,0.359033,0.643154,-0.140151,0.077953,-0.022016,0.12511,-0.113217,0.479341,-0.414264,-0.05166,-0.008813,0.051367,0.0544,0.174841,0.113004,-0.142442,1.096507,1.136608,0.394975,-0.166271,-0.017163,-0.197616,0.192934,0.757327,-0.817511,0.304075,-0.06686
-0.878923,0.059017,0.75992,-0.007022,-0.040146,0.998924,-0.022122,-0.490796,0.214189,0.59732,0.526745,-0.089023,0.225249,0.000417,0.134512,-0.14537,0.519712,-0.421566,-0.045236,-0.007963,0.05957,0.047729,0.194491,0.106381,-0.147401,1.15584,1.150056,0.393327,-0.207908,-0.023907,-0.203614,0.194234,0.754809,-0.820615,0.29882,-0.071843
-0.906037,0.061955,0.757636,-0.006665,-0.044845,0.9983010000000001,-0.036595,-0.427167,0.257953,0.750871,0.521026,-0.150578,0.246775,-0.015021,0.133537,-0.175431,0.640246,-0.402178,-0.016616,-0.002729,0.065142,0.043708,0.206668,0.107384,-0.147772,1.201947,1.159013,0.38625,-0.246834,-0.020228,-0.210734,0.190403,0.754418,-0.822743,0.298121,-0.078178
-0.930875,0.063478,0.754751,-0.002039,-0.042587,0.997701,-0.052679,-0.410217,0.253983,0.726477,0.570268,-0.227589,0.247688,-0.070836,0.114703,-0.17224,0.840768,-0.339969,0.105051,0.011275,0.066638,0.047253,0.202495,0.110115,-0.146546,1.233904,1.165499,0.3779,-0.281981,-0.008767,-0.222548,0.172679,0.756423,-0.818825,0.306408,-0.08466
-0.955435,0.065254,0.754554,0.003157,-0.03944,0.99647,-0.074037,-0.405709,0.240842,0.672982,0.633047,-0.279494,0.247734,-0.164373,0.127229,-0.12687,1.084043,-0.225448,0.24111,0.028296,0.066194,0.05349,0.179639,0.11938,-0.144722,1.246554,1.173229,0.372283,-0.305213,0.006956,-0.231061,0.146319,0.761905,-0.80961,0.32114,-0.089601
-0.979335,0.0677,0.752995,0.004357,-0.033275,0.9948300000000002,-0.09585,-0.401075,0.215358,0.626298,0.674233,-0.31856,0.247736,-0.273235,0.132127,-0.084933,1.291349,-0.212537,0.247326,0.049581,0.062572,0.058628,0.143025,0.131759,-0.138004,1.230199,1.180335,0.36919,-0.304032,0.018984,-0.237329,0.124849,0.772235,-0.803559,0.336924,-0.09022
-1.003229,0.071325,0.752032,0.002089,-0.025256,0.99188,-0.12463,-0.39477,0.175273,0.576493,0.691636,-0.34466,0.247685,-0.383726,0.097014,-0.000727,1.406323,-0.267311,0.244251,0.062654,0.054687,0.062201,0.102348,0.144057,-0.120013,1.178695,1.183241,0.369424,-0.267933,0.025711,-0.240237,0.118479,0.789102,-0.80525,0.347926,-0.084532
-1.027482,0.07605,0.751527,-0.000839,-0.018694,0.986188,-0.164567,-0.390889,0.128543,0.510845,0.70305,-0.362847,0.247541,-0.474974,0.014307,0.053056,1.397586,-0.316454,0.176284,0.065504,0.043197,0.064965,0.064585,0.152899,-0.093152,1.093957,1.182183,0.368639,-0.196179,0.036309,-0.236776,0.121007,0.808106,-0.813183,0.35022,-0.073251
-1.0521,0.081513,0.750988,-0.003794,-0.015037,0.975355,-0.220096,-0.396003,0.078755,0.42012,0.722903,-0.375919,0.243455,-0.527744,-0.070432,0.072031,1.274675,-0.350113,0.068275,0.057718,0.030318,0.067032,0.020666,0.151156,-0.07413,0.990899,1.179262,0.356198,-0.109077,0.053098,-0.230877,0.12503,0.821056,-0.811689,0.347976,-0.059142
-1.077213,0.087251,0.75048,-0.007275,-0.014463,0.957236,-0.288856,-0.409894,0.030998,0.305023,0.753953,-0.383614,0.215517,-0.535429,-0.107443,0.120744,1.072017,-0.351281,0.057974,0.04318,0.019449,0.067382,-0.025424,0.145062,-0.080744,0.885772,1.176544,0.313147,-0.035728,0.085081,-0.222053,0.117259,0.813237,-0.798044,0.345102,-0.049746
-1.101902,0.091887,0.749425,-0.009767,-0.019387,0.931039,-0.364273,-0.430842,-0.015187,0.172591,0.795609,-0.393381,0.180606,-0.503106,-0.110245,0.219629,0.83505,-0.300541,0.08946,0.027338,0.013889,0.065264,-0.07534,0.145921,-0.120217,0.777584,1.177151,0.25155,-0.011308,0.129586,-0.211222,0.09625,0.789638,-0.775403,0.337406,-0.049352
-1.125776,0.09564,0.746366,-0.009526,-0.028181,0.897947,-0.439097,-0.459949,-0.057593,0.033806,0.860113,-0.421249,0.143359,-0.440091,-0.095087,0.375932,0.638137,-0.220399,0.213659,0.01387,0.014205,0.061738,-0.120629,0.157165,-0.168636,0.662425,1.173181,0.188065,-0.021886,0.177199,-0.201264,0.077746,0.763151,-0.754783,0.327714,-0.052843
-1.148441,0.099162,0.741317,-0.005042,-0.039511,0.862643,-0.504242,-0.498095,-0.087155,-0.094031,0.950295,-0.458999,0.10224,-0.345379,-0.040369,0.506838,0.570349,-0.247262,0.246263,0.009593,0.019122,0.058981,-0.149912,0.169353,-0.19299,0.540577,1.146189,0.139029,-0.025859,0.213103,-0.199158,0.078264,0.751835,-0.746152,0.319892,-0.049007
-1.168589,0.102468,0.73511,0.00543,-0.051216,0.829595,-0.555985,-0.534467,-0.099043,-0.197766,1.04218,-0.489199,0.059359,-0.282386,-0.034333,0.436167,0.560524,-0.345156,0.247654,0.015699,0.026659,0.061385,-0.154511,0.171635,-0.183117,0.4248,1.084619,0.114815,0.00871,0.222519,-0.206683,0.102371,0.770627,-0.755476,0.322367,-0.031923
-1.185262,0.104467,0.730458,0.018737,-0.064255,0.795991,-0.601596,-0.56498,-0.094084,-0.276453,1.107249,-0.498564,-0.004157,-0.227059,-0.041742,0.296704,0.532372,-0.409977,0.247723,0.017747,0.038183,0.06418,-0.135602,0.16607,-0.157557,0.337176,1.004596,0.114056,0.086549,0.203103,-0.219409,0.138546,0.820366,-0.78196,0.341075,-0.004209
-1.19798,0.104956,0.732573,0.030038,-0.074687,0.760983,-0.643758,-0.588332,-0.079988,-0.323346,1.136426,-0.49545,-0.111146,-0.168515,-0.048574,0.167674,0.489353,-0.419261,0.247727,0.012265,0.051336,0.06382,-0.103075,0.163067,-0.140833,0.300204,0.952062,0.136314,0.179444,0.170754,-0.234574,0.165351,0.881963,-0.816052,0.373287,0.022273
-1.206733,0.104761,0.737186,0.03656,-0.0795,0.725911,-0.6822,-0.610776,-0.056872,-0.326673,1.131754,-0.499241,-0.221415,-0.116944,-0.059595,0.05803,0.451237,-0.404016,0.247726,0.004029,0.062101,0.060828,-0.069522,0.168032,-0.141547,0.322663,0.959659,0.187329,0.2368,0.146396,-0.252555,0.163978,0.925526,-0.841355,0.406952,0.029724
-1.212201,0.104511,0.740105,0.037459,-0.079421,0.692773,-0.715789,-0.624435,-0.042763,-0.310152,1.111772,-0.487186,-0.246143,-0.079775,-0.080923,-0.038995,0.430836,-0.388089,0.247723,-0.001676,0.067608,0.056904,-0.042665,0.175643,-0.150945,0.390501,1.012822,0.256042,0.230997,0.140375,-0.273891,0.130227,0.930293,-0.845138,0.424629,0.008114
-1.215198,0.104317,0.74247,0.034364,-0.077509,0.662755,-0.744021,-0.644449,-0.005285,-0.286772,1.087996,-0.459348,-0.239917,-0.054727,-0.109872,-0.132962,0.424317,-0.373611,0.247721,-0.002988,0.067763,0.053801,-0.0223,0.179257,-0.148535,0.476426,1.064754,0.31692,0.18714,0.1498,-0.297357,0.080217,0.900262,-0.827252,0.413206,-0.034103
-1.216094,0.104013,0.743905,0.030519,-0.077293,0.634098,-0.768774,-0.673743,0.06135,-0.241425,1.065768,-0.429999,-0.205441,-0.034188,-0.134607,-0.217698,0.421261,-0.365215,0.247706,-0.002841,0.066014,0.051376,-0.005645,0.178861,-0.119097,0.564651,1.081864,0.362208,0.146071,0.16711,-0.322383,0.039364,0.857803,-0.801488,0.377363,-0.079483
-1.214992,0.103307,0.744327,0.027853,-0.078385,0.605815,-0.791244,-0.706768,0.147816,-0.182384,1.040458,-0.397508,-0.120302,-0.008126,-0.149015,-0.286512,0.409081,-0.362345,0.247713,-0.001193,0.064114,0.049304,0.007477,0.178361,-0.067535,0.658446,1.068351,0.401808,0.121656,0.187095,-0.348314,0.0208,0.820926,-0.78502,0.338861,-0.117568
-1.211665,0.102095,0.743758,0.027121,-0.079414,0.577335,-0.812183,-0.734365,0.230465,-0.128195,1.008097,-0.374988,-0.036657,0.027407,-0.155072,-0.347487,0.386694,-0.360168,0.247725,0.003004,0.062336,0.047728,0.01613,0.183398,-0.012301,0.762503,1.049694,0.444691,0.104231,0.207055,-0.370738,0.018171,0.795378,-0.782961,0.315946,-0.144705
-1.205901,0.100604,0.741992,0.02858,-0.080638,0.548393,-0.831833,-0.756517,0.31231,-0.064514,0.97421,-0.360438,0.02968,0.067229,-0.154051,-0.40349,0.362959,-0.357602,0.247728,0.009196,0.061677,0.046862,0.021533,0.199297,0.035866,0.875569,1.047328,0.478592,0.082898,0.224357,-0.382662,0.015839,0.780556,-0.785088,0.311531,-0.159204
-1.197832,0.099162,0.738978,0.030383,-0.082808,0.520597,-0.849234,-0.778121,0.391415,0.012694,0.953161,-0.333323,0.066371,0.10375,-0.149214,-0.451447,0.341095,-0.352822,0.247732,0.017777,0.062489,0.046137,0.027178,0.226825,0.081076,0.993097,1.069624,0.485161,0.056116,0.235745,-0.380551,0.003624,0.774372,-0.77958,0.318708,-0.163247
-1.187305,0.097918,0.733217,0.032715,-0.087193,0.494999,-0.863888,-0.793659,0.456917,0.09172400000000001,0.954998,-0.316052,0.068792,0.131382,-0.143056,-0.489032,0.329866,-0.346168,0.247723,0.028823,0.065439,0.04445,0.036291,0.251966,0.109507,1.087993,1.104841,0.485516,0.023864,0.238491,-0.36815,-0.014555,0.777065,-0.766921,0.330074,-0.158527
-1.174136,0.096544,0.728598,0.03561,-0.092997,0.47146,-0.876247,-0.804616,0.492837,0.153769,0.982333,-0.319675,0.066034,0.15029,-0.140497,-0.521817,0.333105,-0.328125,0.247707,0.042109,0.070287,0.041734,0.054121,0.264119,0.122458,1.1477,1.138327,0.485316,-0.00527,0.235483,-0.351447,-0.027589,0.787003,-0.756016,0.340325,-0.147609
-1.158082,0.095145,0.72797,0.036357,-0.098127,0.449043,-0.887361,-0.816651,0.479007,0.173307,1.013154,-0.351158,0.043918,0.166733,-0.150797,-0.556344,0.34683,-0.292327,0.247701,0.056732,0.074276,0.03877,0.081892,0.25935,0.130621,1.177103,1.159898,0.484572,-0.021223,0.2325,-0.337673,-0.032303,0.800517,-0.750543,0.34013,-0.134787
-1.140215,0.094663,0.727908,0.033837,-0.102249,0.427063,-0.897785,-0.819611,0.434166,0.174838,1.030111,-0.384052,0.02862,0.177661,-0.180369,-0.603471,0.368604,-0.22877,0.247659,0.07011,0.075991,0.035756,0.108489,0.234436,0.145723,1.195345,1.169409,0.484398,-0.020571,0.230796,-0.319871,-0.025945,0.810059,-0.748321,0.332181,-0.126379
-1.120683,0.094428,0.727614,0.029575,-0.105378,0.404948,-0.907765,-0.808947,0.381105,0.180777,1.032508,-0.417566,0.014363,0.181062,-0.236928,-0.646982,0.421068,-0.147728,0.247437,0.076659,0.07364,0.03286,0.132467,0.198861,0.171195,1.211155,1.166463,0.484553,-0.007714,0.22848,-0.301788,-0.00659,0.814457,-0.747725,0.315923,-0.11195
-1.100375,0.093936,0.726728,0.022143,-0.106531,0.382302,-0.917609,-0.783974,0.32089,0.192734,1.017701,-0.446111,0.003928,0.169295,-0.317779,-0.647124,0.515321,-0.061167,0.242288,0.070676,0.063453,0.03116,0.147032,0.151954,0.202955,1.216386,1.151621,0.484422,0.01209,0.219164,-0.284434,0.026194,0.813471,-0.754117,0.297966,-0.083047
-1.081034,0.09208,0.729074,0.011864,-0.104924,0.359927,-0.926986,-0.743412,0.254741,0.20691,0.983773,-0.4639,0.001474,0.132631,-0.417095,-0.613168,0.658011,-0.030973,0.127615,0.053973,0.045401,0.032051,0.153656,0.105109,0.23839,1.216809,1.130283,0.484343,0.032354,0.203013,-0.267308,0.061203,0.801738,-0.764884,0.283093,-0.048516
-1.061969,0.089353,0.732342,-0.001516,-0.100204,0.337522,-0.935968,-0.694838,0.181648,0.217464,0.938723,-0.471274,0.005853,0.037848,-0.464931,-0.546704,0.818774,-0.085509,-0.071844,0.031528,0.023758,0.036985,0.148006,0.062855,0.264583,1.214072,1.112467,0.482101,0.04627,0.186251,-0.25288,0.083152,0.774532,-0.770318,0.273266,-0.028387
-1.042663,0.085462,0.736089,-0.014989,-0.093845,0.31226,-0.945231,-0.642209,0.103584,0.214992,0.887359,-0.472141,0.018402,-0.094753,-0.448075,-0.410739,0.975165,-0.168344,-0.072373,0.006309,0.004196,0.043432,0.126667,0.031497,0.263794,1.207252,1.111932,0.472575,0.048539,0.175623,-0.239676,0.092156,0.736164,-0.768608,0.267007,-0.033044
-1.021962,0.080411,0.740579,-0.023174,-0.087864,0.286702,-0.953701,-0.582239,0.033482,0.197749,0.830632,-0.469348,0.039318,-0.222028,-0.398415,-0.294037,1.100519,-0.2179,-0.072436,-0.012638,-0.010705,0.047876,0.091227,0.020889,0.231044,1.192797,1.137153,0.439836,0.042279,0.173588,-0.222942,0.100427,0.698457,-0.769027,0.261201,-0.056632
-0.999997,0.074159,0.744995,-0.029851,-0.082241,0.262874,-0.960855,-0.518484,-0.02847,0.173105,0.773466,-0.464817,0.061259,-0.330365,-0.355338,-0.229107,1.178292,-0.25801,-0.067617,-0.024609,-0.021744,0.050003,0.04873,0.023622,0.178413,1.166298,1.178383,0.395387,0.032281,0.175476,-0.21036,0.112485,0.669819,-0.778755,0.257782,-0.082605
-0.976237,0.066965,0.749212,-0.033722,-0.077274,0.240234,-0.967047,-0.446713,-0.08061,0.141097,0.711093,-0.460065,0.082588,-0.42759,-0.322431,-0.199073,1.213286,-0.280921,-0.069117,-0.03372,-0.02973,0.050102,0.004992,0.033448,0.131533,1.118298,1.212044,0.352561,0.022019,0.176294,-0.2002,0.125032,0.653105,-0.791159,0.257981,-0.097248
-0.950981,0.059027,0.751897,-0.037972,-0.072504,0.219321,-0.972214,-0.374418,-0.125807,0.10746,0.655555,-0.459702,0.102507,-0.519166,-0.288684,-0.175483,1.212373,-0.303812,-0.06878,-0.042631,-0.035583,0.049525,-0.036103,0.042902,0.111098,1.050716,1.218927,0.315803,0.013618,0.176381,-0.197677,0.134586,0.641596,-0.798516,0.262267,-0.093843
-0.924135,0.050573,0.752813,-0.042069,-0.067619,0.199413,-0.976674,-0.301194,-0.163945,0.073026,0.608172,-0.464955,0.118747,-0.601381,-0.253627,-0.157195,1.17572,-0.317751,-0.078536,-0.051705,-0.040204,0.048826,-0.079272,0.041879,0.111882,0.971444,1.202092,0.296694,0.010003,0.171541,-0.197397,0.143688,0.635719,-0.800502,0.272769,-0.078233
-0.895724,0.041797,0.752321,-0.044973,-0.062363,0.17964,-0.980723,-0.223676,-0.194057,0.036582,0.563713,-0.471983,0.131934,-0.668775,-0.22106,-0.147948,1.103792,-0.314518,-0.079252,-0.060679,-0.043848,0.048526,-0.123888,0.036532,0.112855,0.891441,1.17823,0.289199,0.017612,0.173021,-0.204986,0.149725,0.628252,-0.797724,0.280187,-0.059845
-0.865987,0.032917,0.750725,-0.046167,-0.057007,0.160354,-0.98433,-0.138698,-0.214584,-0.001338,0.51383,-0.478214,0.142445,-0.715336,-0.195186,-0.152135,0.994698,-0.283438,-0.069068,-0.069309,-0.04659,0.048629,-0.16511,0.037762,0.099295,0.819257,1.165036,0.28112,0.03664,0.176331,-0.214321,0.153028,0.621737,-0.794679,0.287095,-0.047098
-0.835427,0.024135,0.747889,-0.045516,-0.052015,0.142958,-0.987312,-0.049756,-0.224419,-0.038216,0.460376,-0.483465,0.148864,-0.742053,-0.159005,-0.148406,0.857788,-0.248516,-0.040069,-0.07749,-0.04771,0.049116,-0.200504,0.047737,0.069038,0.757481,1.169766,0.271025,0.059207,0.180614,-0.222357,0.153778,0.617417,-0.794322,0.294622,-0.042674
-0.804605,0.015613,0.744198,-0.043311,-0.04768,0.128469,-0.989619,0.034522,-0.224733,-0.069962,0.414365,-0.483722,0.150945,-0.758085,-0.11058,-0.12205,0.723306,-0.210107,-0.01041,-0.085092,-0.046288,0.049926,-0.224832,0.066695,0.031815,0.700543,1.18646,0.257544,0.075858,0.179981,-0.227608,0.150449,0.621616,-0.795583,0.301806,-0.044706
-0.774003,0.00734,0.740973,-0.041077,-0.044663,0.117091,-0.991266,0.105262,-0.220123,-0.093767,0.386012,-0.473309,0.149983,-0.756401,-0.070552,-0.100286,0.605894,-0.189341,0.03987,-0.090858,-0.043132,0.049768,-0.238464,0.084541,-0.005444,0.649111,1.203401,0.244338,0.087555,0.18188,-0.230246,0.140075,0.627607,-0.795112,0.308497,-0.049774
-0.743202,-0.00092,0.742935,-0.038141,-0.042974,0.106508,-0.99265,0.163156,-0.212114,-0.110687,0.382136,-0.445745,0.147167,-0.743266,-0.040713,-0.086987,0.535312,-0.167745,0.049419,-0.095319,-0.038341,0.0487,-0.239365,0.100235,-0.037797,0.603064,1.20935,0.229007,0.094445,0.186637,-0.227672,0.121775,0.63635,-0.789827,0.314713,-0.0559
-0.713111,-0.009,0.743671,-0.033607,-0.042179,0.095077,-0.994008,0.198344,-0.198646,-0.125596,0.403596,-0.397546,0.142491,-0.722586,-0.014204,-0.066832,0.526479,-0.121693,0.029104,-0.098978,-0.031773,0.047246,-0.227376,0.114961,-0.064959,0.565014,1.200828,0.212388,0.096255,0.194682,-0.218605,0.100508,0.650694,-0.781526,0.319965,-0.063313
-0.683035,-0.017168,0.743755,-0.028362,-0.041214,0.084079,-0.995202,0.20901,-0.184259,-0.136408,0.465606,-0.319069,0.132669,-0.690429,-0.002043,-0.065209,0.549378,-0.075437,-0.032992,-0.10092,-0.024899,0.045953,-0.201955,0.130413,-0.087403,0.538428,1.183249,0.201011,0.093379,0.203838,-0.205174,0.085671,0.676204,-0.776392,0.324512,-0.070066
-0.653441,-0.025459,0.745798,-0.0234,-0.038787,0.074012,-0.996228,0.183631,-0.174545,-0.148387,0.586874,-0.201506,0.080194,-0.651813,0.001263,-0.077935,0.578161,-0.066083,-0.085527,-0.102216,-0.018574,0.04682,-0.163947,0.145522,-0.104816,0.526823,1.166247,0.201339,0.087603,0.209171,-0.191058,0.085077,0.716899,-0.780112,0.329875,-0.069157
-0.62402,-0.033719,0.752234,-0.019458,-0.035663,0.063339,-0.997165,0.12146,-0.175218,-0.166679,0.765853,-0.062908,-0.039188,-0.607347,-0.001056,-0.097671,0.601256,-0.104846,-0.094281,-0.103778,-0.013536,0.050114,-0.120141,0.156885,-0.116964,0.534126,1.157013,0.215462,0.078273,0.207862,-0.178302,0.099093,0.767992,-0.792697,0.336648,-0.05196
-0.594244,-0.041817,0.758287,-0.017355,-0.032473,0.050071,-0.998067,0.026744,-0.187362,-0.1852,0.965561,0.080896,-0.182144,-0.547735,-0.009227,-0.122843,0.60245,-0.15898,-0.07909,-0.106022,-0.010216,0.053365,-0.079571,0.160044,-0.123506,0.562814,1.154988,0.241358,0.063889,0.201814,-0.168218,0.120206,0.81546,-0.808159,0.341787,-0.017614
-0.564861,-0.049323,0.764468,-0.013489,-0.030972,0.033464,-0.998869,-0.098165,-0.17996,-0.171371,1.148368,0.145692,-0.218722,-0.480318,-0.015393,-0.157122,0.579178,-0.197095,-0.071143,-0.109434,-0.007037,0.056488,-0.050171,0.159447,-0.122736,0.610194,1.155006,0.275144,0.045478,0.193203,-0.159585,0.138791,0.846632,-0.819851,0.341344,0.020249
-0.535575,-0.055872,0.769819,-0.007862,-0.030606,0.019725,-0.999306,-0.227835,-0.127062,-0.132866,1.274914,0.060778,-0.194477,-0.41117,-0.011456,-0.188747,0.542561,-0.224915,-0.065234,-0.109689,-0.001864,0.05851,-0.026969,0.156191,-0.112618,0.672172,1.149362,0.311354,0.028357,0.182531,-0.155416,0.150108,0.860423,-0.828176,0.337602,0.043384
-0.50579,-0.061383,0.773345,-0.002304,-0.029318,0.013921,-0.9994710000000001,-0.350592,-0.064972,-0.089585,1.3362,-0.020028,-0.171601,-0.344856,0.00171,-0.206622,0.512052,-0.25341,-0.060458,-0.104293,0.005272,0.060019,-0.000658,0.151355,-0.093709,0.745451,1.135526,0.343712,0.013751,0.169009,-0.157061,0.155337,0.863898,-0.836878,0.334219,0.044057
-0.475334,-0.066033,0.774687,0.00413,-0.027576,0.015262,-0.999495,-0.455061,-0.001486,-0.042866,1.335555,-0.091869,-0.122298,-0.282597,0.022407,-0.212094,0.490743,-0.285046,-0.055926,-0.093692,0.013324,0.060862,0.030915,0.150712,-0.072267,0.826447,1.120006,0.368757,-0.005206,0.152964,-0.158396,0.156666,0.86173,-0.845078,0.330948,0.029161
-0.444052,-0.070071,0.773957,0.012781,-0.026472,0.020234,-0.999363,-0.539607,0.045243,-0.005689,1.277243,-0.171086,-0.067075,-0.223467,0.04897,-0.211519,0.475554,-0.319185,-0.051342,-0.079343,0.022252,0.0606,0.064444,0.158551,-0.057275,0.910319,1.112301,0.386105,-0.034531,0.136732,-0.155841,0.154108,0.852912,-0.847513,0.323571,0.010981
-0.411768,-0.073843,0.772163,0.020426,-0.026256,0.02679,-0.999087,-0.605595,0.075764,0.029961,1.167162,-0.199355,-0.018521,-0.159852,0.074481,-0.206781,0.451815,-0.350215,-0.045491,-0.062938,0.031385,0.05831,0.098965,0.165254,-0.055442,0.988427,1.11652,0.400488,-0.071611,0.120794,-0.155898,0.147012,0.838974,-0.843854,0.306391,-0.004373
-0.378748,-0.077149,0.769375,0.026689,-0.027318,0.034327,-0.998681,-0.644228,0.091615,0.060944,1.010286,-0.213202,-0.005884,-0.096085,0.095647,-0.197748,0.425936,-0.378283,-0.036756,-0.046173,0.039656,0.053732,0.134088,0.172592,-0.058661,1.054787,1.127581,0.408051,-0.11018,0.106707,-0.1612,0.143745,0.814491,-0.839278,0.286595,-0.01621
-0.345622,-0.080073,0.766154,0.029201,-0.029144,0.043801,-0.998188,-0.658773,0.088111,0.08319,0.831869,-0.214293,0.012528,-0.036049,0.107271,-0.181747,0.404007,-0.399687,-0.026814,-0.030074,0.045823,0.048059,0.173025,0.173981,-0.057056,1.102502,1.135021,0.40972,-0.140214,0.092765,-0.173735,0.143323,0.78521,-0.842641,0.267448,-0.029891
-0.313153,-0.082652,0.763329,0.028893,-0.03076,0.054645,-0.997614,-0.657072,0.075903,0.09856,0.672949,-0.187141,0.000342,0.013124,0.108867,-0.162793,0.400634,-0.413853,-0.017247,-0.015691,0.049054,0.043335,0.21264,0.163145,-0.044885,1.131051,1.133304,0.413306,-0.156934,0.077218,-0.187959,0.145742,0.759025,-0.849967,0.255535,-0.049618
-0.281378,-0.085135,0.764743,0.026772,-0.031193,0.064571,-0.997066,-0.640815,0.058134,0.110184,0.566153,-0.163795,-0.006755,0.052372,0.104216,-0.142765,0.420896,-0.406128,-0.007566,-0.003898,0.049275,0.04047,0.245595,0.141772,-0.023735,1.146469,1.123174,0.420017,-0.164602,0.061359,-0.200235,0.148016,0.740641,-0.850808,0.253302,-0.071106
-0.250616,-0.087402,0.763541,0.023181,-0.029479,0.071296,-0.99675,-0.616589,0.03918,0.117171,0.532718,-0.125211,0.006916,0.082442,0.093901,-0.121951,0.457569,-0.383709,0.005549,0.004735,0.046226,0.039277,0.269974,0.118836,-0.000521,1.15625,1.110273,0.424329,-0.169245,0.054497,-0.209915,0.143646,0.726621,-0.844404,0.255353,-0.086195
-0.220326,-0.089368,0.758963,0.017487,-0.025936,0.074808,-0.996707,-0.5797,0.017522,0.114417,0.550598,-0.069283,0.078758,0.097686,0.075797,-0.105499,0.525195,-0.335794,0.02455,0.011153,0.040138,0.039416,0.278518,0.096345,0.014996,1.166032,1.103577,0.427072,-0.174036,0.057965,-0.21908,0.134309,0.713083,-0.83274,0.258839,-0.092314
-0.191247,-0.090448,0.760635,0.010779,-0.021303,0.07588,-0.996831,-0.542524,-0.001303,0.123109,0.57419,-0.09125200000000001,0.11186,0.075644,0.048549,-0.092919,0.651831,-0.230178,0.052925,0.014886,0.032671,0.041383,0.269283,0.076832,0.018849,1.175562,1.108512,0.427421,-0.174648,0.069279,-0.22765,0.123345,0.700883,-0.820735,0.263083,-0.093689
-0.161967,-0.091489,0.762219,0.003845,-0.016591,0.07736,-0.996858,-0.497608,-0.018878,0.134367,0.590845,-0.140494,0.114514,0.012511,0.0157,-0.080238,0.835064,-0.091358,0.090515,0.016789,0.024178,0.044953,0.246514,0.059394,0.014958,1.176635,1.121373,0.426586,-0.164476,0.083957,-0.232395,0.114304,0.693104,-0.81225,0.26919,-0.091901
-0.132599,-0.092786,0.763524,-0.003896,-0.012658,0.081083,-0.996619,-0.44404,-0.036421,0.148768,0.589928,-0.186537,0.12175,-0.08623,-0.016898,-0.05707,1.04769,0.044851,0.121068,0.0167,0.0146,0.049131,0.21962,0.044827,0.012913,1.160296,1.132706,0.419794,-0.139384,0.099174,-0.232912,0.107798,0.689285,-0.811052,0.274073,-0.081497
-0.102923,-0.094542,0.765868,-0.010468,-0.010355,0.085651,-0.9962160000000002,-0.379255,-0.052386,0.162586,0.563415,-0.225646,0.119797,-0.200504,-0.05198,-0.03641,1.230112,0.148645,0.137079,0.014355,0.004434,0.052149,0.186523,0.036178,0.015562,1.126547,1.138363,0.407546,-0.103694,0.1099,-0.23097,0.110183,0.687672,-0.811586,0.277204,-0.061055
-0.073374,-0.097152,0.767515,-0.020115,-0.009865,0.089594,-0.995726,-0.318431,-0.073984,0.175711,0.534311,-0.259379,0.116296,-0.313082,-0.113449,-0.034361,1.343899,0.11413,0.123077,0.008632,-0.006998,0.053925,0.147804,0.032141,0.016181,1.083354,1.141976,0.388995,-0.063233,0.118388,-0.23535,0.119144,0.685696,-0.814649,0.278155,-0.037374
-0.043312,-0.100579,0.768264,-0.029098,-0.009593,0.088655,-0.995591,-0.257185,-0.098607,0.178061,0.504142,-0.289832,0.112051,-0.410025,-0.179508,-0.050524,1.380309,0.009461,0.058444,-0.00153,-0.019415,0.054045,0.099682,0.035892,0.006248,1.041181,1.152528,0.370983,-0.025737,0.129371,-0.241782,0.130531,0.684859,-0.813689,0.279427,-0.020534
-0.012511,-0.104735,0.76777,-0.037173,-0.008672,0.083213,-0.995801,-0.195126,-0.124207,0.168457,0.477878,-0.320854,0.106469,-0.489239,-0.228678,-0.077005,1.349082,-0.069945,-0.014186,-0.014924,-0.031361,0.05329,0.047793,0.047411,-0.014631,1.002714,1.170545,0.352425,0.002784,0.147939,-0.245198,0.134756,0.685732,-0.811233,0.282147,-0.014188
0.018974,-0.109349,0.765955,-0.044809,-0.007894,0.076026,-0.996067,-0.133739,-0.148524,0.152564,0.455964,-0.353568,0.100297,-0.546717,-0.254731,-0.111231,1.256122,-0.1678,-0.049557,-0.029027,-0.042087,0.051563,-0.007751,0.062699,-0.036605,0.97057,1.189482,0.330722,0.020448,0.169787,-0.243976,0.134122,0.685876,-0.807762,0.291291,-0.013796
0.051076,-0.114119,0.763301,-0.050601,-0.007881,0.068563,-0.9963320000000001,-0.070019,-0.167126,0.136202,0.431324,-0.385537,0.093831,-0.58429,-0.262529,-0.148049,1.109647,-0.220884,-0.067533,-0.04334,-0.05071,0.048635,-0.063637,0.078093,-0.055471,0.933772,1.200699,0.311186,0.02467,0.193343,-0.244592,0.129329,0.684937,-0.804629,0.298117,-0.012794
0.083286,-0.118847,0.760194,-0.052725,-0.008784,0.062311,-0.996624,-0.003385,-0.176381,0.119355,0.399732,-0.412509,0.08623,-0.604161,-0.241262,-0.173639,0.927034,-0.223821,-0.075836,-0.057143,-0.055941,0.045114,-0.110586,0.099142,-0.066534,0.88897,1.199862,0.289281,0.024673,0.211001,-0.244002,0.126481,0.688311,-0.80387,0.303036,-0.010823
0.114906,-0.123503,0.756715,-0.051843,-0.010118,0.05878,-0.996873,0.059193,-0.176405,0.106565,0.372142,-0.426806,0.076476,-0.604987,-0.198668,-0.185005,0.733688,-0.203179,-0.056034,-0.068796,-0.057172,0.041917,-0.144332,0.126768,-0.071518,0.834568,1.190359,0.265751,0.025282,0.218601,-0.241145,0.126784,0.700526,-0.805174,0.30758,-0.008287
0.145422,-0.128151,0.753581,-0.047495,-0.01123,0.057359,-0.99716,0.112287,-0.166707,0.097761,0.360049,-0.43569,0.064391,-0.602849,-0.13686,-0.155548,0.594611,-0.154155,-0.036051,-0.078497,-0.053827,0.040316,-0.165145,0.155178,-0.07658,0.774358,1.180964,0.248921,0.03059,0.222955,-0.235394,0.128377,0.714924,-0.807319,0.311847,-0.003733
0.17548,-0.133065,0.753786,-0.041448,-0.011467,0.05777,-0.997403,0.15045,-0.151124,0.094842,0.384058,-0.428247,0.049636,-0.599808,-0.067122,-0.085468,0.56223,-0.09391,-0.083218,-0.085974,-0.047551,0.040315,-0.169435,0.182618,-0.080282,0.709037,1.175119,0.240301,0.042338,0.223348,-0.22786,0.131135,0.730469,-0.809596,0.316359,0.00392
0.204146,-0.13844,0.753644,-0.036066,-0.010412,0.061055,-0.997428,0.160651,-0.131759,0.097646,0.456425,-0.393969,0.033889,-0.580023,-0.029332,-0.052927,0.601505,-0.086169,-0.118197,-0.0884,-0.042272,0.041133,-0.155691,0.203539,-0.07533,0.643637,1.168692,0.24097,0.066653,0.220524,-0.2195,0.135455,0.748178,-0.812624,0.321367,0.012341
0.232474,-0.143908,0.756192,-0.0314,-0.007901,0.06315,-0.997479,0.12609,-0.10789,0.10316,0.60434,-0.296627,0.011519,-0.548055,-0.014729,-0.052446,0.637248,-0.137607,-0.107331,-0.088162,-0.038546,0.044401,-0.128323,0.209607,-0.057471,0.589817,1.152552,0.250384,0.109247,0.215003,-0.209358,0.139382,0.767856,-0.816342,0.327377,0.018787
0.260584,-0.149157,0.761075,-0.026778,-0.006022,0.06148,-0.997731,0.041254,-0.088484,0.07934,0.816618,-0.143978,-0.04946,-0.499349,-0.007457,-0.06251,0.641938,-0.181757,-0.094448,-0.085717,-0.0349,0.049739,-0.096916,0.199997,-0.032534,0.560036,1.122969,0.265297,0.161159,0.207376,-0.196503,0.140378,0.785441,-0.819059,0.332782,0.023936
0.288429,-0.153919,0.765101,-0.021118,-0.006201,0.055609,-0.99821,-0.079802,-0.073952,0.044522,1.05288,-0.027664,-0.091535,-0.442799,-0.004176,-0.08348,0.622768,-0.21657,-0.085123,-0.081527,-0.028904,0.055309,-0.06858,0.18582,-0.013363,0.558512,1.088867,0.281852,0.195856,0.198017,-0.183715,0.139555,0.795634,-0.81947,0.333253,0.029138
0.316215,-0.157802,0.767931,-0.011275,-0.009423,0.047968,-0.998741,-0.210237,-0.034988,0.029285,1.241278,-0.04479,-0.113078,-0.391587,0.005995,-0.108843,0.600986,-0.248625,-0.077658,-0.07567,-0.018409,0.060373,-0.043837,0.18246,-0.0104,0.577768,1.065087,0.298132,0.189653,0.184048,-0.174744,0.143867,0.798429,-0.820581,0.326515,0.031981
0.34472,-0.16098,0.769936,-0.0032,-0.012429,0.044581,-0.998923,-0.337487,0.004526,0.023749,1.343787,-0.107248,-0.074227,-0.341017,0.019446,-0.122389,0.580852,-0.279703,-0.069983,-0.066138,-0.005251,0.064575,-0.014546,0.18447,-0.024839,0.609427,1.055811,0.310268,0.1481,0.161668,-0.180115,0.159044,0.799364,-0.829805,0.316677,0.029595
0.374025,-0.163283,0.770803,0.00423,-0.014463,0.044384,-0.998901,-0.447067,0.0345,0.021704,1.350265,-0.16833,-0.050361,-0.291029,0.034527,-0.126737,0.566608,-0.311188,-0.062381,-0.054075,0.007094,0.067943,0.020413,0.190059,-0.05123,0.65074,1.06095,0.316855,0.093387,0.132236,-0.193505,0.182637,0.804039,-0.846952,0.309107,0.022613
0.404385,-0.165113,0.770685,0.010434,-0.015161,0.045478,-0.998796,-0.531479,0.055752,0.026221,1.273498,-0.205518,-0.037131,-0.237373,0.04689,-0.128932,0.554697,-0.344123,-0.057135,-0.040628,0.017449,0.069606,0.05759,0.193978,-0.081076,0.706115,1.075403,0.321497,0.042701,0.101198,-0.20689,0.201986,0.810305,-0.862145,0.306129,0.014535
0.43566,-0.166831,0.769617,0.016992,-0.015765,0.045889,-0.998678,-0.588377,0.073099,0.039484,1.131623,-0.236293,-0.02249,-0.185277,0.057608,-0.135328,0.551539,-0.376062,-0.054355,-0.026573,0.026175,0.068653,0.091454,0.194067,-0.105018,0.777908,1.093952,0.33214,-0.000794,0.074874,-0.214386,0.204708,0.809063,-0.862425,0.304354,0.006335
0.467488,-0.168851,0.769868,0.023171,-0.017061,0.045998,-0.998527,-0.612297,0.079771,0.059205,0.935147,-0.256077,-0.019579,-0.138182,0.067389,-0.143526,0.563186,-0.403519,-0.049666,-0.013191,0.032897,0.064407,0.120584,0.183734,-0.115971,0.859006,1.108771,0.359061,-0.041325,0.054208,-0.220735,0.189595,0.795877,-0.848381,0.29546,-0.003706
0.49861,-0.171076,0.767555,0.025791,-0.017867,0.047666,-0.99837,-0.604631,0.074942,0.08283,0.731083,-0.242885,-0.060649,-0.102078,0.065592,-0.160773,0.593996,-0.421642,-0.040674,-0.002026,0.035766,0.058367,0.148378,0.164516,-0.106349,0.949903,1.110201,0.390394,-0.076204,0.046642,-0.232938,0.171998,0.762765,-0.835352,0.27943,-0.01791
0.528041,-0.173354,0.763989,0.021783,-0.015837,0.050045,-0.998384,-0.583113,0.063096,0.111894,0.604129,-0.134614,-0.003159,-0.090485,0.043871,-0.176397,0.673374,-0.408421,-0.028904,0.004715,0.033827,0.054694,0.170853,0.132476,-0.087145,1.04679,1.102779,0.419499,-0.111479,0.041926,-0.258667,0.165645,0.721641,-0.831597,0.262848,-0.034822
0.555999,-0.175532,0.755982,0.013122,-0.00929,0.049096,-0.998665,-0.555523,0.038077,0.122995,0.621571,-0.099562,0.090019,-0.125276,0.010661,-0.161137,0.846199,-0.347461,0.008941,0.006153,0.027349,0.056755,0.182378,0.099981,-0.079641,1.146386,1.102884,0.434979,-0.159913,0.042608,-0.294787,0.163194,0.680541,-0.835981,0.251989,-0.055015
0.582496,-0.177247,0.750429,0.006332,0.001224,0.04064,-0.999153,-0.533204,0.010996,0.115496,0.689268,-0.15253,0.10034,-0.197681,-0.002032,-0.097342,1.073258,-0.205992,0.097263,0.004223,0.018457,0.063095,0.178041,0.081134,-0.101702,1.233574,1.126527,0.429386,-0.225654,0.054175,-0.322633,0.149685,0.644854,-0.836561,0.251534,-0.079114
0.609423,-0.180465,0.748576,0.001779,0.010002,0.028704,-0.999536,-0.504028,-0.014646,0.097584,0.745562,-0.210713,0.09724600000000001,-0.275229,0.004426,-0.025493,1.270753,-0.131825,0.201784,0.007217,0.009711,0.069003,0.158449,0.080161,-0.14399,1.284814,1.168693,0.400048,-0.285699,0.073952,-0.331787,0.120646,0.617726,-0.826137,0.260726,-0.102887
0.635267,-0.185037,0.748403,-0.002642,0.014155,0.016351,-0.999763,-0.470704,-0.036766,0.077935,0.774793,-0.257643,0.091917,-0.350535,-0.007619,0.020965,1.377413,-0.173006,0.219766,0.015493,0.001453,0.072195,0.135001,0.096479,-0.171937,1.296764,1.202784,0.374866,-0.305057,0.093086,-0.324986,0.089834,0.60439,-0.809627,0.274227,-0.118587
0.659819,-0.191143,0.750862,-0.005887,0.014015,0.000203,-0.9998840000000001,-0.437294,-0.055886,0.050518,0.781274,-0.290053,0.083225,-0.416565,-0.04498,0.050677,1.380337,-0.214584,0.203666,0.023266,-0.006147,0.072408,0.105113,0.115356,-0.161199,1.255747,1.208462,0.368563,-0.261648,0.104137,-0.31345,0.076913,0.612493,-0.793662,0.288951,-0.119629
0.683358,-0.198334,0.757409,-0.006145,0.010569,-0.025952,-0.999588,-0.406909,-0.07636,0.004733,0.774015,-0.308855,0.074344,-0.456475,-0.092662,0.064475,1.282906,-0.237235,0.171644,0.026287,-0.0128,0.070067,0.075988,0.130407,-0.114582,1.179956,1.188079,0.377147,-0.17454,0.117105,-0.300785,0.079888,0.63772,-0.787439,0.299474,-0.104555
0.706047,-0.206171,0.762508,-0.004094,0.00442,-0.065182,-0.997855,-0.384324,-0.101236,-0.062619,0.762212,-0.319383,0.067106,-0.465328,-0.130134,0.077328,1.111969,-0.251459,0.13954,0.022922,-0.018556,0.066195,0.039216,0.135084,-0.060973,1.089766,1.155741,0.371426,-0.08619,0.13771,-0.289123,0.087421,0.666729,-0.786015,0.304443,-0.077178
0.728005,-0.213908,0.766367,0.002243,-0.00373,-0.116173,-0.993219,-0.370095,-0.126674,-0.150723,0.752954,-0.32625,0.056732,-0.439639,-0.1287,0.128841,0.890346,-0.258373,0.111522,0.014167,-0.021774,0.0606,-0.013217,0.136946,-0.030978,1.005923,1.127186,0.334318,-0.034087,0.167039,-0.269665,0.090121,0.68385,-0.781087,0.309905,-0.051179
0.749117,-0.221319,0.767588,0.010158,-0.012124,-0.174478,-0.984534,-0.368923,-0.1553,-0.25089,0.765051,-0.338156,0.042879,-0.386885,-0.122216,0.198864,0.665874,-0.255249,0.13035,0.003842,-0.021955,0.054404,-0.082572,0.136794,-0.046905,0.929448,1.117079,0.284091,-0.029963,0.206598,-0.248743,0.08166,0.687026,-0.771483,0.312375,-0.038187
0.769043,-0.228071,0.765036,0.022427,-0.017798,-0.236734,-0.971153,-0.376569,-0.183339,-0.359381,0.799446,-0.360081,0.026783,-0.329379,-0.113797,0.267644,0.517704,-0.194203,0.221303,-0.005617,-0.018876,0.050083,-0.156189,0.152078,-0.101592,0.842422,1.131684,0.228501,-0.054902,0.240409,-0.220397,0.075829,0.693078,-0.763195,0.313466,-0.040402
0.787208,-0.235493,0.760892,0.032265,-0.021365,-0.295927,-0.9544260000000001,-0.410233,-0.219671,-0.453367,0.887954,-0.38162,-1e-05,-0.278624,-0.108072,0.251524,0.495741,-0.257959,0.246589,-0.009107,-0.015422,0.051083,-0.21898,0.164657,-0.170928,0.732728,1.162894,0.18108,-0.062384,0.26793,-0.199221,0.084792,0.706419,-0.762433,0.310966,-0.045157
0.804913,-0.241961,0.754369,0.04154,-0.023614,-0.35081,-0.935227,-0.462448,-0.263796,-0.527779,1.005255,-0.358387,-0.036152,-0.242104,-0.120752,0.150164,0.505817,-0.353438,0.247343,-0.011017,-0.011766,0.057615,-0.2527,0.167444,-0.221126,0.596338,1.191913,0.149663,-0.029575,0.277529,-0.186246,0.115487,0.735136,-0.770806,0.303775,-0.035704
0.821393,-0.246175,0.752479,0.050872,-0.024679,-0.402391,-0.91372,-0.515291,-0.311771,-0.584742,1.109754,-0.280798,-0.088733,-0.197412,-0.132347,0.030405,0.496681,-0.396526,0.243094,-0.016817,-0.006964,0.066374,-0.246204,0.152499,-0.239332,0.450914,1.199901,0.136815,0.04207,0.267285,-0.179767,0.16325,0.781182,-0.789007,0.296279,-0.007294
0.837415,-0.248385,0.754836,0.056493,-0.024734,-0.450714,-0.890536,-0.566734,-0.344969,-0.596808,1.179725,-0.217735,-0.219042,-0.137129,-0.137744,-0.085111,0.459426,-0.409652,0.230305,-0.026387,-0.001173,0.074314,-0.20526,0.120328,-0.239624,0.327303,1.179561,0.135021,0.141437,0.246791,-0.181963,0.215919,0.837516,-0.81566,0.29499,0.033506
0.852056,-0.248458,0.756273,0.059031,-0.023644,-0.496878,-0.865487,-0.633566,-0.340227,-0.504472,1.223094,-0.193961,-0.24645,-0.071661,-0.139585,-0.197482,0.414503,-0.410674,0.221551,-0.039424,0.007033,0.080318,-0.148974,0.090466,-0.241078,0.25141,1.149408,0.137023,0.244425,0.224537,-0.191085,0.262329,0.890746,-0.844719,0.300488,0.075918
0.865577,-0.246762,0.75695,0.058932,-0.02483,-0.533893,-0.843131,-0.708442,-0.279449,-0.407203,1.227139,-0.213268,-0.246502,-0.021127,-0.139472,-0.290451,0.383159,-0.411753,0.216977,-0.044196,0.012814,0.08307,-0.09516,0.083922,-0.249043,0.227369,1.141084,0.147464,0.308809,0.203793,-0.202992,0.292684,0.927343,-0.867087,0.307729,0.105969
0.878062,-0.243277,0.756292,0.060394,-0.028164,-0.562189,-0.82432,-0.774806,-0.208797,-0.306956,1.207276,-0.222768,-0.220405,0.005502,-0.135978,-0.36055,0.379954,-0.421693,0.212771,-0.040772,0.01679,0.083161,-0.050961,0.104724,-0.2553,0.24011,1.164308,0.172338,0.302977,0.186823,-0.21444,0.299806,0.941055,-0.873783,0.311335,0.110699
0.889674,-0.237886,0.755047,0.061124,-0.034533,-0.5845,-0.80835,-0.82068,-0.156806,-0.222064,1.155738,-0.212203,-0.170363,0.021835,-0.135845,-0.414929,0.384894,-0.434703,0.210505,-0.032432,0.018181,0.082032,-0.014109,0.132295,-0.248098,0.275945,1.195134,0.20676,0.240212,0.1753,-0.228125,0.284011,0.933742,-0.862336,0.310197,0.088301
0.900238,-0.230133,0.753247,0.060209,-0.041119,-0.603574,-0.793966,-0.845978,-0.123811,-0.154032,1.077468,-0.198487,-0.117965,0.042903,-0.13857,-0.462052,0.38613,-0.449054,0.212493,-0.021911,0.017285,0.081045,0.017783,0.148879,-0.217835,0.334852,1.204052,0.247816,0.165271,0.170595,-0.246189,0.258723,0.914388,-0.840896,0.303831,0.051244
0.909598,-0.21983,0.751024,0.057781,-0.046592,-0.620007,-0.781077,-0.851168,-0.110313,-0.108718,0.980091,-0.194831,-0.085472,0.07457,-0.140717,-0.502637,0.376231,-0.461868,0.219307,-0.010827,0.014372,0.079862,0.043461,0.151149,-0.162633,0.423467,1.185851,0.299361,0.113703,0.169303,-0.269579,0.239321,0.892034,-0.822518,0.295084,0.015434
0.91778,-0.207237,0.749142,0.054616,-0.052073,-0.633157,-0.770336,-0.846605,-0.108549,-0.081949,0.879585,-0.19222,-0.051409,0.114011,-0.140522,-0.536393,0.351038,-0.466547,0.229833,-0.000618,0.009482,0.077991,0.062408,0.145902,-0.088896,0.540036,1.154678,0.36161,0.086684,0.164425,-0.296968,0.229654,0.871658,-0.813936,0.289534,-0.010408
0.924932,-0.192307,0.749352,0.052075,-0.057597,-0.6425,-0.762341,-0.844924,-0.111091,-0.065917,0.801393,-0.184717,-0.025833,0.156115,-0.137036,-0.560287,0.322917,-0.463644,0.240634,0.008114,0.003298,0.075819,0.079712,0.14355,-0.007632,0.670821,1.12479,0.428243,0.065238,0.152497,-0.323348,0.221461,0.854629,-0.811076,0.290677,-0.025861
0.930903,-0.175579,0.746715,0.050431,-0.062182,-0.647988,-0.757431,-0.845122,-0.114272,-0.056556,0.753803,-0.186578,-0.006914,0.189554,-0.132763,-0.571368,0.305435,-0.459934,0.246841,0.015852,-0.002707,0.074164,0.102061,0.147878,0.069842,0.804019,1.107455,0.478146,0.039637,0.139102,-0.343093,0.203733,0.834908,-0.808199,0.299567,-0.034757
0.935836,-0.157144,0.742319,0.048446,-0.065624,-0.64988,-0.755647,-0.844891,-0.115848,-0.044708,0.741036,-0.181397,0.010753,0.212607,-0.130668,-0.564147,0.309626,-0.448618,0.247673,0.022852,-0.007024,0.07387,0.144236,0.166303,0.135428,0.926545,1.110726,0.485053,0.003815,0.116714,-0.357514,0.174452,0.820672,-0.799296,0.308385,-0.04251
0.939585,-0.136777,0.734202,0.045936,-0.067848,-0.648081,-0.757151,-0.836241,-0.111405,-0.02301,0.761185,-0.156717,0.022106,0.2305,-0.136834,-0.544449,0.33503,-0.431037,0.247706,0.029185,-0.00946,0.073933,0.197412,0.172926,0.153064,1.025311,1.129376,0.483844,-0.04449,0.102204,-0.36365,0.138126,0.797146,-0.789826,0.313257,-0.056526
0.942077,-0.114343,0.729471,0.043054,-0.06865,-0.643327,-0.761291,-0.819408,-0.108185,-0.004123,0.806768,-0.157727,0.041572,0.243112,-0.154723,-0.518329,0.380931,-0.391293,0.247724,0.03475,-0.011106,0.073064,0.260513,0.167159,0.132614,1.096238,1.156819,0.46881,-0.100603,0.085453,-0.365233,0.111016,0.774034,-0.773936,0.31232,-0.074753
0.943649,-0.09034,0.729045,0.039274,-0.068146,-0.637746,-0.766221,-0.796932,-0.105521,0.014656,0.851269,-0.2029,0.04564,0.246174,-0.183907,-0.487724,0.447536,-0.312616,0.247652,0.038735,-0.012276,0.071486,0.330295,0.155687,0.106214,1.144535,1.185633,0.43095,-0.147361,0.078774,-0.362301,0.092215,0.748248,-0.757952,0.304713,-0.094481
0.944375,-0.06527,0.729775,0.033521,-0.067948,-0.633311,-0.770179,-0.759588,-0.110832,0.033258,0.875058,-0.248869,0.066926,0.226252,-0.234857,-0.450146,0.554841,-0.195059,0.246928,0.040187,-0.014468,0.070286,0.392425,0.129985,0.09109,1.173121,1.205171,0.401234,-0.176913,0.081654,-0.357016,0.079975,0.722297,-0.745715,0.296159,-0.108705
0.945436,-0.040087,0.730892,0.025739,-0.068974,-0.630892,-0.77237,-0.7063,-0.128065,0.045679,0.869056,-0.291067,0.087626,0.163505,-0.300394,-0.380582,0.719565,-0.05365,0.231871,0.037115,-0.01965,0.070461,0.437133,0.089644,0.094817,1.189372,1.208296,0.391386,-0.191516,0.089975,-0.349797,0.071885,0.697922,-0.739807,0.291448,-0.112726
0.946975,-0.014488,0.733454,0.01791,-0.070254,-0.628806,-0.774175,-0.640942,-0.147767,0.053166,0.840109,-0.324128,0.100257,0.055277,-0.348958,-0.288309,0.926592,0.054957,0.168665,0.029914,-0.027284,0.071819,0.462737,0.044301,0.117097,1.200769,1.194225,0.387542,-0.195893,0.09812,-0.339093,0.068797,0.673436,-0.739834,0.292259,-0.105026
0.949481,0.011366,0.737574,0.010594,-0.071924,-0.626092,-0.776352,-0.570845,-0.163741,0.060315,0.800054,-0.347579,0.105674,-0.081467,-0.368994,-0.183812,1.128586,0.096389,0.060362,0.018413,-0.03646,0.073907,0.462525,0.000603,0.146364,1.205544,1.172363,0.385738,-0.204776,0.102952,-0.325144,0.073007,0.650838,-0.745385,0.294335,-0.09117
0.953052,0.037369,0.742174,0.004569,-0.072952,-0.621621,-0.7799,-0.499975,-0.172337,0.068694,0.756854,-0.36705,0.106823,-0.225792,-0.33878,-0.085791,1.284797,0.029649,0.044693,0.007185,-0.044612,0.075591,0.440258,-0.03091,0.166477,1.204281,1.159123,0.382148,-0.214514,0.106338,-0.310564,0.085772,0.631706,-0.755263,0.2948,-0.0762
0.957547,0.063977,0.746671,9.6e-05,-0.0731,-0.617841,-0.782898,-0.42638,-0.177919,0.074204,0.707586,-0.38225,0.10535,-0.352746,-0.30793,-0.036449,1.371269,-0.049189,0.036069,-0.001384,-0.05065,0.07482,0.39542,-0.045292,0.159826,1.195238,1.172133,0.379761,-0.21502,0.114209,-0.296602,0.101909,0.620181,-0.766668,0.291235,-0.064534
0.962864,0.091387,0.750159,-0.003876,-0.07298,-0.61815,-0.782655,-0.352639,-0.186998,0.071376,0.657899,-0.395142,0.102977,-0.461994,-0.295557,-0.029891,1.393988,-0.109293,0.039692,-0.009796,-0.054851,0.072111,0.33538,-0.039559,0.122437,1.181591,1.216417,0.369811,-0.1954,0.130322,-0.285283,0.11378,0.612858,-0.776578,0.287417,-0.053918
0.968867,0.119731,0.752171,-0.008356,-0.074119,-0.62241,-0.779129,-0.280591,-0.201711,0.060733,0.610808,-0.407735,0.101548,-0.547261,-0.309739,-0.065601,1.354236,-0.176504,0.013504,-0.019673,-0.058863,0.068032,0.267886,-0.021218,0.06898,1.157953,1.27703,0.353375,-0.156487,0.155775,-0.27708,0.113595,0.607229,-0.785516,0.282628,-0.042549
0.9754600000000001,0.149135,0.753224,-0.012697,-0.07582,-0.628778,-0.773775,-0.206132,-0.216971,0.044768,0.561777,-0.419287,0.101234,-0.611748,-0.322539,-0.119997,1.262055,-0.236242,-0.002771,-0.031198,-0.063199,0.063585,0.193353,0.003704,0.025586,1.120124,1.326951,0.33708,-0.109262,0.181196,-0.2738,0.107954,0.604361,-0.790294,0.279597,-0.030799
0.98255,0.179469,0.754254,-0.015734,-0.076691,-0.635367,-0.768231,-0.126007,-0.226763,0.025742,0.50636,-0.427027,0.101915,-0.654815,-0.322256,-0.180511,1.124407,-0.253983,-0.030183,-0.042914,-0.067128,0.059411,0.114704,0.029946,0.008945,1.067987,1.347003,0.323688,-0.06301,0.202185,-0.275692,0.105986,0.605283,-0.792138,0.280273,-0.021831
0.990064,0.210405,0.75756,-0.017167,-0.07561,-0.64149,-0.763203,-0.041815,-0.229348,0.005031,0.453883,-0.424797,0.102688,-0.673697,-0.301607,-0.234537,0.950111,-0.239436,-0.033703,-0.053402,-0.069638,0.056346,0.038345,0.057471,0.019558,1.007042,1.335129,0.306097,-0.020961,0.218077,-0.275655,0.109243,0.61136,-0.797687,0.287237,-0.017323
0.997512,0.240865,0.757134,-0.016996,-0.071632,-0.647974,-0.758096,0.037129,-0.223275,-0.019308,0.40941,-0.422368,0.103444,-0.676002,-0.247283,-0.246836,0.769988,-0.211707,-0.032157,-0.063332,-0.069128,0.055413,-0.031837,0.084961,0.040513,0.936806,1.300803,0.284572,0.009129000000000002,0.229843,-0.276951,0.111556,0.626339,-0.803446,0.293926,-0.013976
1.004684,0.270607,0.755279,-0.015955,-0.065375,-0.654675,-0.752909,0.104936,-0.210537,-0.041676,0.385824,-0.417236,0.102601,-0.668086,-0.184048,-0.217954,0.624139,-0.161218,-0.029284,-0.072386,-0.065394,0.056437,-0.096443,0.108778,0.055923,0.863033,1.258176,0.26492,0.029145,0.240117,-0.277002,0.111199,0.644454,-0.807526,0.302116,-0.010291
1.011574,0.299575,0.75329,-0.014445,-0.057978,-0.660873,-0.748116,0.1557,-0.193618,-0.057997,0.39072,-0.400073,0.096269,-0.652163,-0.134117,-0.179039,0.552149,-0.109171,-0.066548,-0.079787,-0.059616,0.058326,-0.147222,0.13848,0.062367,0.784235,1.217534,0.242468,0.043262,0.239123,-0.272646,0.108496,0.673002,-0.809808,0.311702,-0.007556
1.0185,0.328257,0.75067,-0.013724,-0.05019,-0.666354,-0.743818,0.184245,-0.176917,-0.067707,0.438199,-0.365844,0.095392,-0.62507,-0.102009,-0.146817,0.566377,-0.062601,-0.138959,-0.085683,-0.052743,0.060245,-0.184787,0.164927,0.056436,0.705484,1.188972,0.228697,0.059728,0.23767,-0.266604,0.103608,0.704137,-0.81067,0.320865,-0.00846
1.025569,0.355771,0.752899,-0.013262,-0.042047,-0.670917,-0.740221,0.1767,-0.157912,-0.061856,0.542355,-0.29042,0.091652,-0.589601,-0.090968,-0.148212,0.607109,-0.102168,-0.128622,-0.089679,-0.046008,0.062677,-0.204525,0.186413,0.042718,0.627771,1.176563,0.225251,0.082856,0.234674,-0.256559,0.097036,0.738045,-0.810624,0.330881,-0.012098
1.032671,0.383191,0.756455,-0.012611,-0.03469,-0.676331,-0.735673,0.123115,-0.137014,-0.051125,0.707103,-0.151383,0.046582,-0.542316,-0.085539,-0.166244,0.629964,-0.155059,-0.128995,-0.093474,-0.039974,0.066276,-0.207575,0.197823,0.0255,0.554946,1.17827,0.230934,0.112066,0.229151,-0.242068,0.088196,0.772458,-0.809778,0.342056,-0.014194
1.039566,0.410886,0.763944,-0.011151,-0.028959,-0.68264,-0.730096,0.031748,-0.126272,-0.057329,0.913417,0.019956,-0.036053,-0.478268,-0.082391,-0.194015,0.617399,-0.195512,-0.120192,-0.095644,-0.03461,0.069454,-0.199434,0.196844,0.006718,0.493642,1.184775,0.240818,0.140041,0.221476,-0.225425,0.078307,0.80127,-0.807908,0.350715,-0.009981
1.045917,0.438531,0.770459,-0.008758,-0.02519,-0.689753,-0.723554,-0.082875,-0.116052,-0.058579,1.110066,0.148395,-0.105772,-0.40629,-0.077936,-0.22485,0.577539,-0.223334,-0.109535,-0.096585,-0.029813,0.070557,-0.186442,0.187816,-0.012344,0.449178,1.184179,0.24824,0.156587,0.211629,-0.211927,0.071857,0.819652,-0.80668,0.351549,-8.8e-05
1.051407,0.466147,0.775927,-0.005198,-0.022528,-0.694911,-0.718724,-0.205003,-0.077267,-0.034143,1.260738,0.175817,-0.110919,-0.335696,-0.067345,-0.250217,0.527254,-0.242543,-0.100876,-0.094361,-0.024383,0.07026,-0.170397,0.178469,-0.029119,0.423827,1.171701,0.251337,0.156872,0.197026,-0.20627,0.074327,0.829259,-0.810369,0.342817,0.010098
1.055776,0.494001,0.779371,-0.000766,-0.019454,-0.696023,-0.717755,-0.319787,-0.019433,-0.002073,1.346492,0.085463,-0.07324,-0.273429,-0.050231,-0.263134,0.487068,-0.261607,-0.09262500000000001,-0.086764,-0.017636,0.069399,-0.148503,0.17455,-0.042465,0.418873,1.154422,0.254681,0.143211,0.176964,-0.207519,0.085597,0.835197,-0.820751,0.328812,0.015482
1.059392,0.522545,0.780672,0.002209,-0.016296,-0.692886,-0.720859,-0.419493,0.037381,0.035194,1.371689,0.002771,-0.038076,-0.217433,-0.032374,-0.262327,0.463091,-0.285444,-0.082348,-0.074826,-0.010496,0.068843,-0.118029,0.174253,-0.052441,0.434648,1.142144,0.264064,0.121865,0.152047,-0.211794,0.099379,0.838621,-0.834099,0.315967,0.014988
1.062519,0.551913,0.77938,0.006473,-0.010969,-0.687781,-0.725806,-0.502131,0.078629,0.066003,1.341418,-0.064082,0.004916,-0.167823,-0.011229,-0.256027,0.458017,-0.317997,-0.07125,-0.060249,-0.002834,0.069187,-0.083182,0.179422,-0.059707,0.470206,1.139566,0.280883,0.096086,0.12599,-0.210371,0.109184,0.83691,-0.842411,0.305776,0.010047
1.06556,0.582265,0.776157,0.011455,-0.004544,-0.682134,-0.731123,-0.567185,0.099495,0.085897,1.257524,-0.12342,0.045833,-0.11903,0.010638,-0.24919,0.460811,-0.354675,-0.059828,-0.044629,0.005802,0.069908,-0.047739,0.184731,-0.063473,0.524698,1.140874,0.302563,0.070095,0.102023,-0.20467,0.114609,0.826477,-0.843447,0.295694,0.002149
1.068608,0.613552,0.771862,0.016823,0.001948,-0.677,-0.735788,-0.610592,0.10814,0.101694,1.120208,-0.164452,0.050548,-0.067338,0.031312,-0.24409,0.461777,-0.389846,-0.047962,-0.029442,0.015284,0.069868,-0.014222,0.18605,-0.063232,0.597622,1.139887,0.325757,0.046187,0.082411,-0.199994,0.120649,0.806915,-0.840896,0.283423,-0.007902
1.07169,0.645457,0.767663,0.021568,0.00722,-0.672589,-0.739667,-0.629574,0.113512,0.128936,0.936419,-0.173366,0.050644,-0.011144,0.048454,-0.240154,0.45489,-0.418287,-0.035891,-0.015941,0.024517,0.068199,0.017587,0.181063,-0.059607,0.688219,1.134941,0.348365,0.022394,0.067284,-0.200774,0.131056,0.781367,-0.839125,0.269276,-0.02041
1.074779,0.67758,0.766518,0.024931,0.010498,-0.668816,-0.742936,-0.627706,0.111612,0.163871,0.738527,-0.152054,0.029619,0.047704,0.059628,-0.239575,0.446777,-0.433411,-0.021944,-0.004749,0.031579,0.06521,0.049118,0.170365,-0.055189,0.792701,1.130057,0.369589,-0.006922,0.055282,-0.206787,0.144528,0.755587,-0.839262,0.256502,-0.034225
1.077442,0.70903,0.76322,0.0277,0.013548,-0.666415,-0.744943,-0.608778,0.1034,0.203581,0.570029,-0.12647,0.012035,0.096037,0.066257,-0.235047,0.453846,-0.434587,-0.003699,0.002753,0.035899,0.061872,0.082486,0.15629,-0.05586,0.899868,1.131248,0.391612,-0.049008,0.043913,-0.215145,0.15404,0.738798,-0.840098,0.244878,-0.044551
1.079465,0.739183,0.759391,0.026214,0.013981,-0.66544,-0.74586,-0.589168,0.076383,0.215866,0.478434,-0.073725,0.017251,0.131702,0.060734,-0.22464,0.480618,-0.421227,0.014785,0.007881,0.035844,0.060213,0.116769,0.137971,-0.062,1.006531,1.139835,0.404205,-0.10015,0.037921,-0.226034,0.158949,0.725799,-0.839515,0.240793,-0.049815
1.080549,0.768381,0.754157,0.019846,0.013198,-0.666422,-0.745193,-0.572071,0.041888,0.20268,0.485667,5.9e-05,0.09598,0.141224,0.039317,-0.208553,0.562154,-0.382132,0.039574,0.012181,0.031789,0.06217,0.1497,0.116869,-0.074873,1.104445,1.155689,0.404423,-0.154491,0.041397,-0.239149,0.152998,0.71475,-0.839869,0.243158,-0.050533
1.080264,0.796935,0.751668,0.011092,0.014265,-0.670285,-0.741883,-0.547417,0.01056,0.191234,0.53738,-0.004116,0.172037,0.10907,0.002715,-0.199075,0.722329,-0.265452,0.064777,0.016582,0.025756,0.067567,0.176697,0.095895,-0.093662,1.185803,1.177629,0.396204,-0.206709,0.050211,-0.250536,0.139399,0.712406,-0.837323,0.253221,-0.052145
1.079652,0.824528,0.749546,0.000715,0.01408,-0.676231,-0.736554,-0.522878,-0.019545,0.187544,0.593855,-0.060229,0.183486,0.034191,-0.036947,-0.173001,0.932119,-0.101578,0.091414,0.020975,0.017318,0.075278,0.196178,0.077093,-0.111383,1.241854,1.198442,0.381807,-0.25227,0.060985,-0.260393,0.122912,0.719577,-0.834754,0.268684,-0.052373
1.080036,0.852847,0.751368,-0.007439,0.013642,-0.682009,-0.731179,-0.482819,-0.046212,0.179349,0.623445,-0.117702,0.175429,-0.065316,-0.061049,-0.121772,1.144472,0.075523,0.159586,0.026157,0.00753,0.081248,0.20762,0.065902,-0.11478,1.265868,1.206964,0.368434,-0.287578,0.064427,-0.265505,0.117001,0.73765,-0.83061,0.285207,-0.042341
1.081058,0.880605,0.754809,-0.011172,0.013036,-0.687305,-0.726166,-0.430955,-0.067335,0.1668,0.617506,-0.162203,0.167669,-0.175455,-0.072517,-0.075658,1.301698,0.215213,0.198126,0.031615,-0.001388,0.083803,0.215781,0.064565,-0.093532,1.255211,1.195694,0.361649,-0.302836,0.063239,-0.265207,0.122843,0.757606,-0.830294,0.294614,-0.021974
1.083219,0.906837,0.757836,-0.013582,0.008145,-0.693633,-0.720155,-0.389715,-0.0904,0.151529,0.608143,-0.197835,0.160579,-0.281324,-0.096795,-0.042954,1.387869,0.167192,0.203143,0.035249,-0.009693,0.084079,0.217863,0.06519,-0.052366,1.219491,1.169936,0.364345,-0.292368,0.060057,-0.270762,0.133839,0.771365,-0.8329,0.296399,-0.00071
1.086636,0.932213,0.759919,-0.013906,0.002058,-0.706824,-0.707249,-0.360298,-0.118103,0.119438,0.607453,-0.229118,0.15312,-0.370014,-0.141147,-0.032769,1.400478,0.047467,0.175075,0.034437,-0.018566,0.082764,0.206359,0.069697,-0.011505,1.173398,1.149048,0.373902,-0.256117,0.067586,-0.27664,0.136742,0.773964,-0.830312,0.293606,0.007599
1.091029,0.957363,0.761283,-0.011391,-0.003176,-0.728475,-0.68497,-0.338128,-0.148991,0.064744,0.615341,-0.258077,0.14489,-0.43474,-0.203149,-0.051232,1.340716,-0.041314,0.153884,0.02764,-0.027759,0.080679,0.176602,0.080218,0.008511,1.127129,1.149059,0.380094,-0.204848,0.090862,-0.277549,0.126281,0.765993,-0.819963,0.289531,0.001212
1.096104,0.982384,0.7615,-0.00733,-0.009282,-0.755719,-0.654789,-0.326693,-0.18336,-0.005493,0.639719,-0.288625,0.135701,-0.477267,-0.248458,-0.069435,1.216165,-0.121975,0.120129,0.014772,-0.036819,0.078461,0.129974,0.094921,-0.000191,1.083241,1.171653,0.372871,-0.157787,0.124458,-0.276969,0.108212,0.751384,-0.806765,0.285132,-0.010879
1.101216,1.007465,0.760927,-0.000686,-0.014673,-0.786099,-0.617926,-0.323018,-0.217165,-0.088077,0.678688,-0.323547,0.12542,-0.499165,-0.241353,-0.036121,1.043271,-0.182079,0.117537,-0.002178,-0.043621,0.075403,0.07022,0.11588,-0.029731,1.036656,1.206488,0.349819,-0.129,0.162811,-0.27362,0.090902,0.735024,-0.795275,0.280355,-0.022362
1.105372,1.032497,0.760678,0.010185,-0.015554,-0.818851,-0.573705,-0.32105,-0.245012,-0.184201,0.72423,-0.353768,0.114975,-0.490283,-0.178303,0.090519,0.839423,-0.209735,0.142434,-0.019853,-0.044802,0.070917,-0.000347,0.144042,-0.063463,0.982245,1.239591,0.313271,-0.114864,0.202345,-0.25943,0.081216,0.718271,-0.787247,0.281718,-0.032091
1.108716,1.057243,0.762053,0.020388,-0.01481,-0.85135,-0.523992,-0.320735,-0.274597,-0.279808,0.784974,-0.374811,0.107602,-0.443568,-0.146967,0.213345,0.641921,-0.227845,0.164394,-0.031626,-0.042255,0.066008,-0.072221,0.162386,-0.096541,0.909352,1.258176,0.276902,-0.099762,0.249438,-0.245838,0.07614,0.705587,-0.782135,0.281141,-0.040094
1.111138,1.081242,0.758705,0.029194,-0.010759,-0.882165,-0.469911,-0.323205,-0.300507,-0.371231,0.855495,-0.392885,0.090291,-0.378625,-0.132278,0.306848,0.533182,-0.232126,0.241174,-0.037656,-0.038247,0.063208,-0.134875,0.180172,-0.123017,0.807171,1.255847,0.238271,-0.077424,0.287721,-0.229277,0.084741,0.710696,-0.781727,0.280483,-0.043294
1.113711,1.104227,0.7545,0.034597,-0.006322,-0.9083850000000001,-0.416654,-0.342358,-0.327799,-0.442998,0.957553,-0.391748,0.07454,-0.321934,-0.132965,0.280056,0.536219,-0.316817,0.247379,-0.036375,-0.035418,0.065063,-0.17867,0.18872,-0.148352,0.682471,1.23604,0.207159,-0.034604,0.314534,-0.218081,0.113888,0.734658,-0.78993,0.280035,-0.035232
1.114177,1.126084,0.752514,0.039146,-0.000497,-0.930812,-0.363395,-0.388293,-0.366422,-0.49616,1.091581,-0.309028,0.025821,-0.271172,-0.153083,0.165241,0.551503,-0.389829,0.247036,-0.035664,-0.031852,0.071052,-0.198953,0.191225,-0.17232,0.5464,1.203837,0.186424,0.029332,0.318993,-0.211413,0.16483,0.778558,-0.80996,0.281438,-0.008328
1.112927,1.147298,0.753562,0.042821,0.00382,-0.950054,-0.309109,-0.456166,-0.411977,-0.51396,1.224872,-0.184507,-0.124155,-0.21225,-0.171852,0.039082,0.547039,-0.430074,0.242299,-0.042748,-0.026891,0.078462,-0.194113,0.184107,-0.191073,0.42085,1.163861,0.177994,0.115476,0.303277,-0.211708,0.226375,0.836054,-0.841704,0.28634,0.035462
1.109101,1.166621,0.75386,0.044811,0.008091,-0.966045,-0.254328,-0.547293,-0.438279,-0.43671,1.339908,-0.105939,-0.2421,-0.147515,-0.184588,-0.086773,0.531988,-0.448176,0.234959,-0.059948,-0.018091,0.086309,-0.166409,0.168886,-0.2024,0.330162,1.125975,0.181182,0.215635,0.277131,-0.218359,0.281758,0.894943,-0.877157,0.294827,0.080873
1.102645,1.184285,0.754853,0.044797,0.00953,-0.976524,-0.210482,-0.639579,-0.410174,-0.365169,1.39087,-0.113301,-0.247502,-0.083475,-0.190095,-0.190119,0.505512,-0.44874,0.229653,-0.071992,-0.009889,0.092238,-0.122055,0.152151,-0.206663,0.288998,1.103463,0.196023,0.302257,0.248171,-0.230199,0.317229,0.941149,-0.905163,0.307169,0.107411
1.093728,1.200683,0.756126,0.044875,0.009639000000000002,-0.982737,-0.179222,-0.717932,-0.332569,-0.298375,1.376894,-0.149942,-0.247465,-0.024867,-0.184541,-0.263195,0.471285,-0.438602,0.227128,-0.073345,-0.003447,0.09519300000000001,-0.07168,0.143635,-0.204644,0.295792,1.100989,0.223006,0.336666,0.22219,-0.243615,0.328604,0.964963,-0.918036,0.319499,0.103735
1.082531,1.216034,0.757071,0.046897,0.010198,-0.986627,-0.15577,-0.7832,-0.25891,-0.228537,1.324691,-0.149955,-0.242002,0.02411,-0.169257,-0.311566,0.440708,-0.423866,0.228599,-0.065779,0.002442,0.095459,-0.024972,0.145911,-0.195439,0.337065,1.10713,0.257148,0.302006,0.203718,-0.256244,0.316981,0.962875,-0.911371,0.324131,0.074385
1.069029,1.230659,0.759499,0.051392,0.010734,-0.989392,-0.135452,-0.829626,-0.204512,-0.164401,1.235192,-0.154106,-0.209418,0.065112,-0.151775,-0.34694,0.422262,-0.412944,0.23333,-0.053025,0.007765,0.093366,0.01366,0.153931,-0.175859,0.399774,1.105434,0.292108,0.221654,0.19483,-0.269205,0.287196,0.938322,-0.884804,0.316524,0.035137
