hanqing-shi/Humanoids-Motion-Generation/dataset/data_joint/walk/walk3_subject4_seg2.csv
root_x,root_y,root_z,root_qx,root_qy,root_qz,root_qw,left_hip_pitch_joint,left_hip_roll_joint,left_hip_yaw_joint,left_knee_joint,left_ankle_pitch_joint,left_ankle_roll_joint,right_hip_pitch_joint,right_hip_roll_joint,right_hip_yaw_joint,right_knee_joint,right_ankle_pitch_joint,right_ankle_roll_joint,waist_yaw_joint,waist_roll_joint,waist_pitch_joint,left_shoulder_pitch_joint,left_shoulder_roll_joint,left_shoulder_yaw_joint,left_elbow_joint,left_wrist_roll_joint,left_wrist_pitch_joint,left_wrist_yaw_joint,right_shoulder_pitch_joint,right_shoulder_roll_joint,right_shoulder_yaw_joint,right_elbow_joint,right_wrist_roll_joint,right_wrist_pitch_joint,right_wrist_yaw_joint
-7.696556,4.089732,0.770062,0.006643,0.05939,0.83325,-0.549658,-0.084687,-0.157099,0.215701,0.358463,-0.257877,0.133259,-0.210892,-0.178626,0.027332,1.289421,-0.149047,0.153993,0.071674,-0.064636,0.095057,0.137716,0.041192,-0.00905,0.917501,1.014658,0.126506,-0.025615,-0.002817,-0.038068,-0.065386,0.82426,-0.972858,0.275155,-0.035032
-7.704275,4.072673,0.768892,0.008302,0.065125,0.823574,-0.563396,-0.054489,-0.1744,0.183681,0.372803,-0.281453,0.129383,-0.25841,-0.198045,0.024677,1.265928,-0.193765,0.12233,0.067339,-0.070572,0.098646,0.110881,0.050161,0.008996,0.88686,1.022011,0.121823,0.037739,0.013903,-0.048701,-0.068324,0.874097,-1.004095,0.318281,-0.029561
-7.711977,4.055805,0.767988,0.009264,0.069764,0.812578,-0.578588,-0.025055,-0.190093,0.147049,0.384645,-0.30187,0.125753,-0.299769,-0.203151,0.030976,1.207453,-0.246874,0.091884,0.063067,-0.075045,0.101327,0.066839,0.056967,0.025503,0.865318,1.016575,0.112722,0.077766,0.037723,-0.060674,-0.078657,0.907193,-1.021136,0.344983,0.000581
-7.719533,4.039082,0.767419,0.009078,0.073262,0.801182,-0.59385,0.00454,-0.204174,0.108442,0.389809,-0.31786,0.123481,-0.335708,-0.189406,0.05633,1.121586,-0.279011,0.065051,0.059398,-0.077652,0.102738,0.027633,0.059858,0.043245,0.833059,0.989232,0.085534,0.099262,0.060163,-0.073282,-0.105091,0.927111,-1.018294,0.350313,0.035159
-7.726932,4.022357,0.767046,0.007958,0.075512,0.790316,-0.607977,0.03506,-0.215411,0.070393,0.388042,-0.331028,0.122442,-0.362226,-0.156353,0.108753,1.010161,-0.29219,0.063125,0.056584,-0.078598,0.103004,-0.003076,0.06501,0.050637,0.790898,0.957024,0.05126,0.109031,0.082153,-0.086232,-0.136891,0.938169,-1.009702,0.344801,0.061576
-7.734224,4.005576,0.766465,0.006016,0.076716,0.780415,-0.620508,0.066425,-0.223098,0.034443,0.380839,-0.345188,0.118757,-0.375355,-0.112397,0.191185,0.875036,-0.294795,0.097387,0.05426,-0.078229,0.102197,-0.022993,0.074082,0.044042,0.739307,0.92751,0.015526,0.117236,0.102035,-0.099108,-0.163563,0.942713,-1.009922,0.341813,0.067405
-7.741125,3.988771,0.765888,0.003903,0.076488,0.771417,-0.631704,0.102574,-0.226692,8e-06,0.359425,-0.353658,0.113661,-0.376891,-0.081739,0.275409,0.720138,-0.267842,0.116837,0.052151,-0.077001,0.099872,-0.032125,0.089276,0.024556,0.684195,0.904168,-0.019337,0.132399,0.118754,-0.106036,-0.183867,0.941959,-1.017831,0.344375,0.050915
-7.747625,3.972053,0.765242,0.001554,0.075757,0.762804,-0.642175,0.143048,-0.227803,-0.033245,0.325344,-0.353917,0.110557,-0.372862,-0.07445,0.331361,0.561858,-0.221017,0.098507,0.050306,-0.075665,0.096466,-0.032121,0.107973,-0.001182,0.632618,0.884072,-0.047295,0.154708,0.132437,-0.105438,-0.201416,0.937411,-1.02567,0.349103,0.024796
-7.75394,3.955603,0.76453,-0.00074,0.074741,0.755358,-0.651036,0.184468,-0.225908,-0.063244,0.285636,-0.347327,0.108881,-0.370319,-0.090335,0.316478,0.42164,-0.167754,0.119393,0.05002,-0.075167,0.092691,-0.025281,0.129381,-0.030549,0.590823,0.86659,-0.069081,0.171482,0.141117,-0.098379,-0.216427,0.932974,-1.029497,0.355489,0.006646
-7.760536,3.939447,0.763574,-0.003093,0.074545,0.747931,-0.65957,0.220341,-0.222445,-0.090878,0.257476,-0.343828,0.105838,-0.370935,-0.101542,0.281676,0.344478,-0.123508,0.154397,0.048361,-0.074798,0.08899,-0.013704,0.148527,-0.056402,0.564056,0.851673,-0.074111,0.178389,0.145298,-0.089666,-0.227294,0.929061,-1.028548,0.352948,-0.004629
-7.767387,3.923554,0.763045,-0.004465,0.073899,0.74023,-0.668265,0.246985,-0.214914,-0.114407,0.248185,-0.344001,0.101442,-0.371943,-0.103694,0.258582,0.346955,-0.073679,0.158339,0.044258,-0.073784,0.085071,0.001782,0.163267,-0.077136,0.553524,0.836995,-0.067125,0.179026,0.144507,-0.081485,-0.228572,0.927999,-1.027837,0.343522,-0.006399
-7.774378,3.908159,0.763512,-0.004706,0.073435,0.732671,-0.676593,0.2662,-0.204812,-0.13167,0.255725,-0.339263,0.097935,-0.360955,-0.105072,0.237886,0.37694,-0.041952,0.153202,0.039824,-0.071466,0.081139,0.020433,0.172792,-0.094294,0.559811,0.8234,-0.053282,0.172889,0.139074,-0.077965,-0.209545,0.932406,-1.040558,0.332037,-0.001951
-7.781398,3.892711,0.769171,-0.003678,0.071144,0.725454,-0.684574,0.277895,-0.190618,-0.143201,0.280451,-0.319567,0.096048,-0.340263,-0.10557,0.210384,0.390496,-0.052866,0.141018,0.036365,-0.066295,0.07716,0.038699,0.174915,-0.10376,0.587728,0.813607,-0.028445,0.172682,0.126556,-0.076315,-0.171356,0.942027,-1.067088,0.321032,0.000524
-7.78812,3.877839,0.773592,-0.002431,0.06803,0.719429,-0.691222,0.271384,-0.176469,-0.14961,0.326759,-0.286487,0.096529,-0.310868,-0.106554,0.179479,0.384397,-0.07715,0.14228,0.03409,-0.057911,0.072553,0.055129,0.167526,-0.106144,0.641728,0.809593,0.00722,0.173897,0.108699,-0.077481,-0.118026,0.954425,-1.10272,0.300817,0.005955
-7.794346,3.863709,0.777853,-0.000559,0.064647,0.71442,-0.696724,0.251283,-0.163971,-0.154332,0.392247,-0.242562,0.092449,-0.273984,-0.105161,0.151721,0.361245,-0.093163,0.143632,0.031851,-0.047881,0.067966,0.072658,0.151773,-0.099263,0.718704,0.812256,0.058617,0.172815,0.086821,-0.080841,-0.057815,0.967754,-1.142922,0.288594,0.018091
-7.800214,3.85052,0.781736,0.001344,0.060024,0.709147,-0.702499,0.212787,-0.151586,-0.155296,0.481643,-0.190343,0.081935,-0.235256,-0.100431,0.125242,0.327087,-0.100174,0.135081,0.028407,-0.037548,0.06458,0.085964,0.138183,-0.095767,0.806519,0.828704,0.119364,0.146625,0.061432,-0.080517,-0.005212,0.968785,-1.168388,0.269864,0.026739
-7.805791,3.838364,0.784541,0.002827,0.054399,0.701938,-0.710152,0.152565,-0.138024,-0.150434,0.59947,-0.131229,0.056078,-0.201363,-0.095103,0.095205,0.295161,-0.105308,0.124599,0.023549,-0.027291,0.063464,0.098513,0.132027,-0.095349,0.884032,0.845471,0.171468,0.095492,0.038181,-0.081722,0.029285,0.954087,-1.179128,0.239969,0.039118
-7.81097,3.82725,0.785949,0.003994,0.049162,0.693151,-0.719102,0.078062,-0.120072,-0.136516,0.736459,-0.086065,-0.007764,-0.17377,-0.090778,0.062683,0.273046,-0.113864,0.113219,0.017655,-0.017067,0.065297,0.108254,0.128078,-0.112965,0.945826,0.870201,0.19798,0.0241,0.013656,-0.081718,0.051075,0.926628,-1.171886,0.207492,0.035946
-7.815711,3.816637,0.789347,0.004475,0.043683,0.682188,-0.729857,-0.005065,-0.091253,-0.106309,0.881217,-0.074517,-0.055784,-0.153675,-0.087588,0.027544,0.263451,-0.125739,0.101607,0.010835,-0.006447,0.070482,0.119727,0.138149,-0.153311,0.97965,0.908149,0.183698,-0.044904,-0.008868,-0.082084,0.055632,0.890383,-1.141916,0.180732,0.014489
-7.819649,3.80672,0.790057,0.006062,0.038411,0.670486,-0.740902,-0.086002,-0.033082,-0.044191,0.994565,-0.126061,-0.028765,-0.142004,-0.083273,-0.007158,0.27003,-0.144168,0.089694,0.005441,0.005176,0.077702,0.134424,0.157289,-0.220605,0.987035,0.970673,0.137143,-0.090011,-0.026865,-0.085342,0.058014,0.853925,-1.098819,0.158089,-0.024081
-7.822616,3.796889,0.790031,0.007516,0.034219,0.660237,-0.75024,-0.153402,0.032304,0.027982,1.058797,-0.182119,0.01709,-0.131987,-0.079572,-0.036706,0.280587,-0.163677,0.076468,0.004535,0.017568,0.085338,0.155805,0.179878,-0.283861,0.972506,1.028895,0.077331,-0.107897,-0.04388,-0.090136,0.055149,0.832029,-1.052834,0.146822,-0.072406
-7.82452,3.787014,0.789799,0.008809,0.03081,0.650856,-0.758525,-0.205582,0.066247,0.073387,1.069921,-0.205452,0.040945,-0.120805,-0.077471,-0.06317,0.290623,-0.183768,0.066858,0.008089,0.028864,0.091594,0.183515,0.19522,-0.318647,0.945151,1.06159,0.036289,-0.090271,-0.061953,-0.092484,0.044765,0.832683,-1.012939,0.157978,-0.110243
-7.825443,3.777098,0.789382,0.010026,0.02807,0.640964,-0.766992,-0.246245,0.067371,0.089875,1.037261,-0.225391,0.032576,-0.109291,-0.077977,-0.08988,0.302987,-0.205831,0.060826,0.013583,0.037518,0.095947,0.213372,0.198612,-0.322062,0.918476,1.057499,0.015781,-0.067397,-0.078632,-0.085488,0.015242,0.848413,-0.969425,0.196855,-0.125432
-7.8255,3.767046,0.788741,0.011356,0.025957,0.62953,-0.776459,-0.27786,0.05825,0.096272,0.970547,-0.249181,0.010965,-0.096978,-0.081189,-0.119257,0.318634,-0.230491,0.056799,0.019033,0.043001,0.098482,0.238568,0.197298,-0.311171,0.89723,1.031761,0.009473,-0.061654,-0.092588,-0.0654,-0.039118,0.862319,-0.908781,0.260047,-0.118338
-7.824719,3.756867,0.787905,0.012612,0.023328,0.617099,-0.786439,-0.300488,0.054007,0.104949,0.87747,-0.267583,-0.013468,-0.084868,-0.085292,-0.150584,0.334751,-0.255756,0.05456,0.024338,0.046585,0.099459,0.253593,0.195907,-0.296234,0.876713,0.998641,0.008824,-0.069858,-0.10399,-0.044778,-0.084894,0.860242,-0.857919,0.321035,-0.116338
-7.823197,3.746525,0.787234,0.012677,0.020493,0.604761,-0.796042,-0.311571,0.062325,0.130136,0.760158,-0.263212,-0.021038,-0.069982,-0.090363,-0.181221,0.342082,-0.276853,0.053953,0.029588,0.04941,0.098649,0.259216,0.191244,-0.281285,0.854513,0.969337,0.013193,-0.077697,-0.110795,-0.041905,-0.066048,0.846731,-0.877816,0.358815,-0.126279
-7.820913,3.736045,0.786568,0.012353,0.017166,0.592866,-0.805024,-0.317985,0.074099,0.161387,0.633454,-0.242638,-0.010527,-0.051813,-0.094327,-0.210662,0.340795,-0.293974,0.055247,0.035313,0.051824,0.096838,0.257135,0.182029,-0.265791,0.834926,0.950289,0.026063,-0.070199,-0.111676,-0.057409,0.01871,0.828744,-0.96935,0.363127,-0.1431
-7.817788,3.725464,0.785686,0.012722,0.01287,0.581233,-0.813536,-0.319255,0.092853,0.20805,0.50421,-0.217047,0.010274,-0.030547,-0.095144,-0.239598,0.332621,-0.307869,0.057972,0.040237,0.053731,0.094204,0.253034,0.168809,-0.250994,0.819186,0.945659,0.04674,-0.046813,-0.108748,-0.070274,0.102971,0.800902,-1.053385,0.345164,-0.158637
-7.81393,3.714798,0.78491,0.012312,0.008948,0.570751,-0.820982,-0.317259,0.10735,0.257177,0.382221,-0.164382,0.031298,-0.005418,-0.095299,-0.265555,0.314698,-0.316187,0.061666,0.044043,0.054582,0.090844,0.249492,0.157023,-0.253129,0.805943,0.967869,0.067381,-0.012466,-0.101997,-0.073369,0.153458,0.766713,-1.084152,0.30465,-0.169812
-7.809215,3.704057,0.783944,0.011867,0.005982,0.561813,-0.827157,-0.314741,0.116204,0.296861,0.285446,-0.096543,0.037766,0.020682,-0.095711,-0.28745,0.296621,-0.32271,0.066644,0.047255,0.053629,0.08732,0.24738,0.152282,-0.282357,0.801214,1.015491,0.085714,-0.004881,-0.092019,-0.07091,0.178896,0.739799,-1.065395,0.24562,-0.1598
-7.80349,3.69312,0.782306,0.011977,0.003436,0.554221,-0.832276,-0.3073,0.125585,0.342666,0.215516,-0.061058,0.056303,0.046291,-0.095898,-0.305894,0.282496,-0.330075,0.072899,0.04896,0.051638,0.083448,0.249135,0.148391,-0.307882,0.799621,1.048977,0.097484,-0.024626,-0.084042,-0.069877,0.195506,0.726847,-1.024083,0.184342,-0.1168
-7.796576,3.68187,0.779481,0.012044,0.002101,0.548237,-0.836233,-0.295437,0.132969,0.389282,0.182334,-0.035697,0.073499,0.073673,-0.097748,-0.319989,0.269525,-0.337088,0.080994,0.049966,0.048317,0.079387,0.255625,0.142062,-0.31235,0.796751,1.049048,0.095203,-0.035417,-0.081981,-0.075115,0.21687,0.727339,-0.994116,0.13844,-0.059451
-7.788304,3.670534,0.777328,0.01227,0.002352,0.545297,-0.83815,-0.27537,0.131255,0.405051,0.179781,0.009392,0.084138,0.102139,-0.102395,-0.326152,0.259215,-0.338711,0.091873,0.052461,0.043025,0.075426,0.265729,0.132262,-0.289241,0.799228,1.009902,0.078256,-0.044957,-0.084883,-0.082449,0.245715,0.74031,-0.988996,0.114688,-0.011959
-7.77873,3.6593,0.777988,0.011027,0.006125,0.54384,-0.839094,-0.250424,0.116718,0.405677,0.177435,0.008053,0.096548,0.131699,-0.116364,-0.327091,0.254434,-0.332489,0.107679,0.055746,0.03561,0.072587,0.270654,0.125507,-0.266876,0.809595,0.972081,0.058664,-0.052851,-0.09039,-0.085271,0.270087,0.766073,-0.997447,0.117899,0.017589
-7.767951,3.648294,0.779024,0.009259,0.010697,0.542325,-0.84005,-0.221916,0.097599,0.40563,0.17525,-0.01069,0.100302,0.154659,-0.136849,-0.32712,0.263907,-0.318564,0.127237,0.059174,0.025936,0.070147,0.267198,0.123641,-0.251845,0.826806,0.951228,0.046601,-0.063345,-0.095461,-0.079577,0.284807,0.80624,-1.009995,0.14193,0.02423
-7.756457,3.63776,0.780366,0.006996,0.015551,0.53973,-0.841666,-0.191391,0.074562,0.40506,0.170076,-0.032439,0.100167,0.170314,-0.162376,-0.327324,0.28804,-0.297827,0.147756,0.062581,0.015582,0.066599,0.255119,0.12429,-0.245072,0.846928,0.956752,0.057408,-0.071124,-0.094514,-0.065701,0.285158,0.857157,-1.017771,0.184887,0.017291
-7.744375,3.627257,0.783736,0.004717,0.019365,0.535345,-0.844398,-0.163776,0.050678,0.400197,0.167802,-0.054433,0.101615,0.176601,-0.190603,-0.325429,0.33298,-0.270394,0.167871,0.066444,0.005464,0.062581,0.236393,0.122797,-0.237513,0.861214,0.975624,0.084211,-0.07092,-0.088189,-0.051477,0.278763,0.905156,-1.025553,0.236368,0.012813
-7.732328,3.617458,0.785252,0.002807,0.022747,0.530109,-0.84762,-0.142125,0.028507,0.392318,0.173345,-0.078479,0.105946,0.17182,-0.21886,-0.317452,0.392558,-0.237504,0.188384,0.06957,-0.003597,0.059114,0.215316,0.116974,-0.21995,0.868342,0.990487,0.110046,-0.064688,-0.076578,-0.043217,0.27077,0.940026,-1.02794,0.27194,0.021287
-7.720386,3.608138,0.785556,0.001092,0.026475,0.522981,-0.851932,-0.125491,0.00671,0.380825,0.187608,-0.105916,0.111455,0.15805,-0.248526,-0.304853,0.47067,-0.201444,0.20564,0.070573,-0.011283,0.057133,0.192548,0.104523,-0.18926,0.871184,0.988479,0.125581,-0.052722,-0.060109,-0.046284,0.262877,0.959338,-1.025342,0.2793,0.039663
-7.708727,3.599196,0.784806,-0.000526,0.030185,0.514131,-0.85718,-0.111563,-0.014844,0.365363,0.205372,-0.13451,0.116321,0.131383,-0.278268,-0.285624,0.570594,-0.157656,0.216606,0.069219,-0.018938,0.057494,0.166469,0.090382,-0.154987,0.871017,0.975325,0.130471,-0.027141,-0.039742,-0.060279,0.257222,0.964068,-1.021866,0.26526,0.063115
-7.697366,3.590694,0.782981,-0.002367,0.034721,0.504339,-0.862804,-0.097017,-0.037829,0.347536,0.223255,-0.162897,0.121027,0.090502,-0.308252,-0.255404,0.692173,-0.107795,0.223115,0.065885,-0.027227,0.060655,0.138891,0.076455,-0.125168,0.870844,0.956423,0.130306,-0.000561,-0.012117,-0.080346,0.246926,0.952238,-1.022344,0.246815,0.079251
-7.685948,3.582089,0.782009,-0.003453,0.039692,0.494413,-0.868313,-0.075389,-0.061264,0.32835,0.231632,-0.187043,0.12554,0.0404,-0.332417,-0.213137,0.821839,-0.059288,0.206339,0.060979,-0.03599,0.065728,0.118618,0.069352,-0.105966,0.870279,0.941626,0.115323,0.027713,0.0103,-0.091177,0.23783,0.946423,-1.017951,0.240517,0.06588
-7.674724,3.573677,0.780318,-0.003419,0.044946,0.485504,-0.873072,-0.047063,-0.083105,0.309588,0.230572,-0.207311,0.129389,-0.015425,-0.345379,-0.165994,0.946626,-0.029385,0.136941,0.054899,-0.044681,0.071794,0.090594,0.07222,-0.107052,0.870661,0.9382,0.095381,0.048659,0.033228,-0.107398,0.225111,0.934053,-1.012785,0.238329,0.036726
-7.664012,3.565542,0.778428,-0.003963,0.050544,0.477567,-0.877131,-0.019466,-0.103887,0.292808,0.230679,-0.22718,0.133007,-0.072337,-0.34175,-0.107729,1.053775,-0.044887,0.082509,0.048108,-0.052791,0.078035,0.065166,0.079745,-0.122931,0.867288,0.946414,0.073379,0.065299,0.050092,-0.118086,0.207854,0.923975,-1.005924,0.245615,-0.006442
-7.653829,3.557658,0.776613,-0.005119,0.055535,0.469931,-0.880939,0.001279,-0.122118,0.277038,0.239711,-0.247375,0.136724,-0.129542,-0.296372,-0.024309,1.132639,-0.113891,0.096519,0.041687,-0.059337,0.083693,0.04303,0.086196,-0.140114,0.863927,0.953178,0.056109,0.078931,0.062567,-0.127703,0.194744,0.92036,-1.003548,0.263139,-0.031669
-7.643717,3.549716,0.775411,-0.004024,0.058011,0.461854,-0.885048,0.019643,-0.133262,0.258768,0.249395,-0.266553,0.139887,-0.177553,-0.228639,0.054219,1.174019,-0.158187,0.100392,0.036798,-0.063166,0.087561,0.021935,0.093861,-0.15633,0.86191,0.957185,0.044288,0.08668,0.071972,-0.133125,0.18474,0.916579,-1.000036,0.27795,-0.032085
-7.633612,3.541773,0.774548,-0.002122,0.058824,0.453081,-0.889524,0.03483,-0.140668,0.238409,0.261285,-0.286003,0.143134,-0.218519,-0.173214,0.10248,1.178878,-0.182665,0.098509,0.032951,-0.064556,0.089958,0.001168,0.101266,-0.173859,0.862859,0.960213,0.035066,0.089801,0.081539,-0.138907,0.175713,0.909015,-0.993719,0.282204,-0.018685
-7.623338,3.533925,0.773731,-0.000945,0.058813,0.443494,-0.894345,0.048345,-0.148823,0.216351,0.272898,-0.305131,0.147205,-0.25681,-0.135037,0.127292,1.154412,-0.215572,0.081453,0.028807,-0.065006,0.0915,-0.018134,0.105055,-0.18971,0.866857,0.958001,0.030059,0.090039,0.09253,-0.147554,0.168692,0.89585,-0.987589,0.277757,-0.005328
-7.612757,3.526232,0.773054,-0.000472,0.057614,0.433109,-0.899498,0.063303,-0.158327,0.192325,0.276783,-0.320348,0.151813,-0.293985,-0.111436,0.131727,1.102717,-0.248676,0.061983,0.023986,-0.06513,0.092185,-0.035405,0.107061,-0.206692,0.870659,0.953107,0.026877,0.089058,0.105475,-0.157373,0.163673,0.876934,-0.981147,0.266536,0.000176
-7.601872,3.518698,0.772461,-0.000866,0.055291,0.421894,-0.904957,0.079147,-0.16888,0.166856,0.274238,-0.332089,0.156394,-0.329564,-0.090515,0.126433,1.03117,-0.265276,0.053655,0.018364,-0.065121,0.092453,-0.049573,0.108002,-0.226948,0.873008,0.947455,0.020828,0.084317,0.118375,-0.167068,0.159431,0.856709,-0.974689,0.257654,-0.001971
-7.590687,3.511318,0.77183,-0.001911,0.051855,0.410403,-0.910427,0.095091,-0.179431,0.140966,0.26739,-0.341388,0.159975,-0.363515,-0.072718,0.111856,0.943578,-0.26599,0.052843,0.013116,-0.065256,0.092612,-0.05978,0.108055,-0.246436,0.874976,0.939886,0.017752,0.080729,0.130562,-0.174734,0.155727,0.837167,-0.968533,0.25333,-0.008046
-7.579154,3.504076,0.77104,-0.00338,0.047633,0.398866,-0.915765,0.111623,-0.189797,0.114471,0.256776,-0.347654,0.162262,-0.394772,-0.058273,0.086014,0.844876,-0.246983,0.049109,0.008798,-0.065802,0.092719,-0.064622,0.107395,-0.265357,0.87527,0.931371,0.01293,0.083861,0.141889,-0.179178,0.152348,0.82067,-0.962046,0.252593,-0.012333
-7.567234,3.496955,0.769923,-0.005089,0.043077,0.388132,-0.920582,0.128993,-0.199781,0.088772,0.243928,-0.351301,0.165363,-0.420236,-0.038773,0.062127,0.735097,-0.219667,0.059477,0.005115,-0.066411,0.092815,-0.062087,0.105863,-0.280459,0.874933,0.91974,0.008091,0.092136,0.15187,-0.180324,0.149636,0.808728,-0.955414,0.252538,-0.013563
-7.554833,3.489964,0.768563,-0.006704,0.038073,0.378319,-0.924868,0.147618,-0.208909,0.064384,0.227732,-0.35116,0.169605,-0.438932,-0.015598,0.039448,0.616429,-0.172785,0.080132,0.002399,-0.066678,0.092895,-0.05455,0.105647,-0.296039,0.878464,0.911156,0.010296,0.092473,0.159941,-0.179146,0.147521,0.801005,-0.949395,0.25259,-0.012278
-7.541929,3.48292,0.766986,-0.008243,0.032893,0.369261,-0.928707,0.167666,-0.216907,0.041261,0.208924,-0.346342,0.173452,-0.446943,0.003015,0.001374,0.486763,-0.122989,0.110915,0.001126,-0.066877,0.09254,-0.042958,0.104464,-0.30861,0.884039,0.901409,0.014,0.087909,0.16642,-0.177448,0.14782,0.796397,-0.946845,0.252262,-0.005349
-7.528391,3.475563,0.765044,-0.010048,0.028268,0.358943,-0.932877,0.189285,-0.224741,0.016122,0.191678,-0.340808,0.176178,-0.442692,0.027135,-0.024507,0.352525,-0.095821,0.134422,-0.00059,-0.066536,0.091618,-0.029061,0.102538,-0.318891,0.893778,0.894391,0.01785,0.083678,0.173662,-0.17677,0.147717,0.791888,-0.947084,0.251987,0.005892
-7.514046,3.467893,0.762774,-0.011249,0.024435,0.346722,-0.937582,0.212412,-0.231215,-0.011914,0.179287,-0.336855,0.178186,-0.432562,0.062402,-0.000723,0.237629,-0.084039,0.167674,-0.004395,-0.064646,0.090577,-0.013907,0.100609,-0.326692,0.910091,0.893381,0.029949,0.07807,0.183271,-0.176576,0.144643,0.785458,-0.948457,0.251774,0.015433
-7.498837,3.459797,0.759936,-0.013676,0.022562,0.332814,-0.942623,0.234424,-0.240474,-0.04107,0.179776,-0.339019,0.180808,-0.423692,0.098641,0.066668,0.176203,-0.090798,0.225864,-0.009729,-0.061592,0.090159,0.00238,0.09539,-0.330189,0.931418,0.895436,0.046907,0.070932,0.196156,-0.179522,0.137242,0.777243,-0.951364,0.253022,0.020462
-7.482951,3.451263,0.757259,-0.016101,0.022094,0.317984,-0.947702,0.255834,-0.249252,-0.070825,0.190093,-0.34437,0.183325,-0.417082,0.133804,0.134705,0.186646,-0.102313,0.245919,-0.014029,-0.058342,0.089909,0.022454,0.089736,-0.326756,0.950813,0.900151,0.066614,0.060117,0.207602,-0.176293,0.12372,0.773784,-0.951455,0.258238,0.018163
-7.466479,3.442388,0.756548,-0.016536,0.021589,0.299462,-0.953721,0.277835,-0.251526,-0.105481,0.202703,-0.338667,0.183378,-0.408459,0.155645,0.202707,0.230001,-0.089194,0.230852,-0.019433,-0.053645,0.088491,0.037481,0.088254,-0.320829,0.974532,0.906986,0.090936,0.046183,0.226542,-0.171789,0.103708,0.766873,-0.94613,0.262445,0.012111
-7.448987,3.432915,0.760935,-0.013593,0.019679,0.277716,-0.960366,0.306138,-0.243238,-0.141557,0.208974,-0.316479,0.17506,-0.385586,0.166253,0.223833,0.240779,-0.034499,0.141609,-0.024019,-0.046874,0.083817,0.043623,0.096082,-0.321038,1.004476,0.918076,0.109459,0.02871,0.254211,-0.165283,0.08217,0.757123,-0.93742,0.261293,0.006273
-7.43095,3.423222,0.76226,-0.011348,0.018032,0.256053,-0.966428,0.324311,-0.23338,-0.170965,0.228451,-0.282983,0.159846,-0.355107,0.14964,0.185419,0.23666,0.03989,0.067925,-0.026228,-0.037346,0.076662,0.04959,0.108841,-0.322441,1.027431,0.930016,0.118392,0.005727,0.274113,-0.157118,0.062346,0.760433,-0.930639,0.265917,-0.000508
-7.413168,3.41375,0.766489,-0.008294,0.017884,0.236236,-0.971496,0.325561,-0.223905,-0.194189,0.282104,-0.242261,0.130471,-0.330873,0.134247,0.145455,0.249867,0.025169,0.044393,-0.027565,-0.024016,0.069858,0.061641,0.12678,-0.318207,1.03256,0.943013,0.123528,-0.013214,0.277808,-0.148318,0.047642,0.78496,-0.929559,0.282696,-0.004617
-7.395375,3.404447,0.770346,-0.005672,0.018064,0.218332,-0.975691,0.2987,-0.219687,-0.214936,0.382928,-0.190956,0.0689,-0.305248,0.120207,0.113161,0.268148,-0.023764,0.051713,-0.029259,-0.009166,0.064082,0.073618,0.145645,-0.303054,1.028156,0.94656,0.123986,-0.029607,0.271289,-0.145686,0.040939,0.826407,-0.935845,0.302386,-0.000136
-7.378308,3.395103,0.774114,-0.00387,0.017785,0.198588,-0.979914,0.248493,-0.217396,-0.232355,0.513912,-0.126001,-0.05093,-0.274641,0.105908,0.080245,0.273212,-0.063078,0.046391,-0.031899,0.003009,0.058723,0.079491,0.164812,-0.282976,1.018027,0.941557,0.119193,-0.035379,0.258172,-0.145952,0.041439,0.87616,-0.949557,0.322503,0.014062
-7.361784,3.385663,0.778892,-0.001849,0.017746,0.173401,-0.98469,0.183416,-0.214989,-0.24152,0.66822,-0.055858,-0.198487,-0.24378,0.091771,0.0389,0.277886,-0.096198,0.026486,-0.036349,0.010169,0.055407,0.079267,0.189421,-0.270725,0.99666,0.940784,0.11174,-0.038,0.235702,-0.142186,0.053044,0.926653,-0.973921,0.344676,0.042312
-7.346014,3.376205,0.781607,-0.001473,0.019617,0.142887,-0.989543,0.104664,-0.210066,-0.179861,0.832601,0.006303,-0.245656,-0.209324,0.074453,-0.010335,0.277639,-0.124371,0.001198,-0.047984,0.011285,0.055046,0.073159,0.21847,-0.266453,0.964654,0.937631,0.091358,-0.042639,0.210145,-0.138776,0.078476,0.96524,-1.009695,0.350619,0.075419
-7.330625,3.367297,0.783371,-0.00221,0.022975,0.114243,-0.993185,0.016508,-0.17967,-0.095242,0.980153,0.055915,-0.247666,-0.173651,0.057843,-0.058364,0.277129,-0.153527,-0.009866,-0.060942,0.01013,0.057982,0.064467,0.248679,-0.265757,0.924321,0.93207,0.067871,-0.040188,0.180563,-0.135023,0.103196,0.985647,-1.041571,0.34701,0.095997
-7.315202,3.359123,0.78442,-0.002282,0.026519,0.094793,-0.995141,-0.060774,-0.142944,-0.078497,1.078868,0.021602,-0.247685,-0.139329,0.050459,-0.093045,0.277913,-0.180231,-0.020545,-0.064039,0.011019,0.062386,0.057714,0.273808,-0.258967,0.876826,0.923043,0.050138,-0.020175,0.145145,-0.132333,0.127213,0.993102,-1.068352,0.334043,0.085884
-7.299674,3.351755,0.784677,-0.000518,0.030223,0.082745,-0.996112,-0.125957,-0.092647,-0.071568,1.12822,-0.045515,-0.246512,-0.106431,0.052311,-0.11623,0.280831,-0.206339,-0.028296,-0.059463,0.014339,0.067221,0.060046,0.285929,-0.231027,0.828472,0.899641,0.047213,0.016881,0.104455,-0.127587,0.146398,0.995778,-1.084541,0.319009,0.055586
-7.284006,3.345198,0.784352,0.001663,0.034601,0.077186,-0.996415,-0.180171,-0.0352,-0.039493,1.135057,-0.097879,-0.2214,-0.073786,0.05877,-0.128305,0.285458,-0.231938,-0.033903,-0.050141,0.019352,0.071687,0.073233,0.282823,-0.186234,0.782069,0.864615,0.05601,0.06811,0.058846,-0.123716,0.168834,0.997871,-1.0996,0.310423,0.029057
-7.268273,3.339484,0.783342,0.005197,0.038504,0.075399,-0.996396,-0.225123,0.004602,0.000827,1.104068,-0.159955,-0.14512,-0.046412,0.068795,-0.133867,0.298475,-0.260241,-0.03825,-0.038098,0.024835,0.075359,0.093783,0.273495,-0.1313,0.739779,0.812847,0.060295,0.118251,0.01314,-0.116664,0.185922,0.991661,-1.110506,0.299549,0.010654
-7.252369,3.334354,0.782066,0.008087,0.041361,0.075785,-0.996233,-0.260209,0.021881,0.02608,1.034043,-0.220083,-0.104516,-0.021519,0.078261,-0.13442,0.312501,-0.288527,-0.041256,-0.023858,0.029655,0.077841,0.113092,0.255838,-0.085568,0.704328,0.763559,0.066929,0.160511,-0.032648,-0.106226,0.188661,0.973,-1.102367,0.287062,0.004344
-7.236284,3.329693,0.780625,0.010423,0.042835,0.076812,-0.996071,-0.287929,0.024631,0.037268,0.932636,-0.260968,-0.082056,0.001327,0.086772,-0.131991,0.325076,-0.315539,-0.043186,-0.008578,0.033628,0.078854,0.132573,0.230545,-0.056921,0.671436,0.725597,0.076777,0.18862,-0.07859,-0.098915,0.181005,0.947274,-1.07704,0.268265,-0.011524
-7.21985,3.325306,0.779036,0.012157,0.04286,0.077864,-0.995968,-0.309118,0.020939,0.044566,0.809333,-0.281826,-0.046603,0.025567,0.093953,-0.129377,0.330801,-0.339582,-0.046669,0.006459,0.037195,0.078352,0.14132,0.207542,-0.04861,0.65648,0.706514,0.089124,0.202242,-0.118908,-0.086943,0.171022,0.911805,-1.043729,0.247244,-0.036417
-7.203041,3.320988,0.777199,0.013742,0.041808,0.078602,-0.995934,-0.32517,0.020123,0.060003,0.674576,-0.26692,-0.010168,0.052812,0.100888,-0.126773,0.327691,-0.362148,-0.042758,0.020596,0.040798,0.076646,0.153425,0.192033,-0.054024,0.653046,0.705612,0.099403,0.1991,-0.152649,-0.077996,0.167586,0.871322,-1.00927,0.226677,-0.066213
-7.18595,3.31657,0.775271,0.015706,0.040001,0.079405,-0.995916,-0.333921,0.022799,0.088631,0.533204,-0.223069,0.028624,0.081491,0.110472,-0.121725,0.317818,-0.374066,-0.05345,0.033403,0.044419,0.07389,0.160449,0.179383,-0.068721,0.668099,0.721638,0.111036,0.182602,-0.174715,-0.076002,0.17427,0.830451,-0.98024,0.203091,-0.100373
-7.16856,3.312096,0.773104,0.017066,0.037279,0.08091,-0.995878,-0.336684,0.02602,0.137326,0.391673,-0.145445,0.048139,0.111851,0.119299,-0.114876,0.300698,-0.383089,-0.056678,0.044116,0.047547,0.070057,0.169045,0.162333,-0.081467,0.694059,0.744356,0.125011,0.157763,-0.194209,-0.074772,0.189171,0.795156,-0.955229,0.184811,-0.12166
-7.150665,3.307722,0.770244,0.019084,0.03386,0.083707,-0.995732,-0.33505,0.027501,0.18893,0.265681,-0.077205,0.036434,0.140008,0.128737,-0.104986,0.287734,-0.394845,-0.054398,0.05288,0.049381,0.065863,0.17946,0.142283,-0.086319,0.726023,0.768547,0.136005,0.133866,-0.210755,-0.071829,0.206939,0.765972,-0.933152,0.168458,-0.132128
-7.132209,3.303493,0.766862,0.021694,0.030745,0.088087,-0.995402,-0.336192,0.024277,0.21302,0.179046,-0.067047,0.016227,0.166655,0.138351,-0.091238,0.281856,-0.407855,-0.05066,0.061245,0.049584,0.061961,0.193094,0.119121,-0.080714,0.762983,0.791417,0.143878,0.118964,-0.222527,-0.066774,0.224882,0.745923,-0.918277,0.16119,-0.129353
-7.113311,3.299454,0.763807,0.02285,0.028208,0.093708,-0.994938,-0.342108,0.01824,0.20976,0.140897,-0.06561,0.018561,0.195692,0.143836,-0.074517,0.274086,-0.418229,-0.04601,0.068747,0.047542,0.058231,0.208883,0.090546,-0.061337,0.805114,0.807022,0.15663,0.119454,-0.226648,-0.058433,0.237867,0.73289,-0.90674,0.158049,-0.118978
-7.09403,3.295684,0.76198,0.020392,0.025314,0.100943,-0.994361,-0.33937,0.006819,0.193003,0.133721,-0.012277,0.049708,0.225601,0.140469,-0.054358,0.260892,-0.420715,-0.040899,0.074964,0.042317,0.053873,0.223791,0.056074,-0.031992,0.850582,0.811772,0.173297,0.12596,-0.224254,-0.049528,0.246787,0.727717,-0.90198,0.162,-0.107962
-7.07415,3.292317,0.761516,0.016029,0.023202,0.108499,-0.993696,-0.326113,0.000557,0.19997,0.140697,0.056775,0.087472,0.253725,0.130401,-0.033441,0.254342,-0.415923,-0.033011,0.078769,0.033635,0.049206,0.237493,0.023607,-0.001622,0.894813,0.815176,0.18597,0.137364,-0.214653,-0.041105,0.256648,0.731001,-0.905248,0.172036,-0.10033
-7.053656,3.289228,0.764382,0.00907,0.023352,0.115837,-0.992952,-0.300807,-0.007492,0.216731,0.152916,0.081806,0.116692,0.280613,0.111704,-0.01643,0.264906,-0.398853,-0.014898,0.082248,0.020284,0.045763,0.246583,0.000499,0.018434,0.939513,0.828764,0.19474,0.15288,-0.19526,-0.035322,0.267468,0.744132,-0.909831,0.180768,-0.096449
-7.033309,3.28625,0.767771,0.000475,0.023682,0.121006,-0.992369,-0.273686,-0.021419,0.230289,0.163234,0.051381,0.111798,0.289155,0.086462,-0.006814,0.302753,-0.368814,0.015561,0.085914,0.002827,0.043428,0.2484,-0.010398,0.023999,0.976997,0.859435,0.191404,0.183464,-0.168984,-0.034185,0.279496,0.771116,-0.915495,0.194896,-0.094588
-7.013516,3.28325,0.770922,-0.007231,0.023723,0.124855,-0.991865,-0.243584,-0.035965,0.239904,0.166565,0.014969,0.103627,0.271813,0.062177,-0.001196,0.382673,-0.325725,0.05955,0.089982,-0.015551,0.042116,0.246044,-0.013683,0.029573,1.002205,0.892361,0.186903,0.225787,-0.140016,-0.039964,0.305282,0.81526,-0.931746,0.213055,-0.080672
-6.994927,3.280239,0.773259,-0.014383,0.02332,0.128688,-0.991307,-0.219951,-0.049085,0.248633,0.175206,-0.01909,0.102828,0.22382,0.040955,0.010301,0.509703,-0.26843,0.120384,0.094352,-0.03171,0.043447,0.242582,-0.017706,0.048579,1.005037,0.906772,0.174692,0.270591,-0.112512,-0.054235,0.343549,0.8702,-0.952105,0.226262,-0.037222
-6.977378,3.277219,0.774102,-0.021367,0.023854,0.132788,-0.990627,-0.20225,-0.06084,0.258145,0.194249,-0.054663,0.1051,0.15462,0.021595,0.026007,0.672341,-0.198157,0.208314,0.098775,-0.044924,0.047817,0.238821,-0.023126,0.071432,0.99111,0.904038,0.152888,0.308473,-0.088916,-0.080779,0.396296,0.923792,-0.977983,0.231343,0.039764
-6.959941,3.273865,0.77549,-0.027748,0.025188,0.136544,-0.989925,-0.183591,-0.071734,0.267178,0.214642,-0.090844,0.10454,0.078491,0.01242,0.033043,0.847001,-0.124958,0.246003,0.103926,-0.055865,0.054809,0.228704,-0.026245,0.080906,0.97166,0.895783,0.124087,0.331825,-0.066814,-0.113165,0.453816,0.962429,-1.00527,0.250232,0.124096
-6.942849,3.270251,0.775575,-0.032575,0.026693,0.140363,-0.989204,-0.161121,-0.08068,0.274712,0.226903,-0.124576,0.100094,-0.004714,0.000803,0.019044,1.013905,-0.043465,0.247663,0.110537,-0.064822,0.063717,0.209663,-0.020712,0.068426,0.953131,0.890969,0.094046,0.335919,-0.043888,-0.149327,0.518496,0.980086,-1.043552,0.279823,0.163793
-6.925955,3.266238,0.775747,-0.035487,0.028648,0.142111,-0.9888,-0.129636,-0.089474,0.276525,0.222754,-0.150138,0.094572,-0.087975,-0.023594,-0.001588,1.150509,0.068066,0.247728,0.116037,-0.072671,0.073397,0.17912,-0.002406,0.031699,0.944541,0.898412,0.070591,0.309595,-0.014708,-0.174529,0.559246,0.981836,-1.06372,0.319451,0.126559
-6.909597,3.261686,0.775777,-0.038037,0.030899,0.140733,-0.988834,-0.097166,-0.098954,0.271937,0.215532,-0.17195,0.088689,-0.163138,-0.043828,-0.007305,1.243769,0.132831,0.247726,0.117948,-0.079903,0.0826,0.140266,0.028954,-0.020842,0.95376,0.924025,0.039775,0.27743,0.026888,-0.184418,0.555729,0.980601,-1.043518,0.364214,0.039956
-6.893921,3.256571,0.775122,-0.041732,0.033454,0.136883,-0.989142,-0.074534,-0.108248,0.263566,0.226914,-0.200149,0.083337,-0.227592,-0.052921,0.013995,1.292205,0.08059,0.247709,0.114878,-0.08661,0.090786,0.093183,0.062019,-0.080357,0.967199,0.964187,0.023896,0.244351,0.066249,-0.194351,0.530886,0.981852,-1.012128,0.402231,-0.022046
-6.878473,3.251017,0.774024,-0.045077,0.036181,0.130445,-0.989769,-0.057815,-0.1157,0.250638,0.251446,-0.234048,0.079033,-0.283783,-0.061175,0.050804,1.300542,-0.034857,0.247031,0.106329,-0.093034,0.097918,0.043677,0.090465,-0.13585,0.979139,1.008875,0.020958,0.212071,0.102376,-0.198063,0.47742,0.977975,-0.959785,0.422039,-0.047095
-6.862827,3.24516,0.773003,-0.046827,0.038124,0.121998,-0.990692,-0.040212,-0.12052,0.232988,0.273425,-0.267139,0.074953,-0.33396,-0.084424,0.076133,1.268608,-0.14349,0.23099,0.092726,-0.098948,0.103762,-0.002007,0.108631,-0.165649,0.984552,1.03074,0.027766,0.186571,0.132207,-0.19478,0.402601,0.967217,-0.886238,0.419438,-0.037037
-6.84687,3.239069,0.772169,-0.047658,0.039151,0.114126,-0.99155,-0.019244,-0.123082,0.21484,0.287624,-0.297527,0.069713,-0.382099,-0.105096,0.078974,1.201564,-0.209179,0.15885,0.076841,-0.103983,0.108623,-0.040052,0.117885,-0.172696,0.980956,1.028408,0.039172,0.167984,0.15199,-0.193441,0.342191,0.953209,-0.826241,0.403565,-0.013785
-6.830566,3.232722,0.771288,-0.048939,0.038728,0.10712,-0.992286,0.002459,-0.125004,0.197914,0.296538,-0.326494,0.06241,-0.422991,-0.113641,0.08688,1.099256,-0.263533,0.094796,0.059969,-0.10728,0.112617,-0.068679,0.119582,-0.163833,0.966967,1.006026,0.048154,0.164031,0.163197,-0.202557,0.323988,0.939519,-0.80717,0.376518,0.011127
-6.813692,3.226359,0.770662,-0.048722,0.03639,0.101392,-0.992986,0.02905,-0.124042,0.181577,0.290756,-0.349127,0.055733,-0.452472,-0.109566,0.101874,0.964406,-0.283799,0.061728,0.044463,-0.108456,0.115115,-0.088514,0.11864,-0.147961,0.945026,0.968523,0.044957,0.169608,0.166871,-0.216616,0.340782,0.922006,-0.825156,0.342235,0.016901
-6.796267,3.219924,0.770052,-0.047402,0.032818,0.096457,-0.993666,0.059643,-0.120418,0.165884,0.273407,-0.366092,0.048989,-0.469096,-0.088447,0.138057,0.80577,-0.257847,0.06351,0.030851,-0.106887,0.116046,-0.100675,0.119768,-0.137502,0.920378,0.931325,0.037259,0.181747,0.167817,-0.227784,0.366842,0.902214,-0.856986,0.313396,0.010875
-6.778197,3.21341,0.768986,-0.04557,0.028331,0.09152,-0.994356,0.091145,-0.115005,0.150593,0.251814,-0.381227,0.041817,-0.470166,-0.058506,0.195941,0.630947,-0.212564,0.097296,0.019272,-0.102427,0.115252,-0.106161,0.123522,-0.141161,0.896928,0.904476,0.02422,0.197584,0.169683,-0.232087,0.383176,0.880746,-0.884939,0.298823,0.001521
-6.759445,3.206753,0.767332,-0.043426,0.024425,0.08581,-0.995065,0.125145,-0.108356,0.135027,0.228786,-0.395303,0.034843,-0.457016,-0.034803,0.258415,0.460916,-0.184418,0.119906,0.009978,-0.095917,0.113137,-0.106757,0.127652,-0.154795,0.880069,0.883574,0.014007,0.205823,0.176186,-0.226879,0.381446,0.855978,-0.896025,0.28751,-0.0045
-6.740157,3.199705,0.765416,-0.040339,0.021618,0.080761,-0.995682,0.162627,-0.098011,0.12181,0.203863,-0.404538,0.025033,-0.441342,-0.028238,0.266958,0.331979,-0.146037,0.152107,0.004708,-0.088611,0.110168,-0.105231,0.13521,-0.178366,0.87282,0.873125,0.011977,0.201439,0.18673,-0.211812,0.362338,0.830283,-0.888706,0.275925,-0.002348
-6.720349,3.19193,0.762901,-0.036181,0.020685,0.076498,-0.996198,0.201487,-0.082392,0.1116,0.185846,-0.416482,0.011875,-0.431123,-0.029246,0.22144,0.295613,-0.088889,0.161333,0.001859,-0.080471,0.107011,-0.099835,0.144519,-0.20612,0.870783,0.869267,0.010682,0.186362,0.195917,-0.193476,0.340757,0.80787,-0.878582,0.268254,0.002952
-6.700612,3.183495,0.761796,-0.031168,0.022771,0.073111,-0.996577,0.239492,-0.061644,0.105604,0.184439,-0.429978,-0.002883,-0.425365,-0.023338,0.176735,0.341547,-0.041988,0.137497,-0.001814,-0.07063,0.104579,-0.087051,0.156757,-0.234035,0.870027,0.873389,0.012371,0.159032,0.199191,-0.177722,0.329372,0.793392,-0.879267,0.262376,0.001616
-6.680487,3.174824,0.761434,-0.023259,0.025449,0.071688,-0.996831,0.272127,-0.032892,0.107548,0.198638,-0.433898,-0.019046,-0.416877,-0.001117,0.151436,0.397002,-0.045294,0.1126,-0.006855,-0.057152,0.10357,-0.06216,0.170521,-0.250215,0.861611,0.881804,0.022688,0.136424,0.191334,-0.165926,0.333469,0.792888,-0.896263,0.250196,0.008856
-6.659893,3.166035,0.763022,-0.016588,0.029384,0.071493,-0.99687,0.293068,-0.005727,0.112143,0.243574,-0.419801,-0.031924,-0.394942,0.022476,0.137333,0.44567,-0.07759,0.075569,-0.013283,-0.040824,0.103597,-0.023348,0.170791,-0.246185,0.848228,0.881,0.036683,0.132487,0.177181,-0.159533,0.331854,0.804586,-0.91812,0.245337,0.013428
-6.640263,3.157776,0.766661,-0.010255,0.031932,0.068215,-0.997107,0.289092,0.021538,0.109889,0.314924,-0.376676,-0.0375,-0.35872,0.038083,0.119779,0.456205,-0.109523,0.053918,-0.020222,-0.024895,0.102829,0.02025,0.156947,-0.223585,0.841891,0.864848,0.055036,0.139825,0.161505,-0.150879,0.314315,0.822567,-0.935559,0.260027,0.01623
-6.621824,3.149928,0.771169,-0.004751,0.032294,0.060313,-0.997646,0.253404,0.048648,0.096462,0.423363,-0.315164,-0.035774,-0.316087,0.046013,0.096815,0.440921,-0.133463,0.0416,-0.027325,-0.010594,0.101107,0.054655,0.138017,-0.198145,0.850354,0.843084,0.076345,0.144819,0.147696,-0.138275,0.282118,0.83915,-0.944635,0.284218,0.015582
-6.604282,3.142526,0.775722,-0.000644,0.032549,0.049563,-0.99824,0.196025,0.074408,0.081178,0.558759,-0.229478,-0.038894,-0.268198,0.049107,0.071752,0.410119,-0.149619,0.029658,-0.034335,0.002031,0.098969,0.078195,0.126664,-0.188567,0.873149,0.833801,0.094727,0.123645,0.133426,-0.122665,0.229869,0.859003,-0.936423,0.309434,0.001298
-6.587196,3.135509,0.780312,0.001638,0.033038,0.037234,-0.998759,0.125388,0.099942,0.069739,0.708322,-0.149742,-0.066692,-0.218455,0.048533,0.045808,0.373482,-0.162411,0.021031,-0.040108,0.012207,0.097474,0.094307,0.125128,-0.204322,0.894331,0.851721,0.111398,0.064481,0.122443,-0.107206,0.172014,0.87848,-0.915601,0.322852,-0.021409
-6.570767,3.129062,0.782889,0.003068,0.034467,0.024467,-0.999102,0.04779,0.120313,0.06064,0.854329,-0.109062,-0.050019,-0.169865,0.047798,0.020126,0.338223,-0.174242,0.013498,-0.043458,0.020604,0.097682,0.098929,0.137172,-0.235324,0.90954,0.888751,0.114684,-0.004119,0.110341,-0.096238,0.129449,0.889385,-0.898751,0.324898,-0.040058
-6.55488,3.123328,0.784352,0.004904,0.036091,0.012202,-0.999262,-0.026121,0.128127,0.046665,0.968004,-0.131438,-0.042218,-0.126582,0.049802,-0.004297,0.310685,-0.18742,0.005691,-0.044199,0.02773,0.099047,0.100273,0.154795,-0.260606,0.911104,0.927554,0.111141,-0.048851,0.095295,-0.093974,0.11662,0.897372,-0.901163,0.312423,-0.050439
-6.539303,3.118346,0.785188,0.005619,0.037792,0.001776,-0.999268,-0.093221,0.120677,0.02984,1.043192,-0.152078,-0.064875,-0.090274,0.051613,-0.024795,0.294912,-0.203681,-0.001045,-0.042615,0.033058,0.101347,0.105485,0.168643,-0.266147,0.89871,0.952469,0.106459,-0.057776,0.076358,-0.09931,0.125988,0.905208,-0.919557,0.295389,-0.05488
-6.523921,3.11412,0.785363,0.005886,0.03981,-0.006745,-0.999167,-0.152605,0.108108,0.021108,1.078507,-0.150707,-0.073672,-0.062529,0.053556,-0.04204,0.296363,-0.225675,-0.007632,-0.039395,0.036687,0.104028,0.118244,0.174886,-0.24563,0.876731,0.954577,0.106089,-0.029502,0.054115,-0.108004,0.149818,0.916854,-0.946253,0.282037,-0.051287
-6.508744,3.11055,0.784992,0.005899,0.041586,-0.013356,-0.999028,-0.20555,0.09482,0.020385,1.076916,-0.160967,-0.076493,-0.042325,0.05553,-0.056422,0.310535,-0.25092,-0.014973,-0.034691,0.039451,0.106831,0.136225,0.16838,-0.20377,0.851422,0.931505,0.114054,0.01673,0.031753,-0.115734,0.180576,0.924646,-0.972353,0.281437,-0.045789
-6.493646,3.107572,0.784275,0.006347,0.042871,-0.019007,-0.99888,-0.251574,0.082669,0.02496,1.038274,-0.189851,-0.072509,-0.02391,0.058292,-0.069337,0.3259,-0.276182,-0.020937,-0.02873,0.041967,0.109072,0.153852,0.152966,-0.154829,0.830465,0.892072,0.119703,0.069384,0.005972,-0.118383,0.206002,0.933875,-0.989848,0.280295,-0.036171
-6.478522,3.105103,0.783502,0.006565,0.043489,-0.024911,-0.998722,-0.287835,0.071731,0.034893,0.963342,-0.21625,-0.068298,-0.003472,0.060254,-0.081849,0.334768,-0.29831,-0.025038,-0.021339,0.044383,0.110068,0.167403,0.142604,-0.117254,0.814655,0.854985,0.116576,0.102722,-0.015196,-0.122869,0.22268,0.938499,-0.997463,0.276364,-0.024496
-6.463284,3.103028,0.782585,0.006861,0.042781,-0.030999,-0.99858,-0.317171,0.065144,0.052806,0.861239,-0.227489,-0.05754,0.01758,0.062476,-0.09376,0.337765,-0.317471,-0.028602,-0.012874,0.046817,0.109433,0.175062,0.139571,-0.100362,0.803921,0.835087,0.112076,0.11083,-0.032318,-0.12647,0.229479,0.935196,-0.995416,0.271024,-0.020718
-6.447794,3.101226,0.781342,0.007352,0.040952,-0.035395,-0.998507,-0.337286,0.061018,0.077573,0.736014,-0.221269,-0.032179,0.039289,0.066261,-0.102157,0.335285,-0.334007,-0.031737,-0.00379,0.049122,0.106946,0.180008,0.140315,-0.095231,0.794173,0.830131,0.110343,0.109771,-0.04597,-0.129789,0.233596,0.926169,-0.99075,0.265356,-0.024716
-6.432037,3.099636,0.779541,0.0088,0.038045,-0.038918,-0.998479,-0.350048,0.059641,0.109809,0.598187,-0.204199,-0.014203,0.06096,0.072852,-0.108269,0.328603,-0.348575,-0.034171,0.005804,0.051498,0.102918,0.180647,0.142004,-0.095336,0.789539,0.831583,0.108886,0.104179,-0.054102,-0.133188,0.234476,0.913175,-0.982112,0.256659,-0.03475
-6.415914,3.098225,0.777296,0.010394,0.034531,-0.040968,-0.998509,-0.359641,0.054923,0.142143,0.461138,-0.175576,-0.009032,0.083894,0.080791,-0.110866,0.317289,-0.36055,-0.036079,0.015703,0.054002,0.098389,0.183402,0.141897,-0.09652,0.786122,0.837102,0.109145,0.09595,-0.062636,-0.132305,0.231951,0.899608,-0.969191,0.249877,-0.046377
-6.399267,3.097145,0.774429,0.013134,0.030856,-0.040956,-0.998598,-0.363927,0.045921,0.162132,0.328075,-0.145266,-0.013103,0.106271,0.091218,-0.109172,0.308198,-0.374017,-0.037563,0.025222,0.05596,0.093834,0.189741,0.13933,-0.092085,0.782299,0.840129,0.109435,0.091939,-0.071233,-0.12691,0.229979,0.889093,-0.955849,0.246428,-0.056359
-6.38202,3.096315,0.771242,0.01532,0.027662,-0.038142,-0.998772,-0.364683,0.032982,0.162226,0.211424,-0.119549,-0.020462,0.131718,0.101237,-0.101129,0.296863,-0.387206,-0.038829,0.034179,0.056838,0.089769,0.200706,0.131465,-0.081134,0.780057,0.83719,0.110629,0.090735,-0.079426,-0.121348,0.234671,0.883337,-0.94765,0.244317,-0.061231
-6.3642,3.095861,0.767667,0.018122,0.02573,-0.033034,-0.998959,-0.376547,0.022306,0.136263,0.15377,-0.113518,-0.033471,0.157507,0.111785,-0.088614,0.292268,-0.401255,-0.03967,0.04278,0.056225,0.087489,0.213713,0.124427,-0.069935,0.782034,0.835848,0.115028,0.087107,-0.087006,-0.112941,0.241946,0.882058,-0.942002,0.241383,-0.061318
-6.346003,3.09584,0.764173,0.020422,0.024168,-0.027682,-0.999116,-0.38404,0.01307,0.105626,0.135705,-0.110036,-0.054085,0.183789,0.120102,-0.074663,0.289308,-0.41528,-0.039605,0.050202,0.054564,0.085366,0.225414,0.118289,-0.063813,0.791163,0.839126,0.119469,0.082521,-0.091824,-0.104012,0.250323,0.884858,-0.941085,0.243132,-0.058492
-6.327518,3.096329,0.761754,0.020267,0.022421,-0.021107,-0.99932,-0.383621,-0.001626,0.063028,0.147317,-0.075123,-0.03889,0.210936,0.121735,-0.058235,0.283074,-0.422143,-0.037166,0.057283,0.051075,0.082797,0.232707,0.11229,-0.064901,0.808124,0.8501,0.123022,0.074277,-0.092709,-0.096632,0.259504,0.887851,-0.944743,0.246664,-0.057611
-6.308507,3.097477,0.761348,0.016461,0.021452,-0.012487,-0.999556,-0.375353,-0.025773,0.017082,0.170031,-0.009398,0.01279,0.241918,0.11332,-0.039078,0.271641,-0.415099,-0.033358,0.064569,0.04536,0.079196,0.23697,0.103753,-0.066553,0.833461,0.864235,0.128319,0.056768,-0.085578,-0.092492,0.269277,0.888597,-0.948272,0.246191,-0.052182
-6.288363,3.099521,0.764341,0.012187,0.021289,-0.004131,-0.999691,-0.357622,-0.045231,-0.002627,0.178536,0.082723,0.071691,0.275863,0.100734,-0.021916,0.26631,-0.39443,-0.026262,0.071701,0.037904,0.074218,0.236862,0.09683,-0.066784,0.862541,0.883629,0.13306,0.0428,-0.070185,-0.091954,0.280851,0.885458,-0.95069,0.240691,-0.043943
-6.268132,3.1021,0.765729,0.005478,0.019764,0.001151,-0.999789,-0.333693,-0.057354,0.009587,0.18941,0.092549,0.075382,0.299125,0.080066,-0.009939,0.27023,-0.363092,-0.006144,0.076943,0.027884,0.0682,0.229446,0.088161,-0.063747,0.895425,0.907263,0.146676,0.035441,-0.049603,-0.098199,0.292772,0.881032,-0.952097,0.229914,-0.038102
-6.247783,3.104816,0.768768,-0.002386,0.01757,0.003491,-0.999837,-0.309401,-0.073456,0.021317,0.196832,0.059128,0.067161,0.304535,0.055372,-0.00364,0.303653,-0.320596,0.024634,0.08105,0.013947,0.061913,0.216386,0.076591,-0.048774,0.926667,0.919874,0.160597,0.034413,-0.025363,-0.10872,0.303738,0.881075,-0.952209,0.216541,-0.035338
-6.227606,3.107343,0.772011,-0.009662,0.015908,0.004331,-0.999817,-0.277574,-0.089772,0.028675,0.192219,0.024145,0.059165,0.293125,0.032813,0.001381,0.365642,-0.264983,0.061443,0.084611,-0.001679,0.056315,0.203447,0.069018,-0.029245,0.950476,0.92746,0.170717,0.038784,0.006464,-0.119593,0.313154,0.8864,-0.960171,0.214673,-0.022111
-6.208038,3.10982,0.774728,-0.016255,0.014356,0.007002,-0.99974,-0.245312,-0.104172,0.03801,0.184513,-0.005575,0.059407,0.259494,0.012481,0.013305,0.462862,-0.200193,0.111407,0.087847,-0.01598,0.052652,0.192152,0.06155,-0.006826,0.960038,0.928279,0.178643,0.037278,0.030011,-0.132433,0.335387,0.899834,-0.97667,0.214837,0.015234
-6.189375,3.112091,0.776033,-0.022831,0.013433,0.013475,-0.999558,-0.217306,-0.115977,0.053148,0.183664,-0.036065,0.062887,0.199212,-0.004804,0.037029,0.604966,-0.131616,0.1767,0.089795,-0.028044,0.051821,0.182499,0.053822,0.010795,0.950862,0.926183,0.17029,0.038902,0.034046,-0.153185,0.371944,0.919979,-0.995808,0.217329,0.068813
-6.171081,3.114084,0.777325,-0.0286,0.014156,0.020482,-0.999281,-0.193002,-0.126088,0.06908,0.194725,-0.070512,0.067722,0.125929,-0.017339,0.059352,0.773067,-0.067865,0.235159,0.091566,-0.038846,0.05412,0.173328,0.050869,0.021121,0.931924,0.923464,0.148854,0.04758,0.037094,-0.179584,0.409026,0.924486,-1.012372,0.208427,0.121978
-6.153279,3.115746,0.777256,-0.033131,0.015888,0.028648,-0.998914,-0.168933,-0.133611,0.084862,0.207674,-0.105022,0.072558,0.042532,-0.028324,0.060681,0.942968,0.00116,0.24717,0.094598,-0.048694,0.059134,0.168372,0.054333,0.02937,0.914934,0.916597,0.111191,0.074174,0.043184,-0.207254,0.432326,0.910384,-1.018535,0.198241,0.152433
-6.135704,3.11706,0.776955,-0.036718,0.018113,0.037273,-0.998466,-0.139954,-0.140195,0.099296,0.21244,-0.135409,0.077658,-0.044158,-0.048925,0.050513,1.093565,0.07854,0.247705,0.097504,-0.058029,0.065763,0.14578,0.05524,0.037341,0.906498,0.907242,0.093141,0.101819,0.055009,-0.221936,0.433008,0.889064,-1.011719,0.211109,0.140202
-6.118522,3.117718,0.776392,-0.040327,0.020292,0.044252,-0.998,-0.112078,-0.147306,0.110928,0.217678,-0.164339,0.081506,-0.127512,-0.065743,0.056722,1.206614,0.109449,0.247707,0.096996,-0.067555,0.072428,0.117186,0.055744,0.044731,0.902969,0.893202,0.086104,0.123866,0.065911,-0.230307,0.40664,0.863798,-0.992368,0.234393,0.096571
-6.101752,3.117758,0.775351,-0.044723,0.022747,0.049948,-0.997491,-0.088816,-0.155704,0.121441,0.23142,-0.195727,0.083926,-0.2017,-0.066216,0.085165,1.273767,0.045135,0.247445,0.092128,-0.077076,0.077851,0.082335,0.050433,0.052243,0.905397,0.875108,0.100796,0.138936,0.082269,-0.229075,0.355533,0.836603,-0.95842,0.266494,0.035019
-6.08502,3.117321,0.774155,-0.047733,0.025162,0.053695,-0.997098,-0.067197,-0.16195,0.127971,0.248903,-0.228385,0.08546,-0.268585,-0.061727,0.113591,1.297815,-0.041141,0.244421,0.083919,-0.085473,0.081536,0.050462,0.045498,0.06113,0.906971,0.851201,0.118763,0.14987,0.094664,-0.218178,0.297431,0.8158,-0.916106,0.296763,-0.023718
-6.068177,3.116585,0.772862,-0.049798,0.026509,0.056081,-0.996831,-0.048318,-0.166836,0.131179,0.268745,-0.261795,0.087172,-0.333507,-0.053824,0.13988,1.283461,-0.115409,0.210216,0.072195,-0.092355,0.083574,0.021306,0.041864,0.067551,0.904944,0.823146,0.130798,0.160186,0.101702,-0.204773,0.247985,0.798555,-0.873448,0.310966,-0.063368
-6.051113,3.115679,0.771579,-0.051247,0.02642,0.057956,-0.996653,-0.029337,-0.171106,0.132272,0.284013,-0.293229,0.08916,-0.395602,-0.04318,0.163027,1.232199,-0.179813,0.140596,0.058313,-0.097493,0.084358,-0.00078,0.041449,0.06853,0.89661,0.79138,0.129046,0.169128,0.097795,-0.19953,0.227364,0.793376,-0.852809,0.313908,-0.078028
-6.03374,3.114552,0.770317,-0.052446,0.024875,0.059041,-0.996567,-0.00918,-0.175144,0.131177,0.292474,-0.321713,0.090812,-0.448238,-0.037442,0.178353,1.138729,-0.237395,0.092657,0.043944,-0.100934,0.083951,-0.024406,0.041541,0.055503,0.886298,0.762541,0.120531,0.17638,0.093884,-0.202158,0.228048,0.786941,-0.849289,0.306434,-0.074629
-6.015926,3.113329,0.769225,-0.052694,0.02208,0.058579,-0.996647,0.016461,-0.178538,0.125801,0.28626,-0.343543,0.092074,-0.486694,-0.037413,0.179008,1.005698,-0.266305,0.063402,0.029763,-0.102791,0.082478,-0.047178,0.045584,0.026612,0.875249,0.739718,0.102624,0.17762,0.093239,-0.206694,0.23529,0.776379,-0.852064,0.291178,-0.063439
-5.997633,3.112103,0.768133,-0.051981,0.018019,0.056155,-0.996905,0.045582,-0.181059,0.115658,0.269199,-0.360181,0.092992,-0.508751,-0.03836,0.170051,0.840101,-0.252769,0.049499,0.016648,-0.102737,0.080272,-0.069628,0.054171,-0.018585,0.865604,0.730619,0.081566,0.176836,0.097897,-0.211138,0.243858,0.764275,-0.86201,0.277497,-0.049603
-5.978891,3.110938,0.766884,-0.050219,0.013135,0.051241,-0.997336,0.077341,-0.182319,0.099904,0.243952,-0.370857,0.093636,-0.513032,-0.034687,0.162888,0.649878,-0.19509,0.068922,0.005132,-0.100388,0.077281,-0.093239,0.064586,-0.075972,0.860319,0.734675,0.063583,0.16884,0.109118,-0.210146,0.242748,0.750597,-0.868735,0.267084,-0.038938
-5.959619,3.109754,0.765109,-0.048224,0.008054,0.044765,-0.9978,0.109781,-0.182835,0.080788,0.217657,-0.378314,0.09439,-0.503176,-0.026934,0.172455,0.451202,-0.121666,0.120008,-0.004782,-0.095841,0.07389,-0.115579,0.073227,-0.135328,0.857789,0.745928,0.052604,0.155956,0.126321,-0.205086,0.231955,0.738101,-0.873473,0.26003,-0.029243
-5.939534,3.108385,0.762748,-0.04625,0.004025,0.036176,-0.998267,0.143962,-0.182523,0.058133,0.195053,-0.385135,0.094508,-0.480861,-0.019479,0.199998,0.272269,-0.079972,0.154757,-0.013361,-0.089727,0.070382,-0.134867,0.079464,-0.195917,0.856887,0.766398,0.03917,0.141882,0.148527,-0.196732,0.2117,0.728061,-0.875107,0.258664,-0.020915
-5.918627,3.106291,0.75978,-0.04679,0.00344,0.027519,-0.99852,0.180853,-0.183867,0.036524,0.184442,-0.397593,0.092273,-0.465457,-0.020543,0.212689,0.183684,-0.098655,0.202756,-0.019687,-0.083571,0.068666,-0.148672,0.082654,-0.255667,0.860398,0.797287,0.028121,0.130068,0.174088,-0.188003,0.188103,0.723368,-0.876418,0.262402,-0.01391
-5.897382,3.103713,0.757961,-0.04361,0.004128,0.022043,-0.998797,0.220518,-0.175103,0.019808,0.172894,-0.401834,0.086144,-0.458383,-0.016602,0.191081,0.196083,-0.05232,0.199529,-0.023774,-0.077123,0.067581,-0.153963,0.087236,-0.302429,0.864744,0.827671,0.029142,0.120671,0.192358,-0.172826,0.171367,0.731031,-0.88136,0.270335,-0.007779
-5.875431,3.100599,0.757896,-0.0385,0.006349,0.017281,-0.999089,0.261471,-0.158998,0.009531,0.166058,-0.398291,0.076261,-0.451277,-0.006653,0.163616,0.239825,0.018031,0.15273,-0.028478,-0.067829,0.065641,-0.147307,0.089224,-0.332815,0.866886,0.848636,0.037446,0.119588,0.199817,-0.156552,0.16378,0.755366,-0.890925,0.277947,-0.006487
-5.85297,3.097154,0.763023,-0.03042,0.009599,0.012671,-0.999411,0.301734,-0.136243,0.004702,0.169507,-0.377305,0.071104,-0.423631,0.011384,0.146405,0.261251,0.054689,0.101975,-0.034359,-0.053672,0.062061,-0.128451,0.08908,-0.351535,0.872048,0.857072,0.041523,0.120336,0.198109,-0.141664,0.167336,0.800207,-0.910098,0.290692,0.001882
-5.830058,3.093828,0.767961,-0.022388,0.013724,0.008931,-0.999615,0.323814,-0.112184,0.00533,0.20374,-0.336215,0.064975,-0.387348,0.027162,0.127433,0.278819,0.032802,0.076261,-0.039829,-0.034824,0.05782,-0.101639,0.082119,-0.357228,0.88787,0.849354,0.054144,0.123037,0.190474,-0.130399,0.173346,0.855333,-0.935949,0.310068,0.017708
-5.807371,3.090887,0.772907,-0.01506,0.016752,0.004872,-0.999734,0.321657,-0.089135,0.00776,0.272418,-0.281899,0.051358,-0.3454,0.037259,0.107679,0.284191,-0.005363,0.077737,-0.04448,-0.014103,0.052592,-0.077261,0.075683,-0.368547,0.918602,0.841627,0.071141,0.107265,0.180895,-0.121263,0.172576,0.906601,-0.95962,0.333271,0.037761
-5.785282,3.088074,0.777331,-0.009435,0.017996,-0.000657,-0.999793,0.295331,-0.068366,0.007538,0.37076,-0.209281,0.023813,-0.300098,0.043344,0.090161,0.274928,-0.039036,0.074516,-0.049433,0.004643,0.046861,-0.063596,0.082601,-0.409564,0.954422,0.863797,0.071739,0.060735,0.17034,-0.11277,0.16449,0.942912,-0.977909,0.357164,0.060662
-5.763909,3.085058,0.779292,-0.005061,0.018898,-0.007976,-0.999777,0.245451,-0.047075,0.004638,0.504301,-0.127854,-0.036088,-0.254757,0.048605,0.072906,0.264088,-0.06239,0.058059,-0.054581,0.01881,0.042282,-0.059033,0.106748,-0.4658,0.9828,0.910611,0.062112,-0.001454,0.162132,-0.102346,0.148718,0.954625,-0.983311,0.362895,0.077661
-5.743199,3.081729,0.782714,-0.002185,0.01996,-0.014908,-0.999687,0.178925,-0.026018,0.001392,0.664828,-0.049792,-0.11784,-0.220293,0.055428,0.058695,0.267565,-0.092258,0.038517,-0.060693,0.028686,0.040422,-0.058635,0.140424,-0.507673,0.991669,0.955636,0.045231,-0.054527,0.153035,-0.093415,0.13669,0.948748,-0.985934,0.351897,0.082922
-5.723209,3.078231,0.784159,-2.6e-05,0.02192,-0.021715,-0.999524,0.098547,-0.003362,0.001285,0.832382,0.0334,-0.188664,-0.188542,0.063051,0.045262,0.275742,-0.12469,0.019322,-0.067542,0.035397,0.041825,-0.053096,0.17299,-0.512214,0.977912,0.973264,0.034272,-0.071028,0.142049,-0.085878,0.128766,0.930252,-0.985674,0.328203,0.07117
-5.70404,3.075018,0.784783,0.002107,0.024323,-0.029544,-0.999265,0.013552,0.022129,0.005884,0.984254,0.101756,-0.222745,-0.155593,0.070142,0.030146,0.27922,-0.154061,0.001727,-0.073776,0.040257,0.046591,-0.040247,0.200314,-0.482463,0.948633,0.963155,0.042541,-0.051127,0.129174,-0.080551,0.126371,0.908087,-0.984446,0.302106,0.044902
-5.68553,3.07253,0.784979,0.004271,0.027212,-0.038846,-0.998866,-0.069713,0.039889,0.001013,1.101684,0.103472,-0.224244,-0.120958,0.075518,0.012617,0.279251,-0.181564,-0.012919,-0.078348,0.043556,0.053927,-0.021832,0.216543,-0.426308,0.915002,0.924692,0.057264,-0.002015,0.113635,-0.076887,0.125084,0.88857,-0.980552,0.279566,0.0085
-5.667581,3.070944,0.784761,0.006258,0.030706,-0.046901,-0.998408,-0.144357,0.045213,-0.01128,1.172778,0.045404,-0.211542,-0.087911,0.080222,-0.003609,0.282024,-0.209123,-0.022977,-0.080414,0.045379,0.062686,0.00053,0.229772,-0.35814,0.886501,0.864974,0.065907,0.052886,0.089519,-0.074824,0.124876,0.888408,-0.981538,0.265093,-0.027951
-5.649959,3.070218,0.784285,0.007188,0.033975,-0.052808,-0.998001,-0.213703,0.045001,-0.019944,1.202329,-0.000503,-0.189633,-0.058493,0.083526,-0.015037,0.289231,-0.236442,-0.031216,-0.078801,0.046078,0.071209,0.020783,0.235479,-0.299013,0.863617,0.808198,0.078786,0.094645,0.073072,-0.074864,0.124593,0.898497,-0.983881,0.253982,-0.057438
-5.63243,3.070231,0.783513,0.00759,0.036202,-0.056398,-0.997723,-0.276123,0.043201,-0.023614,1.188468,-0.049997,-0.149581,-0.033996,0.086377,-0.021774,0.301502,-0.26457,-0.038415,-0.073084,0.045776,0.07839,0.035614,0.242319,-0.253805,0.843986,0.768602,0.097071,0.125914,0.048848,-0.071894,0.127312,0.905739,-0.98673,0.251108,-0.064449
-5.614781,3.070873,0.782365,0.008402,0.037085,-0.058692,-0.997552,-0.329995,0.045233,-0.022211,1.131238,-0.117387,-0.118738,-0.013214,0.089817,-0.026262,0.316273,-0.293309,-0.044376,-0.063298,0.045182,0.08399,0.047301,0.248444,-0.222675,0.824634,0.741572,0.112265,0.147018,0.023815,-0.06885,0.133015,0.907542,-0.987696,0.249414,-0.059874
-5.596664,3.072049,0.780905,0.009619,0.036471,-0.059919,-0.99749,-0.373782,0.048753,-0.015234,1.032693,-0.170941,-0.083516,0.008017,0.093761,-0.02875,0.326585,-0.320721,-0.049728,-0.050264,0.044978,0.087834,0.058317,0.251807,-0.207137,0.803853,0.734776,0.129994,0.166107,-0.001935,-0.066897,0.14979,0.899948,-0.987541,0.246925,-0.050074
-5.577855,3.07364,0.779005,0.01116,0.034383,-0.060302,-0.997525,-0.405178,0.050779,-0.006345,0.895905,-0.200295,-0.057771,0.031169,0.09825,-0.029079,0.33061,-0.346992,-0.054999,-0.035437,0.045375,0.089714,0.065742,0.247325,-0.198456,0.791181,0.728399,0.137121,0.177448,-0.025754,-0.06874,0.170979,0.892662,-0.988471,0.238862,-0.045601
-5.55832,3.075489,0.776489,0.013441,0.030578,-0.059621,-0.997662,-0.421625,0.047408,-0.004599,0.723292,-0.203774,-0.033194,0.055054,0.104339,-0.027146,0.328433,-0.37104,-0.058941,-0.019609,0.046199,0.089577,0.071723,0.244295,-0.191136,0.789251,0.722011,0.141286,0.17918,-0.041424,-0.077014,0.195035,0.883683,-0.989317,0.222753,-0.048009
-5.537879,3.077601,0.77343,0.016023,0.026394,-0.058234,-0.997825,-0.422598,0.038485,-0.014092,0.527346,-0.176564,-0.02193,0.08342,0.110904,-0.022996,0.319074,-0.392185,-0.060439,-0.003715,0.04707,0.087693,0.083185,0.239206,-0.186804,0.791665,0.723691,0.147736,0.173336,-0.055029,-0.085709,0.220169,0.875246,-0.989358,0.208816,-0.04931
-5.516663,3.079825,0.770315,0.016798,0.022084,-0.055239,-0.998088,-0.413519,0.025689,-0.028678,0.332017,-0.116836,-0.022585,0.118236,0.114315,-0.014436,0.298164,-0.404854,-0.060613,0.011014,0.047018,0.084822,0.101646,0.225745,-0.178869,0.794587,0.726656,0.151124,0.166556,-0.066851,-0.094172,0.24207,0.86981,-0.986046,0.200675,-0.048104
-5.494768,3.082557,0.766526,0.019335,0.019246,-0.051224,-0.998315,-0.405157,0.019032,-0.029642,0.189646,-0.092534,-0.066464,0.151267,0.120045,-0.004267,0.289346,-0.418812,-0.060084,0.022831,0.046479,0.082928,0.127964,0.208634,-0.16346,0.798578,0.727299,0.153992,0.157492,-0.077248,-0.098074,0.26005,0.869812,-0.978878,0.197764,-0.045024
-5.472662,3.085844,0.763008,0.021011,0.017943,-0.046903,-0.998517,-0.403493,0.014062,-0.015685,0.133362,-0.08626,-0.147852,0.182466,0.122388,0.007281,0.290123,-0.430261,-0.05758,0.032202,0.045052,0.082431,0.156529,0.188471,-0.150837,0.805998,0.73435,0.156566,0.147694,-0.085135,-0.100591,0.27389,0.8756,-0.972052,0.20183,-0.042273
-5.450494,3.089538,0.761254,0.018177,0.016579,-0.042099,-0.998811,-0.394973,-0.004164,-0.025201,0.137498,-0.030102,-0.148519,0.211148,0.113949,0.019939,0.294488,-0.433459,-0.052112,0.041755,0.040264,0.081684,0.181624,0.16318,-0.145785,0.821675,0.747961,0.158231,0.135274,-0.088994,-0.104986,0.283157,0.885339,-0.969016,0.213462,-0.038088
-5.427396,3.093859,0.76348,0.012049,0.016418,-0.036587,-0.999123,-0.375117,-0.030529,-0.050641,0.15063,0.051513,-0.120518,0.238771,0.09717,0.031562,0.312266,-0.422785,-0.044169,0.051557,0.030709,0.079734,0.200791,0.137769,-0.146196,0.847609,0.767916,0.164437,0.124091,-0.084321,-0.108839,0.286705,0.892845,-0.969244,0.231184,-0.034378
-5.404374,3.098802,0.766686,0.003447,0.018076,-0.033486,-0.99927,-0.350266,-0.054265,-0.043128,0.171273,0.086548,-0.063925,0.252761,0.072109,0.035508,0.358944,-0.392502,-0.021576,0.060161,0.017074,0.077836,0.210324,0.115697,-0.157043,0.885182,0.799979,0.174938,0.11069,-0.068155,-0.111021,0.278449,0.895508,-0.963842,0.248234,-0.036325
-5.381052,3.103879,0.770117,-0.006269,0.020112,-0.030544,-0.999311,-0.322965,-0.079389,-0.030246,0.198231,0.058879,-0.01904,0.241402,0.044208,0.037078,0.450832,-0.339191,0.007588,0.068278,-0.00012,0.076816,0.213457,0.095929,-0.162776,0.927133,0.834369,0.19841,0.103928,-0.044959,-0.108882,0.26182,0.898619,-0.952075,0.26465,-0.040681
-5.358233,3.108628,0.772845,-0.015786,0.021932,-0.02662,-0.99928,-0.289136,-0.100543,-0.014315,0.211995,0.021462,-0.00121,0.199356,0.018612,0.044143,0.587458,-0.259394,0.05487,0.075231,-0.018752,0.076925,0.217005,0.076406,-0.151446,0.956972,0.855461,0.213171,0.106231,-0.021567,-0.105501,0.247237,0.903098,-0.938391,0.273111,-0.035622
-5.336276,3.112896,0.773626,-0.024549,0.022984,-0.019867,-0.999237,-0.252803,-0.116582,0.003883,0.214536,-0.014113,0.0081,0.128329,-0.004882,0.057781,0.760464,-0.162816,0.143071,0.080354,-0.035938,0.077481,0.223956,0.054902,-0.116295,0.9692,0.853026,0.224035,0.11988,-0.006061,-0.11046,0.253894,0.910472,-0.940987,0.278179,-0.006848
-5.314138,3.116797,0.774226,-0.031322,0.024845,-0.010464,-0.999146,-0.209838,-0.127469,0.022582,0.212653,-0.045115,0.020941,0.048932,-0.023491,0.073311,0.939947,-0.076863,0.218724,0.083322,-0.05067,0.078359,0.232425,0.035906,-0.072318,0.965991,0.834269,0.219914,0.139458,0.001307,-0.125399,0.285513,0.910237,-0.958697,0.267978,0.053042
-5.29289,3.120272,0.774981,-0.036596,0.027057,-0.000797,-0.998963,-0.169732,-0.137353,0.039939,0.20813,-0.076037,0.032604,-0.036537,-0.045203,0.075907,1.096488,0.010913,0.243709,0.084235,-0.062918,0.080679,0.235294,0.025181,-0.043091,0.958065,0.820042,0.201206,0.151305,0.005349,-0.148824,0.322412,0.891348,-0.980554,0.247058,0.109357
-5.272318,3.123139,0.77525,-0.041453,0.0294,0.006154,-0.998689,-0.136015,-0.148486,0.052864,0.212405,-0.108271,0.043739,-0.119544,-0.070785,0.073152,1.215228,0.046664,0.233216,0.082105,-0.073651,0.084842,0.224423,0.024447,-0.041003,0.958099,0.822606,0.18138,0.143478,0.0139,-0.174041,0.34093,0.854164,-0.994842,0.235306,0.126325
-5.252303,3.125296,0.77484,-0.046782,0.031751,0.01093,-0.998341,-0.110381,-0.161087,0.062575,0.230373,-0.1445,0.053375,-0.193646,-0.102065,0.064038,1.286702,-0.012237,0.218762,0.078142,-0.083134,0.089536,0.200186,0.032003,-0.060618,0.964398,0.841368,0.160996,0.128813,0.029283,-0.193879,0.336145,0.809963,-0.995873,0.233348,0.099293
-5.232353,3.126954,0.774209,-0.050801,0.034586,0.012758,-0.998028,-0.083339,-0.172797,0.065973,0.248448,-0.180767,0.062147,-0.256909,-0.124222,0.05515,1.3098,-0.078184,0.181297,0.072388,-0.091498,0.093316,0.168145,0.049847,-0.099901,0.977486,0.879807,0.14761,0.102648,0.057314,-0.195689,0.297921,0.768911,-0.975863,0.247646,0.03411
-5.212356,3.128207,0.773582,-0.053088,0.037683,0.013029,-0.997794,-0.05346,-0.181838,0.064673,0.263891,-0.216155,0.070199,-0.309755,-0.133739,0.049139,1.287151,-0.129395,0.135749,0.065036,-0.098105,0.096415,0.128615,0.067837,-0.141023,0.989083,0.92146,0.145052,0.072745,0.078363,-0.188403,0.255064,0.747961,-0.94077,0.267657,-0.035602
-5.192526,3.129113,0.772935,-0.054212,0.040575,0.013052,-0.997619,-0.023064,-0.188286,0.061569,0.277719,-0.250285,0.07788,-0.349755,-0.129897,0.051054,1.218792,-0.195902,0.107042,0.056003,-0.10254,0.098436,0.091022,0.085646,-0.175639,0.990519,0.957177,0.140305,0.058079,0.093711,-0.178843,0.219046,0.741735,-0.90452,0.281355,-0.078098
-5.172893,3.129739,0.772278,-0.054868,0.04233,0.013475,-0.997505,0.007048,-0.19328,0.058027,0.28715,-0.281812,0.085507,-0.381868,-0.117316,0.059428,1.116148,-0.24846,0.080337,0.045533,-0.105078,0.099565,0.05776,0.099335,-0.195244,0.98121,0.975796,0.127639,0.063212,0.100909,-0.173618,0.196779,0.745558,-0.876051,0.290441,-0.084129
-5.153404,3.130192,0.77187,-0.053973,0.042435,0.014046,-0.997541,0.039972,-0.195024,0.053083,0.283629,-0.306644,0.091689,-0.405185,-0.103591,0.065343,0.982734,-0.26168,0.06402,0.034973,-0.106082,0.099144,0.02807,0.110269,-0.192598,0.971632,0.970427,0.110441,0.077761,0.104245,-0.170309,0.194468,0.751549,-0.863392,0.298054,-0.075609
-5.133989,3.13042,0.77137,-0.052272,0.040956,0.015202,-0.997677,0.075411,-0.194235,0.04835,0.268344,-0.325868,0.094946,-0.419596,-0.088927,0.068838,0.826596,-0.240533,0.058605,0.024489,-0.10563,0.097049,0.001198,0.116667,-0.178212,0.954651,0.948219,0.097052,0.097163,0.102115,-0.173072,0.204413,0.761876,-0.865761,0.299485,-0.057466
-5.114621,3.130586,0.770494,-0.049686,0.037603,0.016106,-0.997927,0.112573,-0.19154,0.042746,0.241209,-0.33869,0.094843,-0.425199,-0.073979,0.066389,0.658355,-0.191655,0.052516,0.014949,-0.104202,0.093145,-0.023838,0.12285,-0.165772,0.934827,0.923461,0.086444,0.119443,0.099132,-0.175763,0.218977,0.774386,-0.878068,0.296604,-0.037589
-5.095206,3.130632,0.768953,-0.047358,0.033571,0.016492,-0.998177,0.148735,-0.189012,0.036641,0.212732,-0.348028,0.09252,-0.424166,-0.064552,0.049526,0.499205,-0.131457,0.057914,0.007126,-0.102218,0.088293,-0.047574,0.129014,-0.160647,0.917194,0.901762,0.077474,0.13614,0.100426,-0.174751,0.226807,0.784854,-0.891379,0.292863,-0.022465
-5.075595,3.130455,0.766913,-0.045486,0.029218,0.015921,-0.998411,0.182717,-0.187061,0.029015,0.187005,-0.354009,0.090101,-0.418501,-0.05164,0.041336,0.361347,-0.077137,0.082552,-0.000149,-0.099134,0.082982,-0.069197,0.133103,-0.159863,0.902425,0.880811,0.069807,0.14563,0.107285,-0.169628,0.224462,0.793005,-0.900611,0.292879,-0.011626
-5.0555,3.12979,0.764594,-0.044174,0.02487,0.013568,-0.998622,0.214391,-0.18516,0.018559,0.16729,-0.360055,0.088358,-0.410626,-0.034924,0.050607,0.257984,-0.051554,0.113743,-0.007306,-0.094884,0.077599,-0.088712,0.136632,-0.167315,0.892686,0.868378,0.066459,0.149202,0.11869,-0.161624,0.21415,0.7995,-0.904834,0.295501,-0.005235
-5.034761,3.128417,0.762794,-0.040972,0.021237,0.011539,-0.998868,0.246027,-0.177247,0.009397,0.152716,-0.365119,0.084425,-0.402788,-0.013125,0.068229,0.209422,-0.028457,0.135446,-0.013765,-0.089336,0.072036,-0.103304,0.141041,-0.176033,0.88707,0.860014,0.068953,0.149595,0.131758,-0.14944,0.203035,0.80736,-0.90624,0.294805,-0.001695
-5.013343,3.126181,0.762538,-0.035787,0.018646,0.009079,-0.999144,0.274686,-0.162015,0.003218,0.148887,-0.366925,0.075707,-0.393525,0.010082,0.075771,0.219493,0.011944,0.097009,-0.020069,-0.082029,0.066426,-0.1098,0.144173,-0.183181,0.884437,0.853505,0.072127,0.154649,0.144333,-0.135493,0.196954,0.821288,-0.910356,0.293113,0.001632
-4.991078,3.123073,0.767048,-0.028007,0.017529,0.006442,-0.999433,0.306371,-0.139494,0.000286,0.151255,-0.354407,0.061593,-0.375111,0.03014,0.059441,0.239964,0.044944,0.028938,-0.026319,-0.072173,0.060469,-0.105932,0.146188,-0.189507,0.883556,0.850423,0.076493,0.165202,0.154217,-0.120771,0.197626,0.842163,-0.918458,0.292796,0.007931
-4.968081,3.11968,0.771127,-0.01914,0.017864,0.002957,-0.999653,0.326539,-0.112327,-0.002388,0.175808,-0.32643,0.043477,-0.346481,0.049996,0.042295,0.255285,0.031118,-0.001057,-0.033543,-0.058735,0.054299,-0.092806,0.142175,-0.191221,0.886973,0.842796,0.083443,0.17749,0.160977,-0.111114,0.208327,0.868306,-0.937533,0.297123,0.022458
-4.944794,3.116423,0.775115,-0.011107,0.018563,-0.000338,-0.999766,0.328276,-0.086095,-0.003876,0.23265,-0.285883,0.014617,-0.312388,0.066388,0.027704,0.267454,-0.011938,-0.003592,-0.041306,-0.043148,0.048418,-0.073229,0.134352,-0.195626,0.893246,0.836552,0.083341,0.189298,0.165067,-0.106745,0.220591,0.891547,-0.961061,0.298943,0.040216
-4.921854,3.113387,0.778698,-0.004715,0.019014,-0.004554,-0.999798,0.307713,-0.063179,-0.009803,0.324868,-0.235509,-0.032997,-0.278448,0.078623,0.014105,0.277574,-0.053275,-0.006451,-0.049263,-0.029133,0.04313,-0.049473,0.126754,-0.205575,0.90383,0.83524,0.082052,0.184916,0.171551,-0.103278,0.221822,0.90544,-0.978183,0.301205,0.05407
-4.899383,3.110397,0.78141,0.000581,0.019586,-0.011433,-0.999743,0.26388,-0.043951,-0.026854,0.454259,-0.169342,-0.090913,-0.242685,0.088264,-0.00161,0.281256,-0.085127,-0.023701,-0.056523,-0.018851,0.039662,-0.027058,0.125408,-0.224211,0.912622,0.840353,0.075584,0.150113,0.181869,-0.095163,0.207121,0.907424,-0.979636,0.302236,0.065348
-4.876946,3.107561,0.782739,0.004605,0.020885,-0.020485,-0.999561,0.201995,-0.029603,-0.050089,0.615664,-0.093044,-0.169002,-0.204512,0.09484,-0.019377,0.285263,-0.113656,-0.0432,-0.062814,-0.011997,0.039022,-0.00799,0.131353,-0.244675,0.913244,0.849275,0.063455,0.090768,0.192908,-0.085346,0.18601,0.897477,-0.972358,0.299181,0.067471
-4.855056,3.104897,0.78367,0.006839,0.022952,-0.029996,-0.999263,0.128547,-0.021582,-0.068703,0.782663,-0.008781,-0.243159,-0.166293,0.099157,-0.036211,0.284209,-0.142772,-0.056351,-0.069163,-0.007782,0.041515,0.008196,0.140319,-0.257942,0.905194,0.855642,0.048321,0.024144,0.199006,-0.077145,0.168014,0.882526,-0.960593,0.284005,0.0596
-4.833477,3.102358,0.783986,0.006666,0.026131,-0.041026,-0.998794,0.04514,-0.017963,-0.057875,0.942661,0.096547,-0.261736,-0.123022,0.099143,-0.053179,0.273678,-0.167298,-0.06603,-0.076696,-0.006007,0.046873,0.02154,0.147876,-0.26141,0.892396,0.861411,0.037968,-0.022903,0.196905,-0.074005,0.158629,0.874564,-0.952888,0.27206,0.045656
-4.813305,3.101998,0.785168,0.004844,0.030097,-0.050117,-0.998278,-0.031761,-0.000737,-0.030463,1.062397,0.20638,-0.248345,-0.075612,0.096238,-0.066232,0.257486,-0.185707,-0.072427,-0.081442,-0.006484,0.053263,0.036685,0.148561,-0.248591,0.881293,0.864974,0.047006,-0.022215,0.182248,-0.078212,0.168849,0.881857,-0.96305,0.267373,0.031498
-4.793641,3.102146,0.785657,0.003338,0.034472,-0.054856,-0.997893,-0.100212,0.003424,-0.028585,1.140382,0.235149,-0.247793,-0.033995,0.095572,-0.073428,0.250826,-0.206715,-0.076507,-0.080379,-0.006893,0.060089,0.055788,0.142967,-0.226098,0.874308,0.863629,0.063046,0.011276,0.158803,-0.085103,0.191092,0.901461,-0.987885,0.271802,0.027065
-4.774527,3.102925,0.785359,0.002281,0.038169,-0.055433,-0.99773,-0.158195,-0.011105,-0.051898,1.176931,0.161542,-0.247628,-0.002895,0.096022,-0.074437,0.260174,-0.232813,-0.078203,-0.073818,-0.006837,0.066613,0.076738,0.135707,-0.200536,0.872858,0.860714,0.085727,0.056446,0.127786,-0.090757,0.21481,0.927601,-1.017215,0.286891,0.033668
-4.755875,3.10431,0.784428,0.002007,0.040678,-0.054003,-0.99771,-0.215125,-0.021084,-0.078556,1.182024,0.055285,-0.244425,0.018374,0.096826,-0.072734,0.282792,-0.260162,-0.078822,-0.063149,-0.005684,0.071967,0.096405,0.133882,-0.180084,0.876169,0.857049,0.103555,0.083125,0.094851,-0.091874,0.225968,0.949844,-1.038309,0.298354,0.043057
-4.73723,3.106093,0.783067,0.002276,0.04166,-0.051709,-0.99779,-0.271414,-0.017961,-0.081911,1.153725,-0.045401,-0.214421,0.036163,0.098044,-0.069534,0.306857,-0.286737,-0.080074,-0.051235,-0.00316,0.075226,0.114524,0.132898,-0.16591,0.876557,0.85142,0.113369,0.086935,0.061229,-0.095902,0.229246,0.965809,-1.048489,0.295117,0.052082
-4.718221,3.108031,0.781467,0.002858,0.040773,-0.048456,-0.997989,-0.32149,-0.00634,-0.071366,1.087253,-0.134966,-0.162522,0.055271,0.100263,-0.063604,0.322752,-0.309627,-0.080848,-0.038263,0.000439,0.076446,0.128666,0.133501,-0.155809,0.873916,0.848449,0.117638,0.079164,0.02394,-0.096253,0.236164,0.968306,-1.051717,0.287149,0.058301
-4.698739,3.110127,0.779452,0.005063,0.038231,-0.045539,-0.998218,-0.36424,0.007922,-0.056367,0.986538,-0.196382,-0.110937,0.076561,0.105336,-0.05722,0.330011,-0.329732,-0.079741,-0.02465,0.005091,0.075622,0.132906,0.136074,-0.152792,0.876673,0.850901,0.121668,0.070548,-0.004907,-0.097994,0.24019,0.955569,-1.047089,0.267519,0.048734
-4.678627,3.112241,0.777155,0.007942,0.034282,-0.042595,-0.998472,-0.393045,0.017772,-0.042494,0.848549,-0.224962,-0.062099,0.101162,0.111871,-0.0493,0.327913,-0.347317,-0.077366,-0.011156,0.010177,0.072518,0.139312,0.143216,-0.152806,0.879585,0.857786,0.12137,0.066124,-0.028304,-0.102962,0.245832,0.932957,-1.039319,0.246206,0.029765
-4.657886,3.114325,0.775014,0.011066,0.029354,-0.039374,-0.998732,-0.406451,0.019347,-0.035624,0.678191,-0.222229,-0.033632,0.128203,0.118938,-0.039513,0.319957,-0.363436,-0.074176,0.001113,0.01501,0.067611,0.147884,0.148789,-0.150883,0.882323,0.863286,0.118715,0.066654,-0.046938,-0.108546,0.251043,0.904681,-1.02581,0.225396,0.006348
-4.636634,3.116253,0.775804,0.01272,0.023755,-0.034845,-0.999029,-0.40801,0.013494,-0.030673,0.491918,-0.149295,-0.020673,0.162024,0.12333,-0.026376,0.301982,-0.369846,-0.070591,0.011439,0.018261,0.061314,0.158682,0.146821,-0.141172,0.886496,0.861477,0.122393,0.068263,-0.062138,-0.112917,0.25259,0.875601,-1.004195,0.206404,-0.018816
-4.615355,3.118122,0.774658,0.011581,0.01793,-0.029498,-0.999337,-0.397891,0.004886,-0.018287,0.325407,-0.009707,0.002846,0.197806,0.121321,-0.010308,0.273492,-0.367659,-0.06601,0.018962,0.018252,0.054223,0.169899,0.136843,-0.128164,0.893972,0.856917,0.130527,0.071337,-0.076798,-0.116902,0.254319,0.853802,-0.983428,0.195814,-0.040873
-4.594048,3.120144,0.771653,0.011545,0.012797,-0.025275,-0.999532,-0.384207,0.012132,0.035862,0.232701,0.083479,0.01946,0.228352,0.119746,0.004036,0.256791,-0.362802,-0.059192,0.021678,0.01581,0.047983,0.180241,0.124417,-0.112677,0.904135,0.849913,0.1382,0.073798,-0.090614,-0.116426,0.256701,0.841505,-0.964195,0.194698,-0.054819
-4.573516,3.122497,0.771974,0.007841,0.007195,-0.020453,-0.999734,-0.375176,0.011205,0.065855,0.242393,0.057735,0.048445,0.24838,0.10917,0.01983,0.255033,-0.351141,-0.048571,0.024324,0.008352,0.043163,0.182744,0.108092,-0.101041,0.923925,0.847321,0.149547,0.074425,-0.102208,-0.113996,0.25491,0.835983,-0.946548,0.203865,-0.06015
-4.552389,3.124798,0.773519,0.001881,0.001722,-0.018881,-0.999818,-0.365876,-0.000507,0.073784,0.267224,0.010671,0.049555,0.255399,0.092424,0.025546,0.278054,-0.328223,-0.029169,0.02696,-0.005882,0.041537,0.171166,0.094211,-0.098287,0.954767,0.857667,0.162696,0.074436,-0.107241,-0.10932,0.24735,0.83491,-0.937367,0.225112,-0.071736
-4.530951,3.126771,0.775644,-0.003037,-0.001495,-0.022621,-0.999738,-0.350654,-0.012488,0.074004,0.293295,-0.037224,0.035359,0.251398,0.077944,0.018147,0.327539,-0.287146,0.006345,0.031278,-0.024412,0.043477,0.147056,0.088853,-0.106826,0.996441,0.885957,0.189886,0.062439,-0.09503,-0.092581,0.228037,0.838506,-0.926456,0.2502,-0.086331
-4.509709,3.128646,0.77758,-0.008591,-0.003486,-0.023188,-0.999688,-0.332865,-0.023784,0.076923,0.320894,-0.079517,0.035781,0.22724,0.062409,0.018772,0.413722,-0.235642,0.054687,0.038648,-0.041525,0.048642,0.12138,0.083253,-0.11439,1.025626,0.915166,0.20974,0.047662,-0.073765,-0.076096,0.216489,0.839682,-0.924293,0.276294,-0.08675
-4.48883,3.130432,0.77848,-0.014198,-0.003625,-0.015866,-0.999767,-0.311684,-0.028568,0.092164,0.349604,-0.120673,0.044356,0.181112,0.047066,0.036131,0.54069,-0.170365,0.131565,0.046678,-0.054483,0.055482,0.106564,0.074708,-0.106887,1.029972,0.928618,0.221136,0.03003,-0.057658,-0.070318,0.233452,0.840137,-0.929434,0.27816,-0.047405
-4.467559,3.132044,0.777795,-0.019948,-0.000823,-0.004286,-0.999791,-0.279226,-0.029527,0.116415,0.37221,-0.159447,0.048911,0.119855,0.036313,0.062069,0.705608,-0.097772,0.209131,0.053882,-0.065501,0.063267,0.103091,0.062357,-0.082582,1.006829,0.918804,0.201851,0.029878,-0.05152,-0.086427,0.277372,0.835331,-0.942666,0.238374,0.028236
-4.446309,3.133375,0.77718,-0.024916,0.003023,0.009402,-0.999641,-0.240666,-0.02928,0.143117,0.383172,-0.197911,0.047425,0.048049,0.029646,0.068832,0.879202,-0.025176,0.246101,0.062578,-0.074796,0.07142,0.104723,0.049873,-0.054412,0.970586,0.899659,0.170809,0.053958,-0.053385,-0.123954,0.338179,0.820942,-0.974689,0.17082,0.118509
-4.424735,3.134288,0.776891,-0.028239,0.007816,0.02488,-0.999261,-0.193849,-0.026772,0.170988,0.382446,-0.232336,0.043093,-0.030058,0.011031,0.046457,1.041763,0.053604,0.24771,0.071813,-0.082702,0.079689,0.104035,0.039362,-0.031543,0.934622,0.875579,0.139044,0.092944,-0.053964,-0.161385,0.375759,0.794318,-1.006538,0.114143,0.181739
-4.40286,3.134582,0.776786,-0.03135,0.013945,0.039075,-0.998647,-0.137431,-0.027422,0.197092,0.36865,-0.260879,0.03862,-0.107344,-0.015911,0.037439,1.172785,0.120459,0.247785,0.077502,-0.090196,0.087408,0.098279,0.030745,-0.01526,0.910483,0.846877,0.116584,0.127172,-0.042151,-0.18115,0.369154,0.765181,-1.017307,0.103169,0.193206
-4.38085,3.134017,0.776532,-0.03606,0.021201,0.050348,-0.997855,-0.070742,-0.036061,0.218741,0.336992,-0.279393,0.033241,-0.176463,-0.031677,0.059134,1.261437,0.115897,0.247776,0.078683,-0.097893,0.093649,0.087971,0.022159,0.00021,0.898912,0.813037,0.113311,0.145321,-0.018508,-0.18762,0.337244,0.740306,-1.015069,0.12724,0.154433
-4.358908,3.13258,0.775824,-0.040597,0.027666,0.059097,-0.997043,-0.00389,-0.047288,0.234682,0.299439,-0.291497,0.026221,-0.23999,-0.036428,0.091638,1.30784,0.051069,0.247623,0.076305,-0.104891,0.097844,0.068094,0.011901,0.020267,0.898715,0.775858,0.123972,0.146524,0.011093,-0.188808,0.290866,0.722663,-0.994959,0.161481,0.086879
-4.337238,3.130362,0.774216,-0.044159,0.03211,0.064826,-0.996402,0.050089,-0.056238,0.243897,0.277241,-0.30741,0.018028,-0.303019,-0.04488,0.117769,1.314815,-0.0349,0.24685,0.069902,-0.109939,0.099552,0.053048,0.007217,0.032263,0.885482,0.733695,0.134853,0.141562,0.035315,-0.178508,0.246823,0.711856,-0.969822,0.196617,0.024516
-4.315782,3.127592,0.771543,-0.04754,0.033965,0.065594,-0.996134,0.085507,-0.062907,0.244871,0.279641,-0.333839,0.010045,-0.365093,-0.063628,0.128961,1.282182,-0.123736,0.228401,0.059524,-0.113142,0.100293,0.030563,0.005573,0.033684,0.871763,0.697407,0.141284,0.142465,0.05788,-0.175372,0.205248,0.704285,-0.943655,0.225394,-0.018378
-4.294312,3.124341,0.768366,-0.050625,0.033118,0.062076,-0.996236,0.108684,-0.067063,0.238751,0.294637,-0.36412,0.002023,-0.422711,-0.087678,0.125104,1.206348,-0.200125,0.19547,0.04684,-0.114412,0.101133,0.002977,0.012064,0.02087,0.865833,0.675657,0.128093,0.149424,0.079039,-0.17303,0.166143,0.6979,-0.915523,0.25199,-0.047098
-4.272336,3.120808,0.765472,-0.052099,0.030789,0.056044,-0.996593,0.133841,-0.068301,0.227448,0.30157,-0.388557,-0.006516,-0.466277,-0.105356,0.121727,1.083154,-0.248637,0.151351,0.033511,-0.113035,0.101659,-0.026879,0.020728,0.00131,0.860881,0.658767,0.11384,0.157323,0.098868,-0.171688,0.134005,0.699915,-0.89201,0.268784,-0.064456
-4.249874,3.117045,0.763259,-0.051598,0.027984,0.050959,-0.996974,0.167508,-0.066175,0.215643,0.291494,-0.398838,-0.016208,-0.488313,-0.117181,0.11747,0.909269,-0.260018,0.123208,0.022044,-0.108453,0.101131,-0.053672,0.033284,-0.022559,0.857241,0.650518,0.103833,0.162538,0.117206,-0.167434,0.109783,0.715349,-0.874155,0.280943,-0.077433
-4.227144,3.112931,0.761705,-0.050514,0.024294,0.046312,-0.997353,0.205921,-0.062217,0.204392,0.268465,-0.399141,-0.026897,-0.487187,-0.121885,0.117999,0.692591,-0.244507,0.125711,0.012484,-0.100394,0.099003,-0.075968,0.049208,-0.054796,0.854839,0.657877,0.101916,0.161655,0.132005,-0.164662,0.101692,0.747285,-0.87323,0.298128,-0.076852
-4.204283,3.108798,0.763921,-0.044896,0.018537,0.04124,-0.997968,0.252241,-0.051941,0.193322,0.223269,-0.379658,-0.037012,-0.473391,-0.109622,0.131403,0.471826,-0.155746,0.113021,0.004478,-0.088445,0.093907,-0.09418,0.070293,-0.093128,0.84882,0.680284,0.099911,0.162675,0.141771,-0.15722,0.107799,0.78849,-0.885353,0.315061,-0.064383
-4.181336,3.103719,0.763741,-0.042049,0.013432,0.036857,-0.998345,0.289954,-0.041505,0.182998,0.193764,-0.361417,-0.050415,-0.459692,-0.103706,0.129044,0.327262,-0.075383,0.171305,-0.000288,-0.074996,0.087869,-0.105902,0.092389,-0.140495,0.840291,0.717627,0.093404,0.160219,0.150747,-0.151888,0.119973,0.832404,-0.903659,0.326247,-0.039385
-4.158124,3.097782,0.762828,-0.039077,0.010702,0.034417,-0.998586,0.322728,-0.026933,0.173468,0.185502,-0.345961,-0.065534,-0.453879,-0.093947,0.116847,0.316362,0.008752,0.172871,-0.004196,-0.061689,0.083828,-0.105834,0.117126,-0.183837,0.826235,0.757249,0.08404,0.15246,0.155425,-0.14559,0.138776,0.877493,-0.927144,0.330276,-0.003478
-4.135475,3.091233,0.763431,-0.032454,0.009954,0.036228,-0.998767,0.347167,-0.003898,0.165802,0.200923,-0.319761,-0.079164,-0.456789,-0.065834,0.111618,0.381081,0.015462,0.101159,-0.007862,-0.046011,0.083837,-0.09082,0.145179,-0.213023,0.800867,0.793665,0.072071,0.151101,0.149974,-0.134665,0.161228,0.924045,-0.953801,0.328198,0.034346
-4.112368,3.0842,0.764109,-0.026864,0.009924,0.040467,-0.99877,0.348642,0.02107,0.168234,0.261828,-0.275001,-0.081974,-0.448593,-0.037711,0.107443,0.443591,-0.033316,0.065708,-0.012932,-0.027671,0.08575,-0.055919,0.159506,-0.215893,0.772422,0.81066,0.069478,0.160944,0.137839,-0.126218,0.179159,0.967336,-0.981159,0.326067,0.068635
-4.089826,3.077497,0.767654,-0.02318,0.010078,0.041277,-0.998828,0.324435,0.044267,0.167851,0.355319,-0.198822,-0.077371,-0.420824,-0.023306,0.097575,0.468479,-0.082097,0.050708,-0.019645,-0.00997,0.086836,-0.012008,0.154096,-0.204112,0.759753,0.807194,0.072126,0.184027,0.12707,-0.120784,0.185413,0.997144,-1.006608,0.333181,0.090942
-4.068276,3.070916,0.772993,-0.018593,0.009669,0.035774,-0.99914,0.269331,0.073373,0.153362,0.483765,-0.09729,-0.073878,-0.372994,-0.016373,0.077582,0.450356,-0.110558,0.039119,-0.027535,0.005619,0.086531,0.021373,0.143846,-0.198913,0.772766,0.79066,0.079106,0.185532,0.12561,-0.10909,0.168618,0.998953,-1.015302,0.343756,0.101313
-4.046906,3.064125,0.780164,-0.014298,0.008578,0.025663,-0.999532,0.194257,0.107502,0.132283,0.639135,-0.004189,-0.093316,-0.314093,-0.013204,0.051202,0.407093,-0.125469,0.027547,-0.036671,0.019028,0.08492,0.035913,0.142704,-0.216477,0.806223,0.777248,0.090882,0.13983,0.131375,-0.093,0.132626,0.972835,-1.003495,0.342106,0.099053
-4.025823,3.057537,0.785261,-0.011208,0.009177,0.013397,-0.999805,0.110758,0.147376,0.126064,0.794901,0.083427,-0.101462,-0.246956,-0.011818,0.022455,0.350684,-0.134511,0.017193,-0.045601,0.031221,0.083076,0.035505,0.151489,-0.259711,0.846824,0.776994,0.093906,0.063471,0.140696,-0.080472,0.092298,0.931075,-0.982244,0.326392,0.08114
-4.004952,3.051589,0.788356,-0.00676,0.01206,0.001301,-0.999904,0.032159,0.185652,0.118803,0.929266,0.15716,-0.11622,-0.180826,-0.0053,-0.006109,0.302726,-0.145694,0.007978,-0.052454,0.042025,0.082829,0.027169,0.169968,-0.317212,0.88391,0.789047,0.082514,-0.031356,0.1483,-0.069149,0.058281,0.887058,-0.954426,0.293342,0.051888
-3.98448,3.046478,0.789567,-0.002417,0.015945,-0.007319,-0.999843,-0.041682,0.177884,0.077469,1.030486,0.170233,-0.16309,-0.12777,0.004927,-0.027911,0.279446,-0.165364,-0.000176,-0.056727,0.050588,0.085268,0.021125,0.195751,-0.371949,0.900689,0.814562,0.060896,-0.112997,0.143395,-0.063614,0.043887,0.854707,-0.938499,0.262224,0.011384
-3.964435,3.042282,0.789406,0.000865,0.020587,-0.013641,-0.999695,-0.107163,0.127704,0.017675,1.09419,0.135474,-0.195727,-0.087255,0.014691,-0.043857,0.279913,-0.193774,-0.007227,-0.060933,0.055386,0.088881,0.031078,0.223735,-0.406401,0.889367,0.846141,0.039193,-0.160556,0.120162,-0.065708,0.04755,0.857998,-0.943839,0.236267,-0.032116
-3.944659,3.039064,0.788412,0.002699,0.025168,-0.01946,-0.99949,-0.164642,0.090597,-0.01247,1.122618,0.079405,-0.215817,-0.055061,0.020984,-0.057347,0.295038,-0.227504,-0.012708,-0.065891,0.057037,0.092141,0.047657,0.236172,-0.405311,0.869007,0.864824,0.042917,-0.148611,0.086585,-0.06876,0.064015,0.873326,-0.963705,0.233657,-0.063583
-3.924989,3.036804,0.786937,0.004336,0.029265,-0.023941,-0.999276,-0.219584,0.081579,-0.008081,1.121702,0.003345,-0.205344,-0.025201,0.026248,-0.068904,0.311792,-0.260041,-0.017086,-0.068954,0.057867,0.094162,0.071592,0.23022,-0.37643,0.849544,0.865703,0.06888,-0.084262,0.046853,-0.069908,0.083731,0.898393,-0.987425,0.245796,-0.07081
-3.905321,3.035323,0.785184,0.006256,0.032325,-0.027466,-0.99908,-0.268961,0.102396,0.029165,1.094016,-0.06774,-0.166077,0.004289,0.031576,-0.079416,0.324731,-0.288559,-0.019504,-0.067225,0.05903,0.094456,0.095585,0.202504,-0.3357,0.840718,0.848336,0.097746,0.012636,0.007781,-0.069505,0.104913,0.920075,-1.008427,0.264904,-0.052236
-3.885564,3.034453,0.783223,0.008435,0.033319,-0.029113,-0.998985,-0.311167,0.123508,0.074506,1.041747,-0.138759,-0.102253,0.032348,0.037703,-0.086328,0.331933,-0.312648,-0.020209,-0.059656,0.060863,0.093409,0.113423,0.177225,-0.297217,0.838281,0.823578,0.116593,0.087591,-0.026563,-0.073254,0.124117,0.93509,-1.026245,0.277207,-0.028007
-3.865614,3.034118,0.781012,0.0108,0.032308,-0.029233,-0.998992,-0.344358,0.12536,0.106589,0.953796,-0.202462,-0.055654,0.058908,0.044299,-0.08911,0.334481,-0.333546,-0.01957,-0.047588,0.062537,0.090408,0.123317,0.157859,-0.271098,0.840797,0.800678,0.126885,0.115448,-0.053071,-0.079902,0.13974,0.93726,-1.036009,0.274699,-0.013004
-3.845269,3.03423,0.778574,0.012618,0.029867,-0.029062,-0.999052,-0.371301,0.104815,0.11283,0.834882,-0.230184,-0.030989,0.08608,0.049591,-0.088873,0.331937,-0.351628,-0.017577,-0.032355,0.06283,0.085857,0.123569,0.147762,-0.264761,0.846281,0.790089,0.123191,0.109744,-0.068784,-0.090769,0.152332,0.928335,-1.036843,0.258853,-0.014958
-3.824325,3.034641,0.775798,0.0141,0.02554,-0.029452,-0.99914,-0.393593,0.070456,0.098887,0.692629,-0.23284,-0.002228,0.11327,0.053798,-0.08848,0.32493,-0.367363,-0.015094,-0.016458,0.061618,0.080809,0.12187,0.142926,-0.266728,0.848104,0.787924,0.115026,0.091646,-0.080394,-0.102739,0.162513,0.90914,-1.030643,0.239178,-0.027884
-3.802675,3.035233,0.77315,0.0156,0.020069,-0.029691,-0.999236,-0.409894,0.034296,0.075196,0.537203,-0.19896,0.001734,0.141391,0.058014,-0.087981,0.313747,-0.379617,-0.012239,-0.001767,0.058943,0.075537,0.121245,0.138997,-0.268088,0.84603,0.787965,0.10682,0.077949,-0.086628,-0.114113,0.172249,0.885021,-1.018826,0.220476,-0.044042
-3.780062,3.035959,0.772928,0.016799,0.014384,-0.028917,-0.999337,-0.415936,0.002191,0.051426,0.374323,-0.148523,-0.018929,0.17458,0.062228,-0.084841,0.299325,-0.387082,-0.008507,0.010395,0.054672,0.069665,0.126207,0.132504,-0.260724,0.839733,0.782477,0.102661,0.079259,-0.088819,-0.125034,0.183698,0.860975,-1.002064,0.202519,-0.060642
-3.756738,3.036956,0.770419,0.018235,0.009068,-0.026429,-0.999443,-0.410506,-0.018172,0.046099,0.222291,-0.123794,-0.030535,0.208696,0.066363,-0.076994,0.281958,-0.389439,-0.003601,0.019134,0.048888,0.063265,0.13737,0.1259,-0.250739,0.832068,0.775172,0.099917,0.087344,-0.090255,-0.134519,0.20089,0.844983,-0.985151,0.187126,-0.069521
-3.732913,3.038301,0.767335,0.019971,0.005772,-0.022114,-0.999539,-0.409645,-0.025736,0.059577,0.139093,-0.11446,-0.05006,0.24413,0.069818,-0.064263,0.269145,-0.387439,0.002325,0.02561,0.042201,0.057534,0.152946,0.119761,-0.240011,0.825407,0.766898,0.0969,0.095925,-0.09282,-0.141358,0.221745,0.841422,-0.969246,0.176116,-0.064897
-3.708959,3.040017,0.765014,0.017602,0.003399,-0.014719,-0.999731,-0.398199,-0.030716,0.077828,0.117093,-0.054832,-0.027028,0.276771,0.063081,-0.045446,0.261514,-0.375449,0.01248,0.031745,0.03368,0.051608,0.16899,0.107346,-0.22671,0.822329,0.755004,0.094933,0.102267,-0.099114,-0.149981,0.246563,0.849751,-0.963616,0.178423,-0.051576
-3.684574,3.042222,0.763009,0.014781,0.004249,-0.005129,-0.999869,-0.382267,-0.026544,0.109317,0.134379,0.077115,0.012911,0.30587,0.052169,-0.023017,0.273146,-0.352934,0.028937,0.036596,0.02182,0.046315,0.181884,0.096033,-0.215547,0.829909,0.746842,0.098836,0.097935,-0.106115,-0.154719,0.275079,0.868786,-0.967433,0.188029,-0.037885
-3.660736,3.045109,0.762939,0.008155,0.006571,0.001977,-0.999943,-0.361108,-0.036199,0.124355,0.167539,0.113176,0.058482,0.318802,0.030531,-0.004781,0.321234,-0.317171,0.055988,0.041134,0.004166,0.041443,0.182189,0.090237,-0.218921,0.855642,0.764558,0.112932,0.096626,-0.112217,-0.155025,0.293898,0.89971,-0.974251,0.21564,-0.02542
-3.63771,3.048097,0.765352,-0.001877,0.008519,0.006037,-0.999944,-0.337698,-0.054096,0.139952,0.199989,0.068784,0.058726,0.299028,0.002875,0.011989,0.421048,-0.263454,0.092013,0.044398,-0.019918,0.037314,0.168381,0.084564,-0.228376,0.903484,0.794262,0.133427,0.087822,-0.111571,-0.145961,0.298645,0.93732,-0.984096,0.259667,-0.034042
-3.615564,3.050949,0.768214,-0.011085,0.009141,0.01158,-0.99983,-0.303054,-0.070743,0.155577,0.205545,0.025085,0.055651,0.239646,-0.020736,0.034332,0.574448,-0.178506,0.151516,0.047407,-0.044124,0.033952,0.145917,0.080839,-0.231429,0.960144,0.825933,0.17388,0.063785,-0.10256,-0.120852,0.290422,0.974556,-0.989009,0.316324,-0.039166
-3.593944,3.054104,0.772606,-0.018091,0.009064,0.022817,-0.999535,-0.264176,-0.081801,0.176768,0.199574,-0.008492,0.065818,0.155652,-0.037357,0.065671,0.757147,-0.088737,0.207018,0.051031,-0.062718,0.032147,0.123415,0.080634,-0.228649,1.003393,0.852799,0.209985,0.023822,-0.095897,-0.090277,0.287724,0.999463,-0.986014,0.355348,-0.013252
-3.573144,3.057307,0.77515,-0.02241,0.010099,0.036062,-0.999047,-0.225897,-0.088437,0.1994,0.193588,-0.037981,0.078216,0.05992,-0.051591,0.084996,0.937023,3.5e-05,0.231706,0.053194,-0.076136,0.033482,0.104163,0.086697,-0.223803,1.022835,0.87391,0.223007,-0.020272,-0.093119,-0.074175,0.315586,1.007584,-0.986999,0.340162,0.049861
-3.553129,3.060307,0.776618,-0.025687,0.0119,0.047202,-0.998484,-0.193111,-0.094732,0.219014,0.196261,-0.068009,0.086397,-0.038002,-0.07139,0.082619,1.091375,0.089279,0.244647,0.053332,-0.087669,0.038179,0.087181,0.098157,-0.220138,1.017499,0.891431,0.208405,-0.035629,-0.094759,-0.082313,0.377073,0.992978,-1.003074,0.266405,0.120304
-3.533659,3.063157,0.77713,-0.028779,0.013783,0.054795,-0.997988,-0.16618,-0.103299,0.232831,0.207266,-0.100956,0.093677,-0.127873,-0.086438,0.073305,1.200872,0.113299,0.24754,0.051615,-0.098069,0.045383,0.070292,0.107672,-0.215473,0.99936,0.899208,0.175745,-0.018076,-0.09494,-0.106829,0.441406,0.952296,-1.019674,0.17857,0.150855
-3.514439,3.065869,0.776627,-0.033206,0.015704,0.059624,-0.997545,-0.143801,-0.116143,0.242483,0.225994,-0.137694,0.099794,-0.206409,-0.085412,0.079929,1.265769,0.052773,0.247525,0.048624,-0.107614,0.053823,0.049668,0.112561,-0.21397,0.981689,0.901052,0.144929,0.030073,-0.091164,-0.139213,0.498396,0.896097,-1.042466,0.122767,0.111713
-3.495073,3.068585,0.775447,-0.037772,0.019566,0.061523,-0.997199,-0.117613,-0.132197,0.246713,0.245884,-0.175786,0.104735,-0.270221,-0.087584,0.088329,1.284048,-0.038776,0.245192,0.046121,-0.116148,0.061978,0.024434,0.115657,-0.226006,0.976145,0.909185,0.125302,0.080067,-0.078396,-0.16935,0.54914,0.842554,-1.081034,0.128634,0.017067
-3.475499,3.071325,0.773892,-0.042103,0.024501,0.060673,-0.996968,-0.087611,-0.150397,0.245203,0.263883,-0.21335,0.109749,-0.318667,-0.099154,0.087233,1.25265,-0.148081,0.213164,0.043636,-0.12356,0.068624,-0.0056,0.118174,-0.243692,0.987612,0.920027,0.111151,0.108395,-0.050312,-0.18444,0.561177,0.804865,-1.08006,0.158547,-0.073646
-3.455815,3.074161,0.772383,-0.04564,0.028916,0.057426,-0.996887,-0.054932,-0.169337,0.237769,0.275534,-0.247141,0.115999,-0.357502,-0.111229,0.080074,1.17733,-0.237049,0.160533,0.040338,-0.129558,0.072764,-0.032204,0.123685,-0.254156,1.000873,0.92679,0.099795,0.118125,-0.017609,-0.176471,0.533821,0.78293,-1.028707,0.188364,-0.123861
-3.436188,3.077181,0.771397,-0.046765,0.0313,0.05246,-0.997036,-0.020176,-0.185145,0.224919,0.275563,-0.27385,0.122778,-0.382512,-0.106189,0.080802,1.057076,-0.28737,0.107613,0.035655,-0.133294,0.073892,-0.060687,0.123414,-0.255078,0.999824,0.925885,0.104886,0.111576,0.004004,-0.157323,0.48847,0.775367,-0.956171,0.215243,-0.136231
-3.416827,3.080262,0.770657,-0.046314,0.031721,0.046908,-0.997321,0.014527,-0.197122,0.209587,0.266821,-0.294139,0.126848,-0.398492,-0.086047,0.09255,0.910745,-0.309757,0.064405,0.02944,-0.134573,0.072605,-0.086551,0.117454,-0.241053,0.989368,0.912078,0.110606,0.110775,0.016651,-0.141717,0.441123,0.772545,-0.883621,0.23369,-0.131112
-3.397629,3.083647,0.769858,-0.044115,0.030422,0.04028,-0.99775,0.050085,-0.205657,0.191399,0.249202,-0.308233,0.128926,-0.408039,-0.056763,0.10974,0.752528,-0.293994,0.037173,0.021961,-0.13382,0.06971,-0.112009,0.104519,-0.222961,0.973368,0.893964,0.113887,0.121122,0.023779,-0.12721,0.407342,0.772618,-0.8294,0.2518,-0.119241
-3.378537,3.087597,0.768496,-0.042745,0.027684,0.034228,-0.998116,0.084302,-0.216269,0.172588,0.227305,-0.318133,0.130101,-0.417064,-0.031548,0.115202,0.60105,-0.232086,0.035524,0.014545,-0.131721,0.065937,-0.123791,0.089163,-0.20262,0.950673,0.866361,0.106666,0.146173,0.021074,-0.130483,0.396376,0.777176,-0.806371,0.266007,-0.096467
-3.359409,3.092261,0.76655,-0.041443,0.024182,0.028169,-0.998451,0.119984,-0.228153,0.152579,0.19859,-0.321515,0.132478,-0.424898,-0.010592,0.101587,0.461628,-0.138059,0.065389,0.008024,-0.128774,0.061616,-0.128418,0.074219,-0.193513,0.927926,0.838604,0.088887,0.170585,0.015225,-0.144441,0.408799,0.784281,-0.816136,0.275656,-0.070569
-3.340009,3.097299,0.763553,-0.041437,0.020553,0.022439,-0.998678,0.154372,-0.242104,0.132625,0.17334,-0.325273,0.13628,-0.430742,6.5e-05,0.058586,0.346969,-0.072358,0.119093,0.003819,-0.125426,0.057205,-0.127216,0.06383,-0.204653,0.908354,0.819892,0.066989,0.186878,0.007383,-0.161685,0.428705,0.797441,-0.838779,0.280425,-0.046495
-3.320067,3.102402,0.759539,-0.043978,0.017737,0.015991,-0.998747,0.185045,-0.259371,0.112575,0.162514,-0.333668,0.140236,-0.434962,-0.000886,-0.003147,0.266056,-0.055458,0.16128,0.001214,-0.122505,0.053228,-0.12609,0.05438,-0.233331,0.896884,0.810066,0.041148,0.190072,0.009547,-0.178754,0.44119,0.808154,-0.859907,0.282691,-0.027479
-3.299618,3.107546,0.755488,-0.04625,0.014834,0.008011,-0.998788,0.216232,-0.275157,0.088531,0.153533,-0.342037,0.143131,-0.436039,-0.00383,-0.067643,0.216705,-0.070471,0.158293,-0.000898,-0.119522,0.048769,-0.124473,0.048309,-0.274036,0.893959,0.811102,0.019611,0.179277,0.020512,-0.188771,0.437477,0.817024,-0.866862,0.285525,-0.014703
-3.278507,3.112384,0.752674,-0.047014,0.012171,-0.000895,-0.99882,0.249149,-0.285362,0.061546,0.146294,-0.348453,0.142373,-0.432986,0.003085,-0.101033,0.199429,-0.071592,0.136049,-0.003908,-0.114353,0.042871,-0.120113,0.045283,-0.318854,0.897022,0.82241,0.01013,0.162124,0.036442,-0.191187,0.421907,0.827323,-0.862791,0.290966,-0.008426
-3.25643,3.117002,0.754755,-0.042791,0.010858,-0.011362,-0.99896,0.289302,-0.283423,0.032604,0.138989,-0.345262,0.135674,-0.425244,0.032545,-0.068948,0.212376,-0.031774,0.041091,-0.009357,-0.104559,0.035585,-0.108239,0.043254,-0.357573,0.90563,0.833545,0.009057,0.138426,0.055335,-0.184741,0.402048,0.842481,-0.854733,0.29738,-0.006318
-3.233673,3.121072,0.756547,-0.036047,0.010316,-0.022034,-0.999054,0.324557,-0.271244,0.002038,0.139533,-0.33316,0.121327,-0.407286,0.062404,-0.033002,0.21892,0.041549,-0.044653,-0.014327,-0.090735,0.025823,-0.089734,0.040115,-0.385975,0.921243,0.839273,0.014417,0.10528,0.075441,-0.174953,0.383591,0.863975,-0.850552,0.307175,-0.007424
-3.210913,3.124668,0.75882,-0.027043,0.009356,-0.032297,-0.999069,0.344423,-0.251197,-0.022706,0.162906,-0.311241,0.098146,-0.380425,0.071045,-0.042571,0.225619,0.080368,-0.080138,-0.016669,-0.07255,0.013943,-0.069782,0.038289,-0.396406,0.947473,0.828963,0.018372,0.0303,0.093444,-0.164103,0.366517,0.892014,-0.850036,0.318454,-0.005803
-3.187904,3.128619,0.762485,-0.015561,0.010747,-0.040503,-0.999,0.352189,-0.224615,-0.036449,0.213203,-0.280582,0.061779,-0.348965,0.079433,-0.061606,0.242787,0.037749,-0.061065,-0.019351,-0.04937,0.003221,-0.057103,0.048672,-0.385515,0.988673,0.802807,0.035452,-0.090864,0.107186,-0.152949,0.352094,0.928879,-0.854138,0.326531,-0.000293
-3.165181,3.13275,0.76627,-0.005844,0.012966,-0.046573,-0.998814,0.343908,-0.201244,-0.039083,0.288566,-0.230189,0.01232,-0.313201,0.088513,-0.071711,0.257892,-0.011538,-0.054683,-0.02541,-0.024945,-0.004491,-0.056201,0.07656,-0.384553,1.020022,0.810222,0.078164,-0.143536,0.108525,-0.144458,0.341564,0.970859,-0.867404,0.346182,0.011833
-3.14348,3.136536,0.770029,0.003018,0.012784,-0.054195,-0.998444,0.304264,-0.178222,-0.04082,0.402829,-0.160921,-0.05662,-0.276521,0.096734,-0.086654,0.256911,-0.046212,-0.057764,-0.034345,-0.004825,-0.008577,-0.060354,0.116786,-0.422413,1.0324,0.87532,0.123148,-0.098569,0.099871,-0.134263,0.332078,1.000634,-0.883403,0.369692,0.044517
-3.123322,3.140114,0.772744,0.00998,0.012258,-0.062851,-0.997898,0.240833,-0.16016,-0.049966,0.550598,-0.086788,-0.167651,-0.24793,0.102088,-0.101672,0.263734,-0.080401,-0.067282,-0.045486,0.010207,-0.007871,-0.060848,0.15852,-0.466181,1.0359,0.941473,0.151708,-0.030518,0.091661,-0.125214,0.313809,1.004706,-0.895074,0.38209,0.069222
-3.103925,3.144127,0.777065,0.013389,0.012164,-0.073154,-0.997157,0.166028,-0.157458,-0.048535,0.718078,-0.003552,-0.244137,-0.221087,0.099295,-0.11618,0.273816,-0.114199,-0.071767,-0.058942,0.021044,-0.002444,-0.060004,0.200342,-0.488598,1.032176,0.969053,0.148814,0.017051,0.086593,-0.118393,0.286653,0.985514,-0.899184,0.378807,0.071321
-3.08544,3.148437,0.77938,0.013979,0.012946,-0.086467,-0.996073,0.080071,-0.15252,-0.01006,0.878655,0.094339,-0.247651,-0.190016,0.089842,-0.133966,0.275525,-0.145283,-0.071833,-0.076653,0.02685,0.006353,-0.054873,0.244299,-0.47556,1.015899,0.954095,0.126663,0.03107,0.076005,-0.106697,0.254595,0.950873,-0.894295,0.363754,0.053257
-3.067598,3.153251,0.781134,0.012732,0.013926,-0.100122,-0.994796,-0.010133,-0.12817,0.032004,1.015126,0.198832,-0.24779,-0.154964,0.077365,-0.152106,0.268496,-0.172217,-0.069101,-0.092559,0.029411,0.017136,-0.051941,0.283387,-0.438463,0.996107,0.907612,0.102595,0.018187,0.069452,-0.095173,0.230001,0.919627,-0.889534,0.3429,0.007569
-3.050391,3.158734,0.782113,0.012382,0.015856,-0.110985,-0.993618,-0.093508,-0.090266,0.055152,1.112508,0.221651,-0.247781,-0.120159,0.068236,-0.167714,0.263166,-0.198827,-0.06378,-0.101516,0.031095,0.02799,-0.049994,0.315495,-0.38983,0.978028,0.85466,0.097491,0.009745,0.061867,-0.082969,0.219463,0.90006,-0.888845,0.327394,-0.042649
-3.033735,3.164854,0.782092,0.013394,0.018121,-0.117516,-0.992815,-0.169456,-0.056585,0.050044,1.168152,0.145495,-0.247756,-0.091929,0.063464,-0.177566,0.269357,-0.22816,-0.059026,-0.102311,0.033197,0.037651,-0.046982,0.338839,-0.3421,0.961501,0.815766,0.108928,0.026371,0.049485,-0.07188,0.226716,0.895822,-0.897002,0.321676,-0.073016
-3.017285,3.171721,0.781175,0.015628,0.019867,-0.120315,-0.992414,-0.242804,-0.023438,0.026193,1.187077,0.021581,-0.247297,-0.072578,0.061236,-0.181363,0.290247,-0.261917,-0.055389,-0.096278,0.035689,0.045659,-0.045569,0.343539,-0.298345,0.956556,0.78692,0.137762,0.079838,0.042178,-0.064022,0.243111,0.897812,-0.906655,0.310426,-0.081119
-3.000392,3.179264,0.779885,0.017111,0.020332,-0.119331,-0.992499,-0.311216,0.021358,0.005642,1.163751,-0.105598,-0.235972,-0.056259,0.058501,-0.177962,0.314136,-0.295159,-0.05156,-0.084213,0.038449,0.052014,-0.035642,0.348044,-0.250063,0.930927,0.759621,0.16727,0.136785,0.019631,-0.060365,0.260242,0.915534,-0.915952,0.290691,-0.071242
-2.982744,3.187563,0.778122,0.019267,0.020259,-0.118101,-0.992608,-0.372957,0.077072,0.023455,1.101652,-0.18958,-0.179964,-0.0372,0.056727,-0.173103,0.333995,-0.328823,-0.046459,-0.070458,0.041406,0.057933,-0.020072,0.334206,-0.203529,0.90268,0.73492,0.188542,0.200242,-0.002455,-0.058319,0.280835,0.922312,-0.925316,0.270061,-0.051261
-2.964115,3.196559,0.775956,0.021572,0.019267,-0.115531,-0.992883,-0.421462,0.122112,0.043614,0.99302,-0.232894,-0.114238,-0.014029,0.055228,-0.166147,0.346012,-0.361476,-0.039115,-0.05456,0.043517,0.06342,-0.007831,0.309446,-0.170803,0.881222,0.702707,0.199129,0.243681,-0.026815,-0.055716,0.304447,0.921444,-0.935045,0.251979,-0.036402
-2.944424,3.206237,0.773206,0.024097,0.017331,-0.112906,-0.993162,-0.45353,0.148926,0.050326,0.840324,-0.245987,-0.073834,0.013208,0.05333,-0.158795,0.35104,-0.3928,-0.029451,-0.037909,0.044519,0.067738,0.006405,0.287435,-0.156164,0.86346,0.675569,0.192955,0.259743,-0.043621,-0.058767,0.328774,0.910832,-0.939936,0.226117,-0.033088
-2.923569,3.216621,0.769881,0.027087,0.015048,-0.109398,-0.993515,-0.465011,0.15708,0.033245,0.647398,-0.230147,-0.059614,0.047021,0.051885,-0.149395,0.3457,-0.419798,-0.018154,-0.021451,0.044875,0.070119,0.024315,0.267161,-0.161497,0.8525,0.663126,0.182353,0.2602,-0.05541,-0.066383,0.357154,0.897257,-0.943912,0.201668,-0.032939
-2.901804,3.227295,0.76672,0.027354,0.012302,-0.10547,-0.99397,-0.460891,0.152403,0.002915,0.437533,-0.162132,-0.06041,0.092596,0.046064,-0.13811,0.31699,-0.435427,-0.005252,-0.007188,0.043038,0.070284,0.045768,0.23956,-0.178648,0.847975,0.659589,0.172125,0.252303,-0.064057,-0.078847,0.386428,0.883362,-0.947658,0.185054,-0.036514
-2.879345,3.238616,0.763102,0.027061,0.01048,-0.100552,-0.994509,-0.446126,0.141545,-0.034974,0.261987,-0.097254,-0.100786,0.142273,0.037316,-0.126135,0.285701,-0.449898,0.010524,0.004902,0.038774,0.069042,0.070632,0.210576,-0.209941,0.853526,0.669201,0.163797,0.22274,-0.068174,-0.090663,0.411901,0.873209,-0.945377,0.16972,-0.03629
-2.856652,3.2508,0.75954,0.025297,0.01012,-0.096053,-0.995003,-0.428194,0.136658,-0.031899,0.166525,-0.052262,-0.151169,0.190218,0.021667,-0.116608,0.264502,-0.461394,0.028171,0.012946,0.033001,0.06802,0.096133,0.178681,-0.250423,0.865473,0.694819,0.153459,0.192318,-0.070147,-0.103652,0.428842,0.870466,-0.937953,0.162597,-0.027101
-2.834065,3.263695,0.757458,0.018957,0.010958,-0.092441,-0.995477,-0.397815,0.123734,0.001565,0.151472,0.06656,-0.131228,0.237823,-0.006909,-0.111195,0.248521,-0.460532,0.051145,0.019853,0.023287,0.067383,0.114616,0.14487,-0.31388,0.888197,0.74986,0.14058,0.155933,-0.068789,-0.11919,0.434279,0.872894,-0.929455,0.170657,-0.015161
-2.811936,3.276878,0.75723,0.007998,0.012079,-0.091595,-0.995691,-0.36796,0.092209,0.025678,0.162648,0.132504,-0.087523,0.275059,-0.047992,-0.112439,0.255102,-0.443824,0.079801,0.027264,0.00705,0.06705,0.128102,0.091921,-0.308002,0.907834,0.743227,0.143582,0.172278,-0.061578,-0.136304,0.426801,0.875923,-0.926405,0.195804,-0.007944
