hanqing-shi/Humanoids-Motion-Generation/dataset/data_joint/walk/walk2_subject3_seg1.csv
root_x,root_y,root_z,root_qx,root_qy,root_qz,root_qw,left_hip_pitch_joint,left_hip_roll_joint,left_hip_yaw_joint,left_knee_joint,left_ankle_pitch_joint,left_ankle_roll_joint,right_hip_pitch_joint,right_hip_roll_joint,right_hip_yaw_joint,right_knee_joint,right_ankle_pitch_joint,right_ankle_roll_joint,waist_yaw_joint,waist_roll_joint,waist_pitch_joint,left_shoulder_pitch_joint,left_shoulder_roll_joint,left_shoulder_yaw_joint,left_elbow_joint,left_wrist_roll_joint,left_wrist_pitch_joint,left_wrist_yaw_joint,right_shoulder_pitch_joint,right_shoulder_roll_joint,right_shoulder_yaw_joint,right_elbow_joint,right_wrist_roll_joint,right_wrist_pitch_joint,right_wrist_yaw_joint
0.479163,-0.132639,0.757973,0.020066,0.001606,-0.115387,0.993117,0.113942,-0.159554,0.200264,0.287922,-0.465039,0.145184,-0.530277,0.062045,-0.178588,0.253306,-0.107528,-0.023455,-0.073853,-0.041482,0.114426,0.043379,0.222771,-0.165849,0.256379,0.714001,0.204343,0.21001,0.469074,-0.026494,-0.169308,0.502391,-0.722157,0.484362,-0.270234
0.494485,-0.135184,0.756507,0.017734,0.005322,-0.105174,0.994281,0.131834,-0.157615,0.179557,0.285259,-0.471578,0.144399,-0.522964,0.067622,-0.158369,0.260689,-0.109917,-0.039537,-0.08277,-0.026425,0.111268,0.060405,0.220255,-0.201095,0.282278,0.722221,0.22804,0.198855,0.436747,-0.005641,-0.176523,0.577261,-0.72976,0.484619,-0.242535
0.51079,-0.137995,0.755631,0.015675,0.009451,-0.094133,0.995391,0.149979,-0.155017,0.154875,0.282659,-0.471745,0.13963,-0.501191,0.06736,-0.14245,0.265737,-0.102962,-0.039143,-0.090538,-0.011851,0.105521,0.07272,0.218391,-0.244229,0.324419,0.727426,0.247859,0.177558,0.418554,-0.009237,-0.117061,0.618194,-0.766043,0.475121,-0.158805
0.528131,-0.141264,0.756049,0.012356,0.012256,-0.082073,0.996474,0.173254,-0.14788,0.12718,0.278411,-0.464441,0.131055,-0.472699,0.066625,-0.140672,0.270706,-0.065873,-0.035754,-0.095196,0.001451,0.098206,0.086235,0.221335,-0.296264,0.37473,0.734513,0.26307,0.139191,0.417674,-0.025564,-0.034515,0.640188,-0.82286,0.425266,-0.063539
0.546561,-0.144943,0.759639,0.005603,0.016073,-0.072426,0.997229,0.201885,-0.133257,0.1014,0.267264,-0.442785,0.119354,-0.439564,0.072365,-0.164813,0.236734,0.019203,-0.073555,-0.095519,0.015331,0.089791,0.102509,0.228566,-0.34572,0.424757,0.74345,0.279122,0.085424,0.416686,-0.033158,0.028919,0.644692,-0.869316,0.356918,0.007899
0.565626,-0.149165,0.760854,-0.002863,0.018256,-0.069056,0.997442,0.222152,-0.111166,0.088635,0.280003,-0.421773,0.103276,-0.416653,0.086038,-0.184006,0.23923,0.046424,-0.104097,-0.093757,0.0324,0.083333,0.131997,0.231657,-0.377064,0.469242,0.749805,0.292047,0.042714,0.40896,-0.029524,0.060499,0.645861,-0.894852,0.317006,0.048178
0.585267,-0.153764,0.762673,-0.01236,0.016688,-0.068684,0.997422,0.234535,-0.084521,0.084163,0.322387,-0.393202,0.079608,-0.402198,0.104662,-0.194323,0.278349,0.012263,-0.133535,-0.092608,0.049514,0.080362,0.175013,0.223061,-0.38414,0.514792,0.749173,0.314512,0.024222,0.391693,-0.014379,0.066583,0.654533,-0.9011920000000002,0.307819,0.072302
0.605353,-0.158815,0.764871,-0.02102,0.013158,-0.064552,0.9976060000000002,0.230527,-0.055507,0.076141,0.398039,-0.347936,0.038112,-0.375689,0.119737,-0.206162,0.309002,-0.03039,-0.151953,-0.094689,0.063932,0.078337,0.216811,0.206257,-0.383199,0.56946,0.745766,0.34805,0.022487,0.369095,0.003491,0.055405,0.661602,-0.905842,0.316538,0.078151
0.62509,-0.164369,0.766896,-0.028766,0.008731,-0.052133,0.998188,0.201954,-0.022601,0.054217,0.513562,-0.289859,-0.037001,-0.340963,0.127762,-0.228716,0.327777,-0.072114,-0.163943,-0.100437,0.073613,0.076254,0.246381,0.195881,-0.393414,0.626466,0.747199,0.375654,0.009479,0.343171,0.026186,0.023772,0.652284,-0.909812,0.338333,0.065259
0.644082,-0.170091,0.767796,-0.036066,0.004449,-0.033522,0.998777,0.14535,0.010843,0.019351,0.67124,-0.221096,-0.134791,-0.306645,0.130863,-0.26147,0.342333,-0.112672,-0.166998,-0.107078,0.079804,0.075826,0.255386,0.208644,-0.432901,0.683986,0.767985,0.397414,-0.041905,0.335953,0.049551,-0.012981,0.64069,-0.915271,0.334594,0.009141
0.663124,-0.175529,0.769195,-0.041675,-0.000865,-0.012784,0.999049,0.073827,0.037427,-0.016888,0.847239,-0.135366,-0.2234,-0.266777,0.131286,-0.296617,0.34917,-0.15125,-0.166901,-0.112656,0.084049,0.076515,0.244171,0.229073,-0.466392,0.732821,0.776759,0.403367,-0.112622,0.333804,0.070607,-0.045876,0.625779,-0.902915,0.315036,-0.064634
0.681751,-0.180584,0.76938,-0.04434,-0.006242,0.007738,0.998967,-0.011228,0.056065,-0.023677,1.020672,-0.042123,-0.246719,-0.22401,0.129797,-0.330154,0.346983,-0.185248,-0.165789,-0.117364,0.085425,0.078627,0.22943,0.243125,-0.477678,0.765211,0.778122,0.407813,-0.157201,0.315522,0.073831,-0.056929,0.618481,-0.893234,0.294326,-0.112757
0.699408,-0.184743,0.768824,-0.047748,-0.011374,0.024963,0.998483,-0.095128,0.082961,-0.029465,1.16467,-0.012432,-0.247463,-0.18724,0.13204,-0.359138,0.349478,-0.216947,-0.164378,-0.116851,0.086074,0.082486,0.215938,0.253697,-0.438351,0.770598,0.758113,0.419373,-0.147569,0.289803,0.060084,-0.049629,0.618115,-0.892327,0.277694,-0.128896
0.716386,-0.187946,0.768228,-0.050071,-0.017315,0.034048,0.998015,-0.166578,0.098177,-0.078111,1.259123,-0.081422,-0.241631,-0.15015,0.137787,-0.37415,0.351242,-0.244686,-0.16211,-0.105944,0.088305,0.086364,0.211607,0.249702,-0.366169,0.757451,0.727637,0.429722,-0.07783,0.260541,0.031491,-0.034229,0.620904,-0.90135,0.27102,-0.117449
0.732843,-0.190482,0.767963,-0.050708,-0.022546,0.040328,0.997644,-0.235542,0.118753,-0.086181,1.305022,-0.132751,-0.15302,-0.111473,0.143558,-0.38204,0.345767,-0.266635,-0.159108,-0.091944,0.089776,0.089696,0.215318,0.231357,-0.277586,0.730728,0.689059,0.424798,0.031564,0.231543,-0.002815,-0.021357,0.621348,-0.911112,0.274826,-0.0885
0.748622,-0.192406,0.767614,-0.051185,-0.026337,0.043461,0.997395,-0.299669,0.135709,-0.078524,1.302326,-0.177798,-0.051079,-0.078907,0.149257,-0.384523,0.344777,-0.287474,-0.155848,-0.074863,0.089814,0.09272300000000001,0.222181,0.206964,-0.198531,0.698991,0.653058,0.406474,0.150977,0.205,-0.035619,-0.0139,0.615252,-0.921108,0.28456,-0.061454
0.76382,-0.194043,0.767069,-0.050992,-0.028349,0.044214,0.997317,-0.356444,0.121793,-0.080449,1.255115,-0.235722,0.039255,-0.053602,0.153663,-0.382963,0.349232,-0.308873,-0.152519,-0.056179,0.087809,0.09483200000000001,0.229924,0.186018,-0.142469,0.665248,0.617625,0.3773,0.236734,0.185949,-0.063804,-0.015179,0.600033,-0.930335,0.289432,-0.04766
0.778707,-0.195511,0.7661,-0.051392,-0.029232,0.043667,0.997295,-0.404995,0.089271,-0.092867,1.172504,-0.285317,0.063972,-0.035545,0.158121,-0.379437,0.362654,-0.333685,-0.149777,-0.03871,0.083568,0.096424,0.237553,0.172138,-0.111789,0.630878,0.589093,0.34914,0.276838,0.17323,-0.085103,-0.018254,0.577156,-0.930853,0.290574,-0.051329
0.793674,-0.197124,0.765112,-0.050403,-0.02859,0.04103,0.997476,-0.441774,0.045633,-0.112169,1.057202,-0.291475,0.053853,-0.018526,0.161575,-0.372146,0.372739,-0.355521,-0.147984,-0.023494,0.077758,0.097424,0.252407,0.16827,-0.100823,0.597465,0.575036,0.317443,0.283378,0.165643,-0.105973,-0.01769,0.549126,-0.927574,0.289422,-0.061363
0.80879,-0.198998,0.763344,-0.0498,-0.026892,0.037672,0.997686,-0.465387,-0.008506,-0.149838,0.922301,-0.301067,0.058103,-0.0023,0.167215,-0.362338,0.38158,-0.382883,-0.146898,-0.010599,0.070897,0.097642,0.2685,0.162639,-0.099167,0.561565,0.569615,0.296794,0.274315,0.156509,-0.117845,-0.013609,0.526741,-0.918767,0.288699,-0.075691
0.82402,-0.20133,0.761273,-0.049019,-0.024264,0.036001,0.997854,-0.481104,-0.018851,-0.126726,0.766834,-0.298847,-0.016336,0.017238,0.174044,-0.355028,0.379748,-0.403973,-0.145823,-0.003558,0.064259,0.096613,0.282731,0.152208,-0.101057,0.533069,0.566186,0.28493,0.260748,0.150622,-0.12904,-0.010603,0.504494,-0.907101,0.286726,-0.090926
0.839222,-0.20401,0.759328,-0.047797,-0.020535,0.03338,0.998088,-0.492094,-0.023899,-0.084332,0.607052,-0.265244,-0.025217,0.038312,0.180806,-0.347768,0.369193,-0.417184,-0.142869,0.001213,0.057884,0.09454000000000001,0.296683,0.139461,-0.10761,0.514055,0.566328,0.273649,0.245823,0.146909,-0.135908,-0.006659,0.485483,-0.893408,0.28882,-0.100122
0.854331,-0.20682,0.757628,-0.046114,-0.015863,0.031664,0.998308,-0.498935,-0.029246,-0.017191,0.455281,-0.215183,-0.041322,0.060244,0.187302,-0.340286,0.351791,-0.424265,-0.139718,0.003067,0.051666,0.0915,0.309473,0.125888,-0.116115,0.506305,0.572557,0.26784,0.23027,0.145523,-0.138934,-0.001664,0.469882,-0.883566,0.29488,-0.10862
0.869393,-0.209588,0.75625,-0.043789,-0.011068,0.029999,0.9985290000000001,-0.503684,-0.046881,0.034745,0.329149,-0.172548,-0.060619,0.082254,0.192209,-0.332429,0.332623,-0.42477,-0.136898,0.004647,0.044491,0.088725,0.319578,0.113403,-0.125875,0.510587,0.588029,0.272111,0.212375,0.148859,-0.136416,0.005618,0.459443,-0.873797,0.296907,-0.110337
0.884659,-0.212075,0.754984,-0.041454,-0.007259,0.026773,0.998755,-0.512536,-0.073195,0.038861,0.25101,-0.14316,-0.08308,0.102684,0.195481,-0.32145,0.32205,-0.426995,-0.134202,0.008016,0.03607,0.087397,0.328366,0.10038,-0.130255,0.522841,0.601799,0.283696,0.194929,0.156459,-0.131123,0.020861,0.456202,-0.871237,0.301573,-0.107084
0.90017,-0.21415,0.754331,-0.039997,-0.004312,0.021266,0.998964,-0.522065,-0.090313,0.028744,0.233712,-0.118986,-0.091619,0.120394,0.198521,-0.305868,0.321362,-0.430651,-0.131834,0.012326,0.02782,0.087351,0.327476,0.084278,-0.125905,0.541796,0.608515,0.306227,0.181289,0.165223,-0.124265,0.041971,0.455162,-0.86887,0.305072,-0.095342
0.916194,-0.215935,0.756778,-0.037747,-0.0017,0.011197,0.999223,-0.526923,-0.093699,0.028468,0.258998,-0.081587,-0.068211,0.138507,0.199512,-0.286087,0.326131,-0.430609,-0.129811,0.017963,0.019698,0.087329,0.334455,0.068775,-0.116626,0.563557,0.612629,0.324847,0.167652,0.167065,-0.119812,0.077486,0.472836,-0.869707,0.309437,-0.080303
0.932856,-0.217398,0.757506,-0.035703,0.000423,-0.003222,0.999357,-0.516728,-0.085785,0.037301,0.294288,-0.0541,-0.030045,0.15481,0.197818,-0.261118,0.335158,-0.42989,-0.128366,0.025497,0.010865,0.085555,0.348137,0.059164,-0.102846,0.588274,0.619632,0.343821,0.157767,0.17116,-0.114547,0.123406,0.502239,-0.879795,0.31254,-0.05286
0.950494,-0.218562,0.757332,-0.033384,0.002453,-0.021914,0.999199,-0.487953,-0.076159,0.040273,0.31883,-0.052374,-0.019458,0.17087,0.192797,-0.228713,0.348956,-0.425712,-0.126788,0.034289,0.001379,0.081006,0.365832,0.049299,-0.081027,0.611945,0.622747,0.358947,0.152322,0.17394,-0.108252,0.170958,0.537966,-0.894096,0.311961,-0.017994
0.968676,-0.219249,0.760033,-0.02643,0.005763,-0.042516,0.99873,-0.45079,-0.0745,0.063952,0.288141,-0.009776000000000002,0.048064,0.186798,0.176289,-0.191353,0.353407,-0.399138,-0.123258,0.04117,-0.009976,0.07355,0.382283,0.035349,-0.060238,0.636654,0.629709,0.370987,0.149281,0.174226,-0.108112,0.215638,0.576517,-0.914469,0.309856,0.017826
0.987959,-0.219933,0.76203,-0.017579,0.008338,-0.059828,0.998019,-0.408775,-0.077504,0.09687,0.252363,0.022042,0.109741,0.197485,0.153263,-0.156881,0.372918,-0.361338,-0.120475,0.044918,-0.0256,0.064812,0.392136,0.022859,-0.044374,0.670296,0.643253,0.385931,0.145141,0.180405,-0.110355,0.249296,0.613843,-0.93397,0.30827,0.044182
1.008,-0.220872,0.765257,-0.008876,0.008801,-0.069256,0.9975210000000002,-0.383155,-0.087111,0.118833,0.258247,-0.000201,0.133504,0.200732,0.127749,-0.139271,0.415989,-0.311645,-0.120081,0.046005,-0.044742,0.058484,0.389678,0.018673,-0.035911,0.713968,0.664862,0.397661,0.138409,0.197039,-0.112675,0.265458,0.646147,-0.945555,0.312729,0.06061
1.028306,-0.221925,0.76836,-0.000856,0.006901,-0.076704,0.99703,-0.357537,-0.096645,0.136764,0.277633,-0.038315,0.139435,0.189478,0.099783,-0.131202,0.488126,-0.242655,-0.118221,0.04667,-0.063356,0.055255,0.375855,0.019709,-0.029235,0.759554,0.689792,0.410978,0.122507,0.219177,-0.119501,0.28028,0.673411,-0.957594,0.317583,0.07637
1.048423,-0.222532,0.771089,0.005214,0.003674,-0.0869,0.9961970000000001,-0.327752,-0.102511,0.156934,0.294449,-0.072049,0.155604,0.154477,0.069464,-0.120949,0.59799,-0.150303,-0.088526,0.049196,-0.076593,0.053528,0.350183,0.022235,-0.013537,0.803967,0.712552,0.419234,0.100193,0.240745,-0.137766,0.296938,0.692977,-0.967757,0.31558,0.099395
1.068085,-0.222383,0.772449,0.010134,9.700000000000001e-05,-0.101155,0.994819,-0.293215,-0.105946,0.182649,0.302155,-0.10521,0.163099,0.09333,0.037013,-0.099115,0.746931,-0.055016,-0.021636,0.054386,-0.084819,0.053069,0.325231,0.017543,0.010687,0.823178,0.725534,0.418625,0.0835,0.248254,-0.165878,0.315044,0.701946,-0.976645,0.306711,0.132205
1.087572,-0.222107,0.77474,0.014055,-0.004681,-0.11772,0.992936,-0.250962,-0.108467,0.21155,0.298968,-0.134923,0.165714,0.019219,0.003905,-0.077532,0.911021,0.036595,0.056066,0.061425,-0.089551,0.054143,0.313869,0.008009,0.045736,0.826584,0.723718,0.3892,0.099006,0.249803,-0.197717,0.325292,0.69568,-0.983307,0.30476,0.158207
1.106075,-0.221751,0.775026,0.01764,-0.008986,-0.133346,0.990872,-0.211298,-0.113159,0.240034,0.293433,-0.16346,0.165672,-0.063528,-0.035869,-0.0637,1.065433,0.092814,0.142209,0.06761,-0.093191,0.057108,0.300914,-0.005174,0.071636,0.803549,0.717286,0.361797,0.127007,0.244734,-0.222336,0.313939,0.676581,-0.975313,0.313499,0.168674
1.122939,-0.221675,0.773587,0.025469,-0.01334,-0.146904,0.988733,-0.187309,-0.125262,0.269337,0.307586,-0.195839,0.165622,-0.141723,-0.082665,-0.04504,1.183517,0.027259,0.176758,0.069046,-0.098137,0.061873,0.278277,-0.015635,0.08604,0.782585,0.712794,0.333424,0.157512,0.240421,-0.247345,0.282858,0.646706,-0.959555,0.327818,0.151573
1.139233,-0.222163,0.771883,0.032205,-0.0175,-0.153578,0.987457,-0.162989,-0.141022,0.286237,0.318288,-0.224705,0.166505,-0.213346,-0.122205,-0.029418,1.250801,-0.057539,0.172075,0.065046,-0.1043,0.066803,0.245893,-0.017077,0.087136,0.764132,0.717239,0.308999,0.186609,0.239916,-0.256127,0.23091,0.61318,-0.933762,0.348578,0.10502
1.155069,-0.223456,0.770442,0.037033,-0.021393,-0.153955,0.987152,-0.138586,-0.156638,0.290264,0.328223,-0.250765,0.168353,-0.27523,-0.14885,-0.017857,1.262198,-0.11499,0.126527,0.055367,-0.108568,0.071383,0.20301,-0.013349,0.078965,0.750472,0.728973,0.298466,0.204256,0.246328,-0.243143,0.168358,0.586268,-0.899662,0.370054,0.028145
1.170385,-0.22543,0.769378,0.040598,-0.024261,-0.149238,0.98767,-0.117798,-0.171167,0.283509,0.341165,-0.275889,0.169251,-0.325811,-0.164112,-0.014534,1.21987,-0.178335,0.040958,0.041086,-0.110481,0.075408,0.157705,-0.004726,0.066242,0.725996,0.738633,0.300714,0.20316,0.256577,-0.226927,0.108369,0.551744,-0.869596,0.387401,-0.042876
1.185406,-0.227846,0.768961,0.042153,-0.025845,-0.140908,0.988787,-0.097546,-0.183081,0.267003,0.351436,-0.298795,0.166271,-0.36676,-0.160388,-0.012502,1.136231,-0.22629,-0.043027,0.02409,-0.109889,0.078624,0.121546,0.00586,0.051762,0.691125,0.734479,0.287961,0.195834,0.266674,-0.207324,0.058586,0.515628,-0.834872,0.393526,-0.099285
1.200296,-0.2304,0.768979,0.042196,-0.026119,-0.130886,0.990155,-0.07726,-0.192884,0.243981,0.358264,-0.319659,0.161673,-0.399914,-0.13941,-0.003503,1.021117,-0.250215,-0.086314,0.00648,-0.106496,0.081165,0.09324,0.021755,0.032432,0.64587,0.721188,0.264328,0.190864,0.276947,-0.192758,0.030583,0.486252,-0.808791,0.392219,-0.130692
1.215188,-0.232828,0.768829,0.041143,-0.024901,-0.120124,0.991593,-0.056587,-0.199707,0.220783,0.361122,-0.338408,0.160773,-0.425101,-0.101283,0.021074,0.886773,-0.255124,-0.087745,-0.010394,-0.100622,0.082582,0.075449,0.047086,0.009093,0.594611,0.706797,0.232414,0.192197,0.281377,-0.183494,0.020871,0.471463,-0.793546,0.384238,-0.139711
1.230222,-0.234864,0.768071,0.039284,-0.02233,-0.110239,0.992877,-0.034067,-0.205199,0.197339,0.35651,-0.354477,0.161376,-0.443965,-0.06053,0.047238,0.7404,-0.239277,-0.061797,-0.024654,-0.093118,0.082434,0.059359,0.073555,-0.017885,0.54483,0.696958,0.210463,0.197658,0.289209,-0.176566,0.024573,0.4617,-0.790303,0.370503,-0.134852
1.245282,-0.236415,0.766827,0.037527,-0.018724,-0.102332,0.993866,-0.010726,-0.209583,0.178301,0.343871,-0.366437,0.163035,-0.459234,-0.028523,0.056491,0.593594,-0.201234,-0.038738,-0.035224,-0.085323,0.080914,0.048545,0.096307,-0.039846,0.494214,0.68416,0.19418,0.205738,0.297707,-0.165768,0.029277,0.457022,-0.786993,0.359208,-0.120373
1.260425,-0.23752,0.765238,0.035938,-0.014199,-0.096685,0.994565,0.012481,-0.214199,0.161106,0.326825,-0.375623,0.164818,-0.472064,-0.008172,0.031282,0.452414,-0.162062,-0.008425,-0.041445,-0.077911,0.078463,0.04366,0.115373,-0.055614,0.447784,0.672732,0.186106,0.218849,0.305659,-0.152122,0.036867,0.457504,-0.789141,0.351963,-0.103651
1.275747,-0.238375,0.763259,0.035683,-0.009371,-0.093117,0.994971,0.034533,-0.220631,0.147602,0.310206,-0.383601,0.165116,-0.481949,0.002218,-0.034818,0.327412,-0.13842,0.037211,-0.04384,-0.071138,0.075452,0.044865,0.125527,-0.064535,0.411426,0.654111,0.186103,0.228537,0.31351,-0.137445,0.046252,0.464672,-0.796818,0.348782,-0.085103
1.291377,-0.239183,0.760825,0.036726,-0.005396,-0.091062,0.995153,0.056175,-0.228533,0.138021,0.298457,-0.393509,0.164684,-0.491709,0.008746,-0.124245,0.244693,-0.128215,0.095545,-0.044844,-0.065428,0.072772,0.052377,0.130548,-0.070984,0.386806,0.637668,0.190298,0.237685,0.321037,-0.121123,0.053846,0.477803,-0.804654,0.35065,-0.06834
1.307362,-0.240123,0.758131,0.037735,-0.002746,-0.088065,0.995396,0.077516,-0.235711,0.127735,0.294476,-0.406541,0.164264,-0.504148,0.01478,-0.19162,0.223759,-0.120984,0.120255,-0.048268,-0.059789,0.071344,0.065229,0.131115,-0.077993,0.3761,0.623237,0.198918,0.242207,0.327073,-0.105943,0.063213,0.498175,-0.814959,0.353615,-0.052455
1.323751,-0.24127,0.755558,0.038214,-0.000786,-0.083178,0.995801,0.099473,-0.241461,0.11431,0.293557,-0.419547,0.164404,-0.512224,0.018187,-0.236672,0.243991,-0.113362,0.09376300000000001,-0.054177,-0.053926,0.070537,0.081958,0.130045,-0.08961,0.382417,0.617163,0.212947,0.247324,0.331651,-0.091961,0.074465,0.526599,-0.827847,0.358573,-0.033449
1.340908,-0.242798,0.753591,0.038679,0.000443,-0.073774,0.996524,0.12455,-0.246567,0.09343000000000001,0.292884,-0.428919,0.166347,-0.505944,0.018547,-0.262374,0.271354,-0.110013,0.067447,-0.06272,-0.047747,0.068288,0.098599,0.127434,-0.112195,0.406317,0.618714,0.230792,0.244003,0.337725,-0.080567,0.08427,0.561517,-0.845186,0.365908,-0.010584
1.358708,-0.244734,0.753429,0.037466,0.00207,-0.058693,0.997571,0.151511,-0.246293,0.06373,0.289197,-0.428013,0.168304,-0.486749,0.025282,-0.250887,0.289319,-0.099565,0.040937,-0.074851,-0.040396,0.06386,0.111201,0.127498,-0.14932,0.449263,0.629569,0.256316,0.224204,0.344357,-0.067281,0.087003,0.598044,-0.860356,0.374757,0.011309
1.377499,-0.247159,0.757146,0.034904,0.004469,-0.040308,0.998567,0.180608,-0.241135,0.0297,0.287035,-0.419132,0.169264,-0.4585,0.032352,-0.243457,0.279112,-0.071855,-0.01072,-0.086085,-0.031729,0.057354,0.119218,0.132212,-0.199894,0.505456,0.650489,0.283564,0.19113,0.351209,-0.052778,0.084969,0.634705,-0.874398,0.379072,0.036338
1.397051,-0.249809,0.759385,0.028883,0.007603,-0.023842,0.999269,0.209027,-0.225208,-0.000358,0.279832,-0.395682,0.168025,-0.416731,0.039812,-0.276753,0.231885,-0.006127,-0.13636,-0.09308,-0.020257,0.049074,0.127805,0.141092,-0.252908,0.56486,0.675831,0.308252,0.145458,0.35459,-0.03628,0.078074,0.672762,-0.888523,0.38382,0.054697
1.417171,-0.252628,0.760634,0.021742,0.008723,-0.013818,0.99963,0.227759,-0.205902,-0.019233,0.299955,-0.365601,0.164973,-0.387214,0.050414,-0.297399,0.228504,0.006278,-0.199779,-0.09760700000000001,-0.003503,0.043548,0.146855,0.148385,-0.297461,0.621936,0.702236,0.327002,0.095339,0.34954,-0.025353,0.07089,0.714603,-0.9042730000000001,0.388347,0.06906
1.437471,-0.254954,0.763081,0.012615,0.007237,-0.008016,0.999862,0.235017,-0.183899,-0.030821,0.348448,-0.328807,0.157365,-0.369361,0.060365,-0.31115,0.261681,-0.025563,-0.199354,-0.099072,0.016245,0.043193,0.177189,0.151006,-0.325442,0.671281,0.7253,0.349712,0.055314,0.334933,-0.020127,0.068997,0.762894,-0.930999,0.40296,0.077338
1.457812,-0.257437,0.765911,0.003818,0.003553,0.000507,0.999986,0.226712,-0.159331,-0.043808,0.427442,-0.277485,0.117938,-0.342546,0.068452,-0.326628,0.2898,-0.060643,-0.195426,-0.100436,0.034566,0.045099,0.212248,0.148911,-0.339275,0.709156,0.733661,0.361934,0.02999,0.317533,-0.016694,0.065132,0.799107,-0.959621,0.417284,0.087373
1.47764,-0.260109,0.768508,-0.003673,-0.00073,0.012569,0.999914,0.197717,-0.134414,-0.060513,0.537768,-0.21025,0.03344,-0.308387,0.073893,-0.348813,0.304616,-0.093367,-0.193721,-0.102739,0.048623,0.047527,0.240464,0.155787,-0.35517,0.741532,0.735936,0.374494,-0.001067,0.304466,-0.011469,0.05366,0.811122,-0.980794,0.419436,0.087125
1.496727,-0.263055,0.770249,-0.008628,-0.004929,0.027213,0.99958,0.147958,-0.112443,-0.078738,0.675536,-0.130368,-0.095804,-0.271285,0.076106,-0.374148,0.310369,-0.12577,-0.193437,-0.105978,0.058099,0.04977,0.26315,0.175119,-0.382546,0.755597,0.74452,0.378898,-0.053617,0.294395,-0.00465,0.031825,0.805015,-0.989504,0.406707,0.066787
1.515277,-0.265797,0.77249,-0.01309,-0.008187,0.044118,0.998907,0.07506,-0.097307,-0.098882,0.839336,-0.034206,-0.220077,-0.236684,0.076948,-0.402794,0.315113,-0.158293,-0.18974,-0.109749,0.064464,0.052772,0.274413,0.207829,-0.400031,0.755263,0.750736,0.373682,-0.093998,0.281543,0.003908,0.004577,0.788245,-0.982882,0.382018,0.035135
1.533051,-0.268597,0.773073,-0.015117,-0.011641,0.063838,0.997778,-0.013728,-0.082333,-0.070987,1.007808,0.051023,-0.246599,-0.199495,0.075181,-0.434638,0.312092,-0.188315,-0.183352,-0.118048,0.067166,0.05617,0.279047,0.232583,-0.39737,0.745381,0.747209,0.374827,-0.110602,0.26778,0.008994,-0.010779,0.763518,-0.967454,0.352617,0.007304
1.549604,-0.27105,0.772672,-0.01852,-0.014221,0.080811,0.996456,-0.109942,-0.034578,-0.037007,1.158236,0.062245,-0.247535,-0.170474,0.077881,-0.463485,0.314795,-0.21667,-0.17771,-0.124059,0.069229,0.060505,0.277717,0.241333,-0.361039,0.735587,0.729378,0.395526,-0.079139,0.242396,0.0079,-0.013274,0.743404,-0.959753,0.329637,-0.010106
1.565395,-0.272904,0.771932,-0.022239,-0.01749,0.085889,0.995903,-0.191944,0.043719,-0.046268,1.256654,-0.043236,-0.243218,-0.143717,0.088701,-0.474172,0.319505,-0.241624,-0.172897,-0.116826,0.074683,0.0651,0.273893,0.237292,-0.30335,0.726643,0.701897,0.407794,-0.014811,0.214861,-0.004808,-0.011088,0.728566,-0.957194,0.316461,-0.023947
1.580902,-0.274242,0.771626,-0.02445,-0.020519,0.083033,0.996036,-0.263582,0.120833,-0.035274,1.298236,-0.113155,-0.146631,-0.111349,0.104174,-0.469799,0.31061,-0.256698,-0.167907,-0.100698,0.081982,0.069382,0.272622,0.217226,-0.233323,0.714648,0.672327,0.412891,0.072433,0.178688,-0.022325,-0.011739,0.71069,-0.955177,0.310443,-0.036842
1.595838,-0.275107,0.771346,-0.026951,-0.022094,0.076734,0.996442,-0.326818,0.163195,-0.018939,1.285927,-0.167834,0.003733,-0.083207,0.120523,-0.45781,0.302871,-0.269049,-0.163474,-0.079563,0.08752,0.073203,0.270106,0.191148,-0.169315,0.700867,0.645876,0.412531,0.156223,0.141967,-0.036904,-0.016119,0.692347,-0.95391,0.317476,-0.046309
1.610335,-0.275712,0.770828,-0.029497,-0.022489,0.068212,0.996981,-0.382801,0.155137,-0.02981,1.233217,-0.21263,0.101631,-0.062328,0.135059,-0.441061,0.304593,-0.284075,-0.160424,-0.056474,0.089836,0.076475,0.265972,0.169123,-0.123693,0.68177,0.622867,0.407579,0.213346,0.108921,-0.045493,-0.022002,0.666575,-0.945485,0.321179,-0.058604
1.624761,-0.276344,0.770158,-0.031109,-0.022156,0.05883,0.997537,-0.427699,0.113872,-0.059958,1.146405,-0.248034,0.112498,-0.046015,0.146576,-0.421282,0.313164,-0.301293,-0.159017,-0.035164,0.088768,0.078722,0.263758,0.156398,-0.105282,0.657537,0.609353,0.394453,0.231323,0.08115,-0.054443,-0.020767,0.636721,-0.932434,0.315948,-0.071692
1.639428,-0.27734,0.769299,-0.031926,-0.020579,0.04947,0.998053,-0.461214,0.06125,-0.099923,1.030053,-0.256824,0.084888,-0.03145,0.156489,-0.401667,0.322674,-0.319685,-0.160841,-0.016953,0.084862,0.079873,0.263776,0.150612,-0.101168,0.626583,0.600976,0.370935,0.229331,0.058441,-0.066175,-0.008306,0.602221,-0.917737,0.30012,-0.087189
1.654369,-0.27899,0.767985,-0.032221,-0.017787,0.041021,0.99848,-0.483372,0.014108,-0.131078,0.887309,-0.249918,0.059166,-0.017015,0.166061,-0.383653,0.32858,-0.338388,-0.159538,-0.002902,0.079139,0.079735,0.266404,0.147795,-0.104962,0.595722,0.598054,0.345151,0.217935,0.041543,-0.081705,0.01497,0.567063,-0.904444,0.281595,-0.099193
1.669582,-0.281349,0.765847,-0.033296,-0.014407,0.033973,0.998764,-0.494949,-0.011072,-0.13168,0.723195,-0.237894,0.027571,-0.00014,0.177675,-0.369525,0.329211,-0.358872,-0.152258,0.006214,0.07295,0.078379,0.271512,0.142887,-0.106223,0.567368,0.593281,0.324548,0.208455,0.03029,-0.097131,0.044369,0.534412,-0.891095,0.265657,-0.104596
1.684912,-0.284365,0.763413,-0.033922,-0.010286,0.028222,0.9989730000000001,-0.499069,-0.019978,-0.091445,0.549235,-0.212077,-0.008166,0.019741,0.190723,-0.354775,0.319255,-0.372588,-0.146973,0.010245,0.067169,0.075677,0.27793,0.132932,-0.107016,0.543889,0.587903,0.310892,0.202335,0.022591,-0.111239,0.074435,0.504919,-0.8756,0.250293,-0.106984
1.700304,-0.287712,0.76086,-0.034685,-0.005512,0.023711,0.999102,-0.498605,-0.024069,-0.01887,0.382889,-0.192515,-0.062486,0.040024,0.204459,-0.340691,0.305195,-0.380184,-0.146917,0.010403,0.06177,0.07196,0.283609,0.121346,-0.111071,0.529179,0.588533,0.305053,0.200009,0.017706,-0.123417,0.103795,0.484622,-0.865493,0.249174,-0.102578
1.715839,-0.291086,0.75823,-0.035077,-0.001086,0.018927,0.999205,-0.50128,-0.039425,0.033374,0.256976,-0.180202,-0.128172,0.060028,0.21643,-0.325297,0.294637,-0.388387,-0.145409,0.010387,0.055956,0.06859,0.287544,0.109827,-0.11737,0.525646,0.592608,0.306322,0.192677,0.017565,-0.13003,0.129816,0.470681,-0.856408,0.252813,-0.099963
1.731491,-0.294328,0.755656,-0.035857,0.002652,0.014376,0.99925,-0.511547,-0.052628,0.063773,0.205296,-0.169264,-0.191644,0.078319,0.227223,-0.310379,0.291359,-0.399699,-0.143315,0.010688,0.0499,0.066769,0.287968,0.101288,-0.123913,0.53331,0.599377,0.310955,0.183093,0.02353,-0.130371,0.151609,0.464427,-0.847394,0.257343,-0.095093
1.747314,-0.297404,0.754034,-0.03657,0.005772,0.010404,0.99926,-0.528729,-0.052423,0.108534,0.238739,-0.14637,-0.189791,0.095354,0.236219,-0.297357,0.293019,-0.410784,-0.141493,0.010681,0.044325,0.066685,0.285388,0.093584,-0.128456,0.55043,0.607052,0.319342,0.171621,0.033654,-0.126545,0.169605,0.468842,-0.842618,0.269956,-0.091758
1.76402,-0.300338,0.75611,-0.036805,0.00775,0.001176,0.999292,-0.528761,-0.043222,0.149903,0.286175,-0.136186,-0.152928,0.116099,0.24452,-0.279216,0.299083,-0.413791,-0.140632,0.013767,0.037735,0.066242,0.286195,0.086439,-0.125693,0.571964,0.613697,0.332703,0.156262,0.045698,-0.117692,0.192631,0.486791,-0.840846,0.281512,-0.085209
1.781504,-0.302725,0.757378,-0.035327,0.009177,-0.015332,0.9992160000000002,-0.511564,-0.039479,0.155769,0.317854,-0.134581,-0.122751,0.135337,0.245242,-0.249035,0.311424,-0.414814,-0.139913,0.021994,0.02967,0.063918,0.292378,0.078168,-0.114846,0.593412,0.620682,0.348457,0.14323,0.054314,-0.110033,0.225082,0.521316,-0.847082,0.293704,-0.074172
1.799703,-0.30467,0.759433,-0.029023,0.010954,-0.036681,0.998845,-0.477748,-0.050014,0.150309,0.293269,-0.092199,-0.054647,0.157172,0.233719,-0.207713,0.316409,-0.398373,-0.138987,0.031471,0.019395,0.058313,0.304362,0.061877,-0.094366,0.611675,0.621499,0.361822,0.136956,0.057296,-0.110176,0.268464,0.572342,-0.865236,0.310232,-0.045491
1.818872,-0.306528,0.761626,-0.020697,0.013288,-0.057121,0.998064,-0.43515,-0.055935,0.17727,0.24472,-0.022747,0.051867,0.174232,0.214099,-0.169035,0.330744,-0.372752,-0.132102,0.036562,0.00618,0.050565,0.31794,0.046322,-0.075575,0.632724,0.625343,0.369777,0.135679,0.058538,-0.116961,0.317223,0.629462,-0.89057,0.325711,0.002039
1.838587,-0.308588,0.764409,-0.01168,0.014483,-0.072237,0.997214,-0.410437,-0.060839,0.203775,0.24477,-0.014778,0.109837,0.178045,0.190952,-0.138897,0.375777,-0.342606,-0.127002,0.037919,-0.011766,0.045237,0.324542,0.03778,-0.062528,0.661195,0.636465,0.372231,0.139566,0.066338,-0.127518,0.358954,0.680384,-0.913797,0.32659,0.052087
1.858828,-0.310919,0.766703,-0.003233,0.012176,-0.082338,0.9965250000000001,-0.38879,-0.06736,0.221952,0.271956,-0.040834,0.141113,0.171407,0.165188,-0.119666,0.449146,-0.294788,-0.107778,0.038113,-0.030936,0.042894,0.318948,0.037213,-0.058237,0.705318,0.658067,0.380434,0.135594,0.087394,-0.140738,0.388582,0.721078,-0.935493,0.325319,0.087032
1.879066,-0.312986,0.767274,0.003373,0.008659,-0.0932,0.995604,-0.360538,-0.070157,0.242681,0.299958,-0.073533,0.166113,0.140897,0.136801,-0.100553,0.563457,-0.225489,-0.038361,0.040209,-0.046623,0.042765,0.304436,0.039088,-0.051591,0.745887,0.680322,0.392399,0.120798,0.112702,-0.154892,0.407625,0.749563,-0.948568,0.324383,0.104494
1.898432,-0.314495,0.768767,0.009857,0.005384,-0.108881,0.993991,-0.327887,-0.071437,0.272542,0.312223,-0.108901,0.176161,0.080864,0.107811,-0.0651,0.71698,-0.140913,0.072404,0.044814,-0.057102,0.043764,0.286717,0.036988,-0.038684,0.770504,0.69916,0.401953,0.103004,0.129034,-0.182232,0.431783,0.766732,-0.959865,0.3143,0.127686
1.917448,-0.316269,0.77162,0.015189,0.00171,-0.127077,0.991775,-0.289881,-0.070575,0.304753,0.314568,-0.141821,0.17962,0.004362,0.088511,-0.019988,0.887625,-0.045562,0.200523,0.051516,-0.063776,0.045947,0.263301,0.030037,-0.009286,0.783994,0.705374,0.393898,0.10859,0.13762,-0.223427,0.453653,0.769587,-0.972668,0.297547,0.146648
1.935584,-0.318147,0.772772,0.018661,-0.00235,-0.147517,0.988881,-0.249951,-0.06766,0.33847,0.310045,-0.170948,0.178318,-0.080924,0.068786,-0.016971,1.054145,0.010304,0.245731,0.062076,-0.067263,0.049095,0.261381,0.017295,0.01859,0.778786,0.700807,0.364307,0.138008,0.142908,-0.253243,0.451029,0.757304,-0.966894,0.296894,0.148478
1.952669,-0.320414,0.772619,0.02427,-0.006393,-0.162429,0.986401,-0.221217,-0.071658,0.365529,0.319566,-0.202335,0.175756,-0.161138,0.014301,-0.012783,1.18437,-0.036552,0.24697,0.066272,-0.070704,0.054046,0.242842,0.009403000000000002,0.029584,0.77199,0.701213,0.339059,0.159706,0.14949,-0.28075,0.422965,0.736992,-0.948601,0.310629,0.13068
1.969492,-0.323213,0.772241,0.028377,-0.01048,-0.165902,0.985678,-0.191105,-0.083382,0.372999,0.323871,-0.229926,0.174245,-0.230391,-0.061268,-0.007216,1.255994,-0.105003,0.230496,0.059269,-0.075608,0.059716,0.206377,0.01356,0.0202,0.761954,0.715036,0.329082,0.165818,0.162576,-0.288875,0.36523,0.709532,-0.920015,0.341447,0.089667
1.985952,-0.326806,0.771872,0.031186,-0.014821,-0.162333,0.986132,-0.160246,-0.097138,0.365965,0.327522,-0.255654,0.173049,-0.289161,-0.12948,-0.034048,1.269177,-0.146211,0.11583,0.044815,-0.080198,0.065457,0.165338,0.026007,-0.005604,0.754212,0.738549,0.317982,0.157423,0.177978,-0.275461,0.294369,0.687567,-0.886778,0.376838,0.028117
2.001895,-0.331073,0.771415,0.033509,-0.018647,-0.154127,0.987307,-0.134334,-0.109807,0.349465,0.338162,-0.282971,0.169799,-0.339429,-0.155074,-0.047465,1.231456,-0.19454,-0.017566,0.024903,-0.082588,0.071184,0.132512,0.043152,-0.030739,0.737189,0.753443,0.296132,0.150718,0.186127,-0.256418,0.216634,0.66685,-0.848393,0.404445,-0.031253
2.017648,-0.335677,0.771126,0.034355,-0.021241,-0.143692,0.988798,-0.110741,-0.119303,0.32714,0.349775,-0.310725,0.163945,-0.382267,-0.145816,-0.044419,1.151874,-0.235435,-0.086329,0.003985,-0.081483,0.076613,0.101124,0.061171,-0.051866,0.703913,0.7588,0.275197,0.142771,0.195043,-0.236101,0.150047,0.642699,-0.817774,0.421014,-0.080174
2.033461,-0.34032,0.770916,0.034487,-0.022447,-0.132912,0.990273,-0.089412,-0.126423,0.303129,0.362187,-0.339276,0.157733,-0.417201,-0.117945,-0.030747,1.040583,-0.253285,-0.095049,-0.015508,-0.077024,0.080931,0.073889,0.076578,-0.064562,0.658265,0.746716,0.255644,0.144333,0.204058,-0.219161,0.102534,0.618891,-0.799375,0.424966,-0.112539
2.049555,-0.344689,0.770778,0.032468,-0.022166,-0.122064,0.991743,-0.06565,-0.12998,0.277941,0.366866,-0.364742,0.153978,-0.439374,-0.079648,-0.016518,0.898424,-0.246575,-0.083116,-0.031507,-0.069945,0.083291,0.05203,0.0953,-0.081598,0.60775,0.730396,0.236458,0.153207,0.214021,-0.202924,0.073656,0.599892,-0.790228,0.419103,-0.127147
2.065857,-0.348659,0.77003,0.029843,-0.020408,-0.112608,0.992981,-0.041911,-0.131755,0.254895,0.367767,-0.388775,0.154531,-0.451383,-0.044235,-0.013672,0.735582,-0.236062,-0.052849,-0.042759,-0.061222,0.08407,0.033514,0.115592,-0.099734,0.555845,0.709233,0.217562,0.16479,0.224198,-0.186473,0.057746,0.586783,-0.78454,0.407316,-0.12583
2.082173,-0.352183,0.768905,0.02661,-0.017535,-0.104789,0.993984,-0.018414,-0.131229,0.235096,0.362674,-0.409003,0.153764,-0.457393,-0.018861,-0.03284,0.568155,-0.206749,0.00047,-0.04939,-0.051799,0.083465,0.017363,0.138783,-0.121905,0.510362,0.6987,0.211499,0.175039,0.233683,-0.16948,0.054854,0.581704,-0.788145,0.396263,-0.119693
2.098502,-0.355307,0.767629,0.023583,-0.013934,-0.099362,0.994674,0.006614,-0.130291,0.219742,0.349424,-0.424853,0.150849,-0.458022,-0.00394,-0.089292,0.407304,-0.169312,0.01837,-0.052336,-0.04271,0.081303,0.007334,0.156282,-0.138498,0.467526,0.683581,0.207684,0.182973,0.241249,-0.151389,0.05954,0.584136,-0.796146,0.385978,-0.100963
2.114953,-0.358264,0.766032,0.021661,-0.00925,-0.094564,0.99524,0.031143,-0.130949,0.206092,0.332564,-0.439244,0.146875,-0.460882,0.008419,-0.159386,0.274976,-0.139873,0.043168,-0.053734,-0.034351,0.078199,0.001592,0.171063,-0.155778,0.432886,0.676128,0.210025,0.188753,0.246792,-0.131256,0.062793,0.589344,-0.803616,0.380457,-0.076295
2.13172,-0.361402,0.763858,0.021313,-0.004827,-0.088351,0.99585,0.053161,-0.133314,0.190782,0.323495,-0.457915,0.14186,-0.472753,0.020323,-0.193395,0.206398,-0.134652,0.07701,-0.057205,-0.026439,0.075205,0.001105,0.175882,-0.167625,0.406286,0.659994,0.217032,0.18898,0.251924,-0.112853,0.065985,0.596873,-0.815562,0.377278,-0.051715
2.148808,-0.364749,0.761554,0.020423,-0.000919,-0.08168,0.996449,0.075184,-0.133726,0.173931,0.317746,-0.477567,0.136719,-0.492463,0.027809,-0.200451,0.217783,-0.121496,0.059262,-0.062854,-0.019069,0.07316,0.005782,0.180472,-0.181701,0.390259,0.652358,0.226536,0.190447,0.255842,-0.092656,0.068343,0.607705,-0.827577,0.373344,-0.026
2.166559,-0.368475,0.759499,0.018375,0.002168,-0.072532,0.997194,0.101008,-0.130825,0.15361,0.309517,-0.494524,0.130823,-0.501123,0.031151,-0.204481,0.256495,-0.097522,0.014726,-0.070375,-0.011748,0.071107,0.015194,0.180652,-0.198064,0.387162,0.645971,0.23559,0.19269,0.260186,-0.072611,0.070595,0.622959,-0.842195,0.372049,-0.004714
2.185125,-0.372693,0.757899,0.016241,0.00394,-0.058282,0.99816,0.128998,-0.125593,0.126664,0.303072,-0.505252,0.12391,-0.485273,0.031089,-0.208058,0.281324,-0.087952,-0.012222,-0.080078,-0.003224,0.06728,0.024838,0.179602,-0.227517,0.40388,0.649013,0.249732,0.184185,0.269218,-0.053804,0.067736,0.63847,-0.856563,0.372022,0.008089
2.204458,-0.377385,0.75726,0.011317,0.00577,-0.03976,0.999129,0.160343,-0.111701,0.092489,0.290222,-0.504742,0.114719,-0.454892,0.032798,-0.223785,0.281524,-0.057937,-0.040261,-0.089726,0.006423,0.061166,0.031569,0.180667,-0.267381,0.43665,0.658485,0.266799,0.166838,0.281518,-0.032809,0.059655,0.653211,-0.869402,0.371516,0.022723
2.223971,-0.382451,0.759757,0.002779,0.008809,-0.020745,0.999742,0.18885,-0.086445,0.0579,0.276362,-0.485469,0.102871,-0.410354,0.042558,-0.262159,0.23396,0.006387,-0.119289,-0.095677,0.018495,0.053099,0.034543,0.18739,-0.314429,0.479955,0.672209,0.290406,0.136013,0.292434,-0.008432,0.042884,0.665585,-0.874535,0.370166,0.031266
2.244536,-0.38745,0.764504,-0.005892,0.009211,-0.009978,0.99989,0.21185,-0.05985,0.035822,0.29518,-0.459868,0.090275,-0.377874,0.055002,-0.291895,0.228672,0.008838,-0.150935,-0.098319,0.034987,0.048632,0.049821,0.192491,-0.352079,0.525626,0.683685,0.314093,0.104889,0.293643,0.00697,0.029544,0.688024,-0.881646,0.37229,0.032117
2.265152,-0.392163,0.76725,-0.014591,0.006647,-0.006299,0.999852,0.218788,-0.032725,0.026261,0.351285,-0.422412,0.073093,-0.354439,0.069437,-0.306533,0.257716,-0.027994,-0.146285,-0.09864800000000001,0.053413,0.049153,0.082468,0.192959,-0.374445,0.568753,0.694494,0.335594,0.086277,0.280146,0.013044,0.024302,0.727545,-0.898757,0.384096,0.036704
2.285452,-0.396898,0.768053,-0.023031,0.002984,-1.4e-05,0.99973,0.201845,-0.005132,0.014091,0.448083,-0.369211,0.046049,-0.323338,0.082843,-0.322423,0.282077,-0.06352,-0.149526,-0.09956,0.069632,0.051487,0.119901,0.188887,-0.387575,0.614057,0.699758,0.359751,0.074466,0.260617,0.014393,0.022141,0.768834,-0.927806,0.404513,0.047541
2.304922,-0.401895,0.769487,-0.030819,-0.001624,0.012085,0.999451,0.155837,0.024605,-0.005175,0.590398,-0.294095,-0.001572,-0.289762,0.094659,-0.345128,0.29801,-0.099715,-0.158783,-0.102408,0.080716,0.054501,0.150525,0.191881,-0.406544,0.659525,0.699179,0.377357,0.049579,0.243387,0.016694,0.020041,0.792964,-0.959842,0.415627,0.062587
2.323653,-0.406998,0.769567,-0.036216,-0.006159,0.026526,0.9989730000000001,0.087614,0.051712,-0.028207,0.761114,-0.210569,-0.092589,-0.254677,0.103034,-0.369708,0.305385,-0.133274,-0.16811,-0.105676,0.087952,0.058106,0.170547,0.210631,-0.440107,0.697985,0.702451,0.380388,0.002287,0.230063,0.018407,0.014766,0.793737,-0.982864,0.414801,0.068387
2.342434,-0.41206,0.770094,-0.040333,-0.010559,0.041124,0.998284,0.003676,0.076289,-0.053252,0.946192,-0.13674,-0.187986,-0.215469,0.112246,-0.394471,0.303024,-0.163323,-0.174303,-0.108467,0.093381,0.062651,0.187156,0.238077,-0.468196,0.718545,0.710566,0.380051,-0.053438,0.213866,0.016233,0.003888,0.784991,-0.992253,0.388784,0.054315
2.36058,-0.416777,0.769485,-0.043819,-0.015121,0.053619,0.997485,-0.088479,0.109275,-0.056796,1.115343,-0.097708,-0.243221,-0.178174,0.122372,-0.416367,0.300891,-0.191945,-0.174185,-0.10886,0.098244,0.068039,0.199948,0.260061,-0.464688,0.727178,0.706216,0.386574,-0.079245,0.198368,0.010926,0.001982,0.769927,-0.994826,0.355011,0.026479
2.377921,-0.420966,0.768454,-0.048434,-0.018897,0.060841,0.996793,-0.175459,0.148414,-0.064837,1.233357,-0.144786,-0.223367,-0.147752,0.137283,-0.43069,0.303914,-0.217992,-0.173199,-0.102612,0.103415,0.073041,0.209018,0.259341,-0.424459,0.737085,0.684368,0.405295,-0.053728,0.182423,0.004208,0.008086,0.755777,-0.988108,0.321623,-0.007739
2.394833,-0.424421,0.767898,-0.050245,-0.022714,0.063339,0.996468,-0.255436,0.168708,-0.070626,1.296859,-0.173673,-0.14694,-0.115465,0.150071,-0.433897,0.302997,-0.23962,-0.170284,-0.090938,0.107853,0.076903,0.22273,0.248986,-0.358434,0.740312,0.660609,0.419904,0.012946,0.159281,-0.011225,0.01043,0.742608,-0.982361,0.308074,-0.023742
2.411134,-0.427086,0.767726,-0.051136,-0.02539,0.061918,0.996447,-0.324561,0.174194,-0.074033,1.299655,-0.188553,-0.053319,-0.086602,0.161609,-0.428401,0.302547,-0.256956,-0.166782,-0.075117,0.109999,0.080151,0.239513,0.228463,-0.274681,0.736604,0.631957,0.432729,0.098871,0.135247,-0.025049,0.007943,0.72424,-0.978013,0.305837,-0.035166
2.426978,-0.429212,0.767871,-0.0509,-0.02708,0.057735,0.996666,-0.378573,0.15941,-0.081803,1.244214,-0.221009,0.002905,-0.061076,0.170865,-0.41654,0.303789,-0.270306,-0.163427,-0.056957,0.109039,0.08215,0.254754,0.206055,-0.20321,0.728544,0.608846,0.438648,0.173239,0.11394,-0.032553,-0.002258,0.699763,-0.965747,0.311688,-0.041477
2.442562,-0.430954,0.767845,-0.05109,-0.027113,0.051135,0.997015,-0.419792,0.132406,-0.092823,1.144229,-0.260536,0.030048,-0.04377,0.178885,-0.400687,0.315133,-0.286245,-0.160616,-0.038077,0.105643,0.082897,0.2677,0.189955,-0.153433,0.716619,0.592817,0.43234,0.21635,0.09387,-0.038873,-0.004946,0.670699,-0.95174,0.311545,-0.048666
2.458179,-0.432731,0.767645,-0.049965,-0.025672,0.042487,0.997517,-0.446295,0.096689,-0.101862,1.005211,-0.277085,0.052729,-0.028541,0.184833,-0.381071,0.326188,-0.303666,-0.158807,-0.020011,0.10021,0.081834,0.278466,0.180526,-0.128382,0.703667,0.588533,0.421099,0.228226,0.07623,-0.04994,0.005581,0.639864,-0.93789,0.303277,-0.05663
2.474001,-0.434923,0.766696,-0.048729,-0.023523,0.033095,0.997986,-0.459893,0.059205,-0.108653,0.84233,-0.284928,0.053639,-0.012055,0.191462,-0.360861,0.334301,-0.323037,-0.154414,-0.004125,0.093487,0.079206,0.287675,0.174944,-0.118498,0.691451,0.589791,0.405419,0.217517,0.061961,-0.066467,0.030305,0.609381,-0.927565,0.289068,-0.06344
2.489832,-0.437805,0.764997,-0.047956,-0.020459,0.024536,0.998338,-0.466022,0.028718,-0.103981,0.669736,-0.285042,0.011137,0.007477,0.200681,-0.34253,0.332954,-0.340118,-0.147742,0.00819,0.085779,0.075654,0.294543,0.170379,-0.113832,0.680185,0.594151,0.391739,0.196821,0.050837,-0.085312,0.06406,0.580739,-0.921855,0.273004,-0.068109
2.505491,-0.441335,0.76314,-0.047574,-0.016536,0.017839,0.998572,-0.469665,0.00848,-0.06946,0.50403,-0.260512,-0.028604,0.028409,0.212285,-0.325565,0.323586,-0.352081,-0.145147,0.015955,0.07811,0.071635,0.299034,0.162649,-0.107025,0.667555,0.597856,0.379226,0.184917,0.043023,-0.102174,0.096764,0.552494,-0.912481,0.260602,-0.067414
2.520963,-0.44521,0.761644,-0.048135,-0.012417,0.012643,0.998684,-0.473769,-0.004977,-0.008459,0.360691,-0.226904,-0.090483,0.050555,0.226265,-0.310082,0.310124,-0.361501,-0.146545,0.019754,0.071339,0.067851,0.302654,0.15023,-0.095904,0.65675,0.598719,0.373837,0.179094,0.038742,-0.11517,0.12573,0.525433,-0.896731,0.252907,-0.064492
2.536287,-0.449136,0.762394,-0.048262,-0.008409,0.006415,0.998779,-0.479078,-0.02201,0.031339,0.251533,-0.198527,-0.149374,0.073252,0.239616,-0.293002,0.299511,-0.369279,-0.146739,0.023173,0.064176,0.064952,0.304051,0.132909,-0.083543,0.650728,0.599782,0.372609,0.176248,0.037451,-0.124713,0.152327,0.503832,-0.883085,0.253006,-0.064966
2.551498,-0.452849,0.76154,-0.048363,-0.005006,0.000151,0.998817,-0.48925,-0.034177,0.06763,0.207547,-0.178266,-0.165267,0.091256,0.249176,-0.276236,0.29823,-0.379401,-0.147594,0.026083,0.057124,0.063166,0.303009,0.113577,-0.071605,0.648764,0.601656,0.372416,0.174443,0.03948,-0.129986,0.176997,0.490808,-0.870732,0.257742,-0.065371
2.566881,-0.45643,0.760468,-0.047962,-0.002489,-0.006357,0.9988260000000002,-0.49676,-0.029843,0.130556,0.229452,-0.153368,-0.148,0.107797,0.255992,-0.259801,0.302506,-0.388029,-0.149633,0.02798,0.05031,0.062041,0.299667,0.094862,-0.063003,0.653236,0.606962,0.375816,0.172674,0.044958,-0.131556,0.201382,0.487975,-0.862075,0.263643,-0.064559
2.582974,-0.459921,0.759864,-0.047149,-0.000992,-0.015434,0.998768,-0.490364,-0.019794,0.188881,0.270264,-0.137208,-0.10531,0.125994,0.26095,-0.240026,0.310704,-0.392254,-0.151555,0.032156,0.042243,0.060478,0.296399,0.078246,-0.056984,0.662372,0.613654,0.377486,0.169215,0.053313,-0.129441,0.227138,0.498805,-0.861162,0.277137,-0.060647
2.599987,-0.463144,0.760215,-0.044326,-0.000137,-0.029417,0.998584,-0.464464,-0.022755,0.198512,0.294705,-0.12074,-0.09670500000000001,0.145857,0.259935,-0.210861,0.322764,-0.390738,-0.149985,0.040039,0.03192,0.056855,0.295547,0.065054,-0.052413,0.67368,0.622953,0.374193,0.160536,0.061145,-0.123432,0.256865,0.523261,-0.861545,0.293498,-0.053206
2.617802,-0.466058,0.76167,-0.038478,0.001107,-0.047825,0.998114,-0.42879,-0.044543,0.169095,0.27306,-0.090399,-0.046942,0.16691,0.249842,-0.173936,0.332877,-0.378259,-0.142105,0.048727,0.019443,0.050296,0.296603,0.049369,-0.040733,0.683737,0.628218,0.367916,0.155542,0.064522,-0.119892,0.296133,0.561568,-0.867777,0.308294,-0.036244
2.636312,-0.468803,0.76373,-0.029486,0.00286,-0.064663,0.9974670000000002,-0.386062,-0.061411,0.178415,0.22282,-0.032944,0.059232,0.187603,0.230987,-0.137368,0.33981,-0.354174,-0.129946,0.052248,0.005258,0.041377,0.297152,0.029773,-0.024044,0.694828,0.63099,0.364528,0.160871,0.064309,-0.123353,0.343469,0.609631,-0.883188,0.320921,-0.002492
2.655219,-0.471453,0.766104,-0.020522,0.002868,-0.076809,0.9968300000000001,-0.361496,-0.069063,0.203277,0.224325,-0.026441,0.112631,0.19588,0.209219,-0.107286,0.378716,-0.331379,-0.110672,0.051259,-0.011497,0.035133,0.29154,0.013757,-0.009721,0.713361,0.635649,0.362076,0.175281,0.06761,-0.130645,0.389573,0.65802,-0.903068,0.326995,0.036582
2.674526,-0.474276,0.768144,-0.012997,0.000731,-0.085564,0.996248,-0.346567,-0.075084,0.217768,0.258976,-0.049389,0.155638,0.188443,0.187693,-0.087014,0.452095,-0.295857,-0.078806,0.049718,-0.030233,0.032526,0.275514,0.008011,-0.006651,0.742671,0.651273,0.360229,0.186136,0.078801,-0.137213,0.427575,0.702789,-0.92471,0.329247,0.067195
2.693823,-0.47649,0.769774,-0.006398,-0.00433,-0.099032,0.9950540000000001,-0.319385,-0.077851,0.240169,0.286709,-0.081084,0.190233,0.160404,0.160061,-0.067536,0.565851,-0.233365,-0.008428,0.050505,-0.04491,0.031649,0.253598,0.007444,-0.008616,0.775122,0.674965,0.367934,0.179222,0.09276400000000001,-0.144763,0.458353,0.740098,-0.941838,0.321797,0.080553
2.712507,-0.477992,0.769324,0.001255,-0.009604,-0.119143,0.9928300000000002,-0.286483,-0.077632,0.276663,0.307341,-0.117919,0.202291,0.103204,0.128727,-0.03259,0.72225,-0.157535,0.10797,0.054951,-0.054296,0.032533,0.223412,0.003404,0.003713,0.800122,0.69009,0.360679,0.169863,0.098138,-0.167523,0.491153,0.768529,-0.961771,0.308197,0.098062
2.730705,-0.479435,0.771475,0.007484,-0.014303,-0.142246,0.9897,-0.249536,-0.075201,0.319119,0.313568,-0.155078,0.200215,0.029902,0.104235,0.00359,0.894358,-0.071134,0.236449,0.062377,-0.06039,0.033859,0.207906,-0.004163,0.028193,0.807437,0.693783,0.331577,0.183675,0.095989,-0.191478,0.51376,0.775125,-0.971185,0.295625,0.108102
2.748034,-0.480879,0.772192,0.011291,-0.018334,-0.170006,0.985208,-0.211333,-0.068189,0.367532,0.310104,-0.186305,0.195221,-0.057629,0.079257,-0.023467,1.063768,0.000253,0.247307,0.075772,-0.062348,0.036217,0.189627,-0.017734,0.053821,0.776668,0.684537,0.312297,0.201776,0.092321,-0.215001,0.514639,0.761506,-0.968421,0.293329,0.104415
2.764408,-0.482728,0.771907,0.01626,-0.022245,-0.189766,0.981443,-0.181727,-0.069124,0.40506,0.315633,-0.216565,0.19086,-0.139612,0.028507,-0.027224,1.196303,-0.007334,0.247686,0.081591,-0.064345,0.040202,0.168173,-0.023858,0.060301,0.749673,0.681002,0.295409,0.215669,0.094588,-0.238411,0.491372,0.736761,-0.95437,0.302933,0.081573
2.780264,-0.485112,0.771354,0.020211,-0.026531,-0.195606,0.980115,-0.154773,-0.07947,0.417892,0.322657,-0.242663,0.189576,-0.204078,-0.044345,-0.011655,1.263939,-0.086478,0.245919,0.074054,-0.068659,0.044841,0.135176,-0.016329,0.04087,0.732196,0.693993,0.276377,0.220812,0.111924,-0.242184,0.438205,0.70583,-0.920229,0.323126,0.031834
2.795792,-0.488276,0.771069,0.02231,-0.030962,-0.190975,0.980853,-0.125679,-0.093767,0.409261,0.325649,-0.263364,0.18805,-0.254608,-0.12571,-0.027669,1.269805,-0.141311,0.204361,0.056903,-0.073947,0.049378,0.098369,0.006519,0.003441,0.720295,0.719463,0.265508,0.210779,0.13452,-0.23588,0.366295,0.670328,-0.875252,0.342783,-0.015425
2.810766,-0.491927,0.77081,0.02461,-0.034612,-0.181745,0.982428,-0.100461,-0.109014,0.390408,0.332704,-0.284037,0.185161,-0.295833,-0.170029,-0.056617,1.224326,-0.197483,0.08399,0.035692,-0.078103,0.053684,0.061955,0.034819,-0.043672,0.701553,0.750271,0.252887,0.18663,0.158328,-0.226188,0.293268,0.634905,-0.832018,0.354608,-0.052961
2.825326,-0.495699,0.770664,0.026306,-0.036734,-0.170563,0.98431,-0.07835,-0.122275,0.367805,0.340569,-0.306243,0.179293,-0.331362,-0.174325,-0.068418,1.1375,-0.248487,-0.000341,0.013161,-0.079312,0.057398,0.032378,0.061401,-0.082407,0.669507,0.767279,0.24235,0.156322,0.17558,-0.218878,0.234268,0.608568,-0.797662,0.355728,-0.076948
2.839723,-0.499392,0.770708,0.026803,-0.037263,-0.158719,0.986256,-0.057603,-0.132089,0.344158,0.346595,-0.328788,0.171237,-0.361997,-0.153504,-0.06141,1.019634,-0.275718,-0.011212,-0.008057,-0.077252,0.060261,0.006072,0.082765,-0.107378,0.619783,0.765781,0.236042,0.142293,0.191446,-0.21765,0.197072,0.58797,-0.78633,0.351992,-0.087137
2.854081,-0.502652,0.770805,0.024826,-0.036504,-0.14614,0.988278,-0.03627,-0.138046,0.317527,0.348052,-0.347599,0.169794,-0.390602,-0.085129,0.008757,0.896089,-0.257932,-0.028302,-0.027751,-0.071284,0.062602,-0.014126,0.10524,-0.133687,0.560977,0.758166,0.229378,0.135128,0.205566,-0.214084,0.168318,0.570908,-0.782147,0.348004,-0.092565
2.868435,-0.505399,0.769914,0.024463,-0.034723,-0.136494,0.9897300000000001,-0.018847,-0.144975,0.296357,0.353324,-0.368951,0.171126,-0.40592,-0.047528,0.046281,0.749109,-0.257116,0.032778,-0.040812,-0.064031,0.06388,-0.026337,0.125506,-0.158218,0.497041,0.745809,0.218391,0.143798,0.219184,-0.211,0.148853,0.558584,-0.786114,0.343565,-0.095782
2.882751,-0.507324,0.768767,0.023091,-0.031705,-0.128669,0.990912,0.001523,-0.150898,0.277972,0.345953,-0.384908,0.169723,-0.413766,-0.031495,0.043339,0.5944,-0.240255,0.039143,-0.049386,-0.056816,0.064127,-0.032572,0.146062,-0.179954,0.436697,0.731354,0.212243,0.157525,0.231775,-0.199889,0.131453,0.551338,-0.787844,0.339026,-0.101957
2.896946,-0.50854,0.767615,0.021196,-0.027863,-0.122992,0.99179,0.024562,-0.156065,0.263018,0.327429,-0.394334,0.168051,-0.42059,-0.028098,-0.001486,0.446376,-0.212967,0.034808,-0.054457,-0.049627,0.063519,-0.032973,0.165318,-0.199781,0.384003,0.718462,0.210317,0.167813,0.242598,-0.184015,0.119642,0.552115,-0.792081,0.338956,-0.106101
2.911125,-0.50926,0.766065,0.021002,-0.023852,-0.119913,0.992276,0.046324,-0.163668,0.253095,0.309372,-0.403003,0.167084,-0.426833,-0.031526,-0.086224,0.322111,-0.20895,0.056186,-0.056627,-0.042621,0.062406,-0.026719,0.177236,-0.213032,0.339376,0.70245,0.209198,0.178968,0.251479,-0.167867,0.112237,0.557454,-0.800277,0.339729,-0.112889
2.925409,-0.509617,0.764165,0.021869,-0.020161,-0.118619,0.992494,0.067131,-0.172914,0.246662,0.294509,-0.411304,0.167457,-0.438058,-0.036071,-0.193926,0.246509,-0.203892,0.071468,-0.057407,-0.035789,0.061433,-0.014078,0.18583,-0.226025,0.308077,0.694332,0.21836,0.178946,0.259049,-0.150785,0.106387,0.566643,-0.808169,0.339345,-0.122113
2.939785,-0.509761,0.762066,0.022642,-0.016601,-0.117897,0.992629,0.085627,-0.181417,0.241533,0.284815,-0.41974,0.168285,-0.452607,-0.044115,-0.30243,0.228644,-0.200521,0.079095,-0.059009,-0.028923,0.060979,0.004823,0.190587,-0.23928,0.286731,0.696598,0.23239,0.176048,0.263903,-0.134452,0.103417,0.579424,-0.817252,0.3375,-0.128107
2.954423,-0.509835,0.759805,0.023943,-0.013645,-0.116477,0.9928110000000001,0.102617,-0.190596,0.235757,0.280948,-0.42951,0.169424,-0.461327,-0.056893,-0.405783,0.249787,-0.207712,0.034927,-0.063211,-0.021806,0.060556,0.029773,0.190955,-0.257169,0.276226,0.704822,0.243316,0.171508,0.267994,-0.12119,0.1018,0.593113,-0.829213,0.3355,-0.131381
2.96963,-0.509977,0.757907,0.024311,-0.01123,-0.112678,0.993271,0.123432,-0.198626,0.225242,0.274174,-0.436756,0.170029,-0.454867,-0.069188,-0.499447,0.277535,-0.213378,-0.001946,-0.069151,-0.013991,0.058967,0.056807,0.189878,-0.281695,0.279213,0.714625,0.255792,0.16119,0.274548,-0.107314,0.09710800000000001,0.60399,-0.838478,0.333309,-0.133426
2.985545,-0.510415,0.756959,0.024021,-0.009467,-0.10497,0.99414,0.147523,-0.204908,0.208093,0.267564,-0.441834,0.169344,-0.434229,-0.074487,-0.556943,0.299024,-0.219935,-0.021504,-0.077955,-0.005043,0.055648,0.08104,0.191662,-0.318896,0.29792,0.727583,0.267803,0.132738,0.286347,-0.092526,0.084795,0.60875,-0.840177,0.32986,-0.138906
3.002231,-0.511365,0.759029,0.023502,-0.007594,-0.094068,0.995259,0.173274,-0.209287,0.184842,0.265573,-0.443805,0.167243,-0.405411,-0.070844,-0.568702,0.305917,-0.219637,-0.029598,-0.08937,0.005216,0.050161,0.101783,0.194412,-0.363052,0.325024,0.741458,0.277877,0.093918,0.301224,-0.080643,0.071539,0.609595,-0.842533,0.32502,-0.142164
3.019318,-0.512747,0.760784,0.019612,-0.005139,-0.081601,0.996459,0.202564,-0.204277,0.157098,0.252357,-0.4325,0.163958,-0.37348,-0.054519,-0.567146,0.274672,-0.175625,-0.084578,-0.099567,0.016311,0.042732,0.119991,0.201905,-0.410663,0.356268,0.753642,0.287256,0.043066,0.316387,-0.064348,0.055182,0.611237,-0.841182,0.321535,-0.144997
3.036917,-0.514321,0.762512,0.014409,-0.002551,-0.0704,0.997411,0.231933,-0.194273,0.131352,0.239377,-0.411144,0.157883,-0.336554,-0.03027,-0.57253,0.213459,-0.07992,-0.216303,-0.10652,0.030028,0.034459,0.137723,0.211714,-0.45449,0.390466,0.762728,0.295851,-0.009428,0.327508,-0.048609,0.037739,0.619048,-0.83931,0.322147,-0.151754
3.054386,-0.515688,0.765055,0.007642,-0.000635,-0.063667,0.9979420000000001,0.246188,-0.178882,0.115064,0.258096,-0.387337,0.148485,-0.313479,-0.021307,-0.577862,0.206961,-0.061514,-0.245576,-0.110156,0.047197,0.029624,0.161076,0.217356,-0.480372,0.426987,0.766113,0.312719,-0.046213,0.328483,-0.037809,0.027698,0.641164,-0.845648,0.327143,-0.153602
3.071793,-0.517052,0.767293,0.00018,-0.001536,-0.061247,0.998121,0.247662,-0.160472,0.109805,0.309407,-0.358914,0.13085,-0.299296,-0.018783,-0.58373,0.240099,-0.087218,-0.238687,-0.111187,0.066654,0.029696,0.190067,0.215674,-0.49244,0.467002,0.764723,0.330215,-0.060802,0.318026,-0.03292,0.019232,0.678073,-0.857875,0.33879,-0.148498
3.088771,-0.518985,0.769418,-0.006668,-0.003913,-0.053564,0.998534,0.227425,-0.13602,0.102389,0.401343,-0.319988,0.09247300000000001,-0.274231,-0.018342,-0.596091,0.262912,-0.11078,-0.23342,-0.113845,0.082858,0.031437,0.213443,0.216724,-0.509687,0.514137,0.771865,0.349636,-0.072328,0.304167,-0.030801,0.005651,0.714321,-0.87764,0.357334,-0.136695
3.105062,-0.521532,0.769773,-0.013609,-0.007451,-0.039879,0.999084,0.188,-0.105249,0.084229,0.529536,-0.273279,0.013218,-0.240459,-0.017279,-0.618604,0.275454,-0.135228,-0.23127,-0.11788,0.094192,0.03387,0.224318,0.23433,-0.534762,0.552573,0.774292,0.356222,-0.098355,0.291073,-0.021047,-0.028679,0.734654,-0.885853,0.360059,-0.138964
3.120203,-0.524245,0.770354,-0.020893,-0.010537,-0.022278,0.999478,0.125026,-0.071243,0.058611,0.691292,-0.215857,-0.091669,-0.210917,-0.017868,-0.64895,0.290573,-0.164703,-0.223353,-0.122755,0.102674,0.037561,0.218838,0.270548,-0.570665,0.576835,0.780682,0.35541,-0.146517,0.282418,-0.001331,-0.070554,0.734843,-0.877646,0.355278,-0.154587
3.135056,-0.526789,0.772078,-0.027854,-0.013952,-0.002583,0.999511,0.047748,-0.039407,0.032033,0.87045,-0.138254,-0.193533,-0.17955,-0.018866,-0.683059,0.304243,-0.194141,-0.210598,-0.128479,0.109497,0.042377,0.2094,0.308446,-0.583064,0.5776,0.764834,0.350691,-0.184328,0.273266,0.017093,-0.102878,0.724701,-0.861773,0.344885,-0.168433
3.149085,-0.52903,0.771991,-0.0347,-0.01755,0.016599,0.999106,-0.042226,-0.008278,0.029376,1.050211,-0.064508,-0.245438,-0.147919,-0.015927,-0.718186,0.310611,-0.21806,-0.198814,-0.136338,0.11412,0.048538,0.209491,0.339617,-0.564743,0.555019,0.742371,0.356379,-0.188335,0.25791,0.020196,-0.104415,0.722494,-0.863913,0.318851,-0.168809
3.162381,-0.530352,0.771494,-0.040388,-0.021519,0.032595,0.99842,-0.134943,0.050185,0.064041,1.210746,-0.010067,-0.247664,-0.118894,-0.013239,-0.74721,0.317661,-0.238719,-0.186722,-0.144222,0.117633,0.05577,0.211782,0.357142,-0.517873,0.530071,0.713803,0.371342,-0.154323,0.23591,0.009368,-0.084686,0.72566,-0.889496,0.303294,-0.162059
3.175308,-0.530443,0.771277,-0.043888,-0.026437,0.037409,0.997986,-0.210262,0.128068,0.061515,1.322415,-0.011892,-0.24731,-0.088995,-0.007439,-0.756965,0.319258,-0.253978,-0.17369,-0.140497,0.121951,0.063115,0.218388,0.354169,-0.455044,0.507792,0.694185,0.386875,-0.085953,0.205224,-0.010891,-0.057239,0.731872,-0.926991,0.296069,-0.148012
3.187635,-0.529204,0.771181,-0.047502,-0.03157,0.033019,0.9978260000000002,-0.276916,0.185158,0.02004,1.39678,-0.048422,-0.237615,-0.060028,0.003403,-0.750177,0.315742,-0.263841,-0.161545,-0.126642,0.127302,0.070794,0.230194,0.333598,-0.383149,0.485459,0.68535,0.402117,0.007722,0.170366,-0.027792,-0.040094,0.736011,-0.955917,0.297529,-0.132104
3.199255,-0.526707,0.771142,-0.05099,-0.035853,0.026165,0.997712,-0.340904,0.227726,-0.009842,1.440836,-0.07214,-0.194893,-0.034684,0.012652,-0.737147,0.312853,-0.271487,-0.149106,-0.110548,0.131601,0.077462,0.243264,0.304616,-0.313829,0.461943,0.674484,0.403989,0.099893,0.135493,-0.036988,-0.036868,0.73231,-0.968397,0.302356,-0.115699
3.210302,-0.52319,0.771148,-0.052867,-0.039065,0.016233,0.997705,-0.398062,0.254251,-0.045096,1.449609,-0.09702400000000001,-0.1745,-0.014583,0.01689,-0.717631,0.313676,-0.279607,-0.136293,-0.092964,0.134043,0.082356,0.254079,0.276299,-0.260949,0.441571,0.662171,0.402998,0.169323,0.105892,-0.040633,-0.04203,0.713784,-0.965431,0.301358,-0.113395
3.220896,-0.518721,0.770825,-0.054962,-0.040177,0.00424,0.997671,-0.448269,0.26517,-0.091373,1.427806,-0.14249,-0.16056,-0.005651,0.016091,-0.693051,0.327983,-0.292116,-0.123408,-0.075548,0.134932,0.085859,0.262571,0.256527,-0.229522,0.422841,0.644912,0.392267,0.198153,0.082186,-0.040915,-0.044097,0.682857,-0.952112,0.29385,-0.12003
3.231492,-0.513706,0.770423,-0.056338,-0.040035,-0.008867,0.997569,-0.486472,0.27735,-0.134351,1.372401,-0.177832,-0.133584,-0.000596,0.012909,-0.665101,0.34416,-0.305043,-0.10971,-0.059711,0.134174,0.087253,0.270266,0.244931,-0.214646,0.407214,0.627072,0.374208,0.197413,0.064051,-0.042215,-0.037369,0.644319,-0.9322800000000001,0.278245,-0.130748
3.242413,-0.508358,0.769866,-0.057864,-0.039039,-0.02313,0.997293,-0.506089,0.293443,-0.170668,1.277753,-0.211216,-0.114996,0.002846,0.009803,-0.634647,0.360647,-0.318477,-0.095181,-0.046602,0.133019,0.086408,0.279246,0.238554,-0.212274,0.399571,0.614989,0.354578,0.179026,0.050111,-0.049318,-0.016687,0.608687,-0.916725,0.261274,-0.140826
3.253802,-0.502746,0.768983,-0.061199,-0.037515,-0.038108,0.996692,-0.504057,0.303097,-0.212483,1.144932,-0.234759,-0.106767,0.005414,0.009209,-0.603315,0.37853,-0.333206,-0.079731,-0.036446,0.132449,0.083717,0.289205,0.234308,-0.215458,0.399533,0.613359,0.339797,0.156835,0.039885,-0.058205,0.013669,0.575358,-0.903958,0.244461,-0.14181
3.26569,-0.497155,0.768177,-0.065193,-0.0354,-0.05291,0.99584,-0.475407,0.304929,-0.264494,0.968806,-0.241471,-0.125683,0.010182,0.010991,-0.57228,0.390731,-0.346346,-0.063189,-0.029278,0.132145,0.078774,0.29925,0.226822,-0.219955,0.406114,0.617741,0.335318,0.132705,0.035528,-0.067738,0.045874,0.544682,-0.893253,0.22578,-0.14105
3.277865,-0.491772,0.767827,-0.069261,-0.033249,-0.067822,0.994735,-0.421659,0.299841,-0.330577,0.759658,-0.224458,-0.137552,0.019886,0.015097,-0.541621,0.393153,-0.356291,-0.046081,-0.024602,0.132561,0.071863,0.308888,0.214917,-0.225008,0.418412,0.623547,0.338566,0.111307,0.035864,-0.076881,0.074675,0.518751,-0.884925,0.217496,-0.140103
3.289666,-0.486677,0.768408,-0.071224,-0.031048,-0.083747,0.993453,-0.349749,0.301271,-0.387406,0.538511,-0.163413,-0.190731,0.034471,0.01878,-0.510714,0.380486,-0.359264,-0.029746,-0.022429,0.133562,0.063235,0.312681,0.199851,-0.235851,0.442521,0.632567,0.34336,0.091276,0.0435,-0.087099,0.100774,0.494747,-0.875563,0.207147,-0.141205
3.300198,-0.48151,0.769416,-0.07151,-0.027741,-0.097401,0.992285,-0.295124,0.318668,-0.371807,0.399979,-0.115642,-0.244563,0.04804,0.020881,-0.484376,0.356915,-0.353952,-0.015685,-0.025325,0.134773,0.054356,0.307673,0.175481,-0.248258,0.472972,0.641624,0.354202,0.075819,0.046804,-0.095913,0.121099,0.480609,-0.869724,0.2094,-0.134106
3.310004,-0.474709,0.769065,-0.074315,-0.024446,-0.106857,0.991192,-0.265954,0.331984,-0.317608,0.367151,-0.154373,-0.247614,0.04842,0.014146,-0.462793,0.363827,-0.359801,0.003135,-0.032622,0.136612,0.046168,0.303813,0.159153,-0.255981,0.506725,0.643173,0.366384,0.067551,0.054703,-0.100739,0.131343,0.474033,-0.858447,0.212556,-0.133636
3.319023,-0.468235,0.770973,-0.069374,-0.020732,-0.116434,0.9905560000000002,-0.236609,0.330524,-0.278115,0.333276,-0.150958,-0.247733,0.052887,-0.00235,-0.441714,0.351069,-0.353768,0.0197,-0.038344,0.133957,0.037285,0.29337,0.13613,-0.255487,0.546654,0.627081,0.377557,0.063964,0.067972,-0.103659,0.124619,0.478496,-0.847203,0.22836,-0.136236
3.327711,-0.461342,0.772928,-0.063567,-0.019137,-0.125058,0.989926,-0.210851,0.322314,-0.242865,0.313539,-0.152093,-0.247664,0.058002,-0.024649,-0.421714,0.344359,-0.346857,0.036606,-0.041126,0.127073,0.029335,0.280543,0.124542,-0.260844,0.587371,0.622241,0.392403,0.054481,0.0904,-0.095129,0.104178,0.500653,-0.842963,0.259227,-0.142046
3.335811,-0.454516,0.774626,-0.056711,-0.017985,-0.134022,0.989191,-0.189222,0.310081,-0.209511,0.30184,-0.156554,-0.247106,0.060889,-0.049796,-0.401367,0.340493,-0.340207,0.052343,-0.042151,0.117943,0.023605,0.267695,0.127437,-0.268154,0.611263,0.634024,0.408877,0.039388,0.114544,-0.075518,0.075703,0.534457,-0.837922,0.293908,-0.145247
3.343135,-0.447964,0.775994,-0.049021,-0.017394,-0.143814,0.988237,-0.17022,0.294556,-0.176618,0.295182,-0.163484,-0.244708,0.061599,-0.076438,-0.379726,0.338847,-0.335651,0.066929,-0.042468,0.107994,0.019479,0.257177,0.133379,-0.266201,0.612735,0.644948,0.420634,0.031603,0.13162,-0.05688,0.055181,0.580615,-0.836228,0.329905,-0.145536
3.349508,-0.441943,0.776987,-0.041915,-0.016197,-0.152557,0.987273,-0.157215,0.277997,-0.148355,0.292396,-0.172011,-0.239127,0.059939,-0.100286,-0.360084,0.336693,-0.333873,0.079453,-0.041569,0.09695,0.017213,0.255482,0.15369,-0.264186,0.596472,0.660677,0.410683,0.027065,0.147477,-0.04847,0.050929,0.630657,-0.843469,0.349488,-0.142687
3.355084,-0.436706,0.777641,-0.035284,-0.015778,-0.160501,0.986279,-0.145303,0.262017,-0.122916,0.291105,-0.181394,-0.231965,0.060107,-0.121388,-0.342232,0.332705,-0.333855,0.090435,-0.040251,0.085337,0.016589,0.244384,0.177579,-0.269838,0.585967,0.688073,0.397833,0.037779,0.164905,-0.050425,0.065927,0.686539,-0.870329,0.359024,-0.131732
3.359898,-0.432183,0.777878,-0.029023,-0.016415,-0.16802,0.985219,-0.133263,0.246809,-0.099606,0.29058,-0.188652,-0.224377,0.060635,-0.14139,-0.325677,0.33097,-0.334753,0.100606,-0.038438,0.073537,0.017288,0.219734,0.194441,-0.26624,0.594231,0.706074,0.390419,0.059928,0.18697,-0.055629,0.089322,0.738199,-0.904812,0.36251,-0.120067
3.363933,-0.428313,0.777195,-0.023716,-0.018021,-0.17408,0.984281,-0.121973,0.232641,-0.080529,0.292053,-0.193569,-0.217028,0.062187,-0.159134,-0.311567,0.331061,-0.334868,0.109518,-0.036451,0.061772,0.019002,0.197892,0.204561,-0.254169,0.601398,0.716405,0.389575,0.078581,0.208148,-0.059691,0.10411,0.786019,-0.936721,0.368249,-0.105393
3.367041,-0.425052,0.777082,-0.019105,-0.020124,-0.179213,0.983419,-0.11368,0.220209,-0.065069,0.295563,-0.199119,-0.210084,0.063607,-0.174584,-0.299124,0.332461,-0.334996,0.117151,-0.035056,0.050559,0.021632,0.177326,0.20897,-0.233129,0.602849,0.717969,0.389816,0.090106,0.229465,-0.059503,0.101894,0.819055,-0.955706,0.370182,-0.101015
3.369456,-0.422205,0.777019,-0.014918,-0.021884,-0.183765,0.982613,-0.10819,0.209105,-0.051763,0.300495,-0.205127,-0.203617,0.063397,-0.188349,-0.287775,0.334661,-0.335148,0.123876,-0.034151,0.040428,0.024898,0.159026,0.209401,-0.209442,0.595546,0.715238,0.386031,0.096115,0.249841,-0.055952,0.084594,0.83517,-0.957641,0.372253,-0.104861
3.371284,-0.419679,0.776969,-0.011654,-0.02326,-0.188927,0.981646,-0.103753,0.201066,-0.038416,0.305629,-0.211327,-0.198285,0.062114,-0.198954,-0.275921,0.335351,-0.334213,0.12961,-0.033712,0.031445,0.028492,0.147517,0.206549,-0.181273,0.577463,0.710459,0.378544,0.114265,0.265799,-0.055066,0.071004,0.840927,-0.958099,0.370797,-0.106197
3.372547,-0.417481,0.776931,-0.00898,-0.024434,-0.195349,0.980388,-0.098614,0.196068,-0.023267,0.308989,-0.216628,-0.194129,0.058382,-0.206917,-0.261528,0.33693,-0.333154,0.134129,-0.033575,0.023651,0.032085,0.14393,0.197642,-0.15011,0.552654,0.695083,0.362727,0.139642,0.274935,-0.060639,0.069406,0.841745,-0.965004,0.364699,-0.101118
3.373345,-0.415542,0.776916,-0.006877,-0.025515,-0.203554,0.9787070000000001,-0.092549,0.194137,-0.005269,0.31145,-0.221331,-0.191034,0.05266,-0.21215,-0.24368,0.338593,-0.331573,0.137521,-0.033763,0.017124,0.035432,0.146299,0.186292,-0.124965,0.528346,0.677361,0.345405,0.167617,0.276716,-0.072176,0.079112,0.840264,-0.980767,0.358059,-0.095147
3.373802,-0.413775,0.776914,-0.005384,-0.026524,-0.213477,0.976573,-0.086228,0.194867,0.015351,0.314584,-0.225943,-0.188599,0.045752,-0.214796,-0.222614,0.33961,-0.329279,0.140201,-0.034443,0.011915,0.038681,0.153528,0.17581,-0.112057,0.508689,0.664546,0.328595,0.194594,0.271066,-0.082318,0.083211,0.833079,-0.988091,0.349191,-0.09197
3.37395,-0.412204,0.776902,-0.004469,-0.02739,-0.224348,0.974114,-0.080058,0.19788,0.03734,0.318313,-0.230614,-0.186873,0.037556,-0.215004,-0.199461,0.341058,-0.326843,0.142075,-0.035312,0.007897,0.041898,0.163721,0.167851,-0.112033,0.49467,0.657199,0.312765,0.210524,0.259053,-0.090031,0.082309,0.821327,-0.98841,0.346069,-0.088982
3.37385,-0.410833,0.776899,-0.004203,-0.027958,-0.235827,0.971384,-0.073849,0.203174,0.0602,0.321674,-0.235296,-0.185855,0.028273,-0.21267,-0.175125,0.34278,-0.324138,0.143333,-0.036244,0.004893,0.044922,0.174971,0.161061,-0.119421,0.487472,0.651514,0.303,0.210534,0.243137,-0.09633100000000001,0.081657,0.804768,-0.985958,0.341468,-0.089962
3.373556,-0.409682,0.776965,-0.004492,-0.028279,-0.247705,0.968412,-0.06717,0.21045,0.08382,0.324001,-0.239517,-0.185537,0.018335,-0.208079,-0.150277,0.344797,-0.321148,0.144188,-0.037428,0.002668,0.047626,0.18632,0.15519,-0.132172,0.486214,0.647648,0.296661,0.196848,0.224353,-0.100027,0.079898,0.783113,-0.977956,0.335227,-0.093626
3.373127,-0.408751,0.777277,-0.005268,-0.028472,-0.259871,0.965209,-0.06006,0.219367,0.107837,0.325987,-0.243635,-0.185874,0.007891,-0.201503,-0.12514,0.34777,-0.318202,0.144687,-0.038997,0.001083,0.049939,0.198539,0.149969,-0.145967,0.491551,0.645004,0.289926,0.175476,0.204079,-0.101573,0.079175,0.758752,-0.965683,0.329287,-0.094534
3.372623,-0.408044,0.778724,-0.006558,-0.028581,-0.272467,0.961718,-0.053691,0.2307,0.132049,0.328281,-0.2497,-0.186824,-0.002834,-0.192803,-0.099539,0.351487,-0.314941,0.145016,-0.040835,0.000128,0.051755,0.21162,0.144709,-0.157626,0.505055,0.644147,0.288733,0.151986,0.183734,-0.101237,0.081553,0.732185,-0.95271,0.325137,-0.094155
3.372246,-0.407499,0.779041,-0.008406,-0.02847,-0.286045,0.957756,-0.045334,0.243326,0.158698,0.331552,-0.255214,-0.188442,-0.013834,-0.182088,-0.072388,0.35515,-0.311412,0.145101,-0.042981,-0.000349,0.052905,0.226382,0.140907,-0.162099,0.523479,0.641506,0.292667,0.133452,0.166797,-0.097707,0.086524,0.702486,-0.945873,0.318732,-0.093161
3.371965,-0.407141,0.779022,-0.010813,-0.028232,-0.30123,0.953072,-0.034538,0.258186,0.188888,0.334375,-0.260845,-0.190928,-0.02507,-0.168745,-0.042337,0.358461,-0.307323,0.144927,-0.045602,-0.0005,0.053197,0.245727,0.132247,-0.164543,0.54134,0.642452,0.304235,0.117731,0.144949,-0.09880100000000001,0.09535900000000001,0.680818,-0.934657,0.308556,-0.09046100000000001
3.371806,-0.406994,0.778873,-0.013687,-0.02794,-0.318337,0.947467,-0.020634,0.275119,0.223371,0.33656,-0.266697,-0.194255,-0.036582,-0.152735,-0.009099,0.361879,-0.302938,0.144421,-0.048517,-0.000338,0.052897,0.265773,0.120881,-0.164026,0.55783,0.645166,0.327273,0.105625,0.118713,-0.091709,0.109721,0.667955,-0.925228,0.30191,-0.090485
3.3718,-0.407033,0.778621,-0.016789,-0.027496,-0.337132,0.940906,-0.004004,0.29322,0.262033,0.338198,-0.272524,-0.198113,-0.04858,-0.134644,0.027021,0.365929,-0.29871,0.143902,-0.051618,0.000104,0.052404,0.28151,0.113512,-0.160802,0.587532,0.648404,0.346129,0.099416,0.101453,-0.090733,0.129477,0.647438,-0.91978,0.291481,-0.089076
3.371955,-0.407262,0.77821,-0.020149,-0.026884,-0.357127,0.933451,0.014304,0.312241,0.303712,0.340968,-0.278825,-0.20241,-0.060334,-0.114624,0.065055,0.370112,-0.294722,0.143474,-0.054791,0.00091,0.051842,0.300318,0.108108,-0.156478,0.621652,0.65014,0.360584,0.095693,0.089041,-0.090059,0.154257,0.626855,-0.915426,0.278129,-0.086323
3.372266,-0.407666,0.777464,-0.02365,-0.026436,-0.377584,0.925296,0.034617,0.331028,0.347288,0.344323,-0.285023,-0.206958,-0.070924,-0.09368000000000001,0.103694,0.374543,-0.291152,0.143247,-0.058026,0.00209,0.051125,0.3183,0.106926,-0.156806,0.660283,0.655558,0.373578,0.092218,0.082896,-0.088653,0.178084,0.605619,-0.90685,0.266293,-0.085216
3.372769,-0.408229,0.775744,-0.027196,-0.026321,-0.397826,0.91668,0.057374,0.347693,0.391739,0.347384,-0.28962,-0.211666,-0.079472,-0.072802,0.141676,0.37866,-0.287831,0.143119,-0.061459,0.003814,0.050027,0.334224,0.110001,-0.165191,0.701762,0.665735,0.383699,0.076758,0.083869,-0.089765,0.201805,0.587025,-0.90048,0.25692,-0.08821
3.373291,-0.408908,0.775133,-0.030628,-0.026527,-0.417437,0.9078020000000001,0.081977,0.363318,0.436056,0.348238,-0.294176,-0.216278,-0.085545,-0.052349,0.178165,0.38192,-0.284326,0.143095,-0.065461,0.006265,0.04838,0.346987,0.116584,-0.178561,0.743034,0.679527,0.390853,0.04771,0.091001,-0.09148800000000001,0.219721,0.57131,-0.8914,0.250744,-0.09268100000000001
3.373899,-0.409685,0.774809,-0.034061,-0.02691,-0.435228,0.899273,0.106864,0.376752,0.47784,0.347386,-0.297499,-0.220614,-0.08895,-0.033158,0.210996,0.384116,-0.280858,0.143131,-0.069718,0.009271,0.046154,0.354502,0.125431,-0.188089,0.778173,0.693443,0.399661,0.020691,0.104274,-0.091899,0.22833,0.559657,-0.880162,0.249927,-0.095644
3.374546,-0.410502,0.774565,-0.037419,-0.02751,-0.450872,0.891379,0.130866,0.387939,0.51574,0.345771,-0.300071,-0.224609,-0.090196,-0.015804,0.239608,0.385984,-0.277983,0.143287,-0.074365,0.012699,0.04338,0.357987,0.135959,-0.19745,0.807841,0.708663,0.403889,-0.006644,0.122839,-0.090206,0.224737,0.554898,-0.868524,0.254979,-0.102045
3.375165,-0.411279,0.77434,-0.04058,-0.028142,-0.463676,0.884628,0.151971,0.397036,0.547645,0.344104,-0.302113,-0.227932,-0.090269,-0.000736,0.263055,0.388352,-0.276131,0.143578,-0.079398,0.016202,0.040316,0.355303,0.147047,-0.197656,0.82934,0.721605,0.41425,-0.018558,0.143742,-0.085275,0.211347,0.561003,-0.856482,0.269003,-0.108875
3.375747,-0.411964,0.774132,-0.043446,-0.028924,-0.473558,0.879215,0.170004,0.404019,0.57309,0.342405,-0.303684,-0.230534,-0.089303,0.011452,0.281017,0.390896,-0.275038,0.144079,-0.084351,0.019686,0.037024,0.34489,0.158816,-0.194736,0.842814,0.733972,0.419784,-0.016362,0.164879,-0.080865,0.192632,0.578305,-0.84788,0.290792,-0.112902
3.3763,-0.412533,0.773952,-0.045924,-0.029868,-0.480815,0.875109,0.185096,0.408955,0.592425,0.340539,-0.30489,-0.232463,-0.0874,0.020615,0.294107,0.393056,-0.274396,0.144818,-0.088826,0.023163,0.033672,0.327716,0.170796,-0.188451,0.851361,0.743355,0.424723,-0.009788,0.185169,-0.078711,0.174628,0.606868,-0.84573,0.314461,-0.112818
3.376824,-0.412947,0.773799,-0.048239,-0.030783,-0.485818,0.872185,0.19704,0.412844,0.606122,0.339062,-0.305987,-0.233724,-0.084847,0.027454,0.302725,0.394623,-0.273999,0.145721,-0.092633,0.026294,0.030498,0.304949,0.182774,-0.177296,0.849948,0.750446,0.430582,0.006382,0.204013,-0.077848,0.156198,0.64469,-0.849274,0.340024,-0.110507
3.377281,-0.41317,0.773662,-0.050394,-0.031722,-0.488988,0.870256,0.205886,0.416131,0.614901,0.33865,-0.307222,-0.234395,-0.081901,0.032313,0.307674,0.3957,-0.273698,0.146717,-0.095747,0.028972,0.02775,0.279847,0.19259,-0.161019,0.836325,0.75062,0.426947,0.030351,0.219823,-0.080136,0.143646,0.691212,-0.862081,0.365628,-0.099428
3.37767,-0.41318,0.773537,-0.052149,-0.032727,-0.490905,0.869035,0.21209,0.418487,0.620097,0.339327,-0.30871,-0.234596,-0.079082,0.035245,0.310381,0.39653,-0.273484,0.147912,-0.098223,0.031409,0.025624,0.254404,0.199502,-0.141216,0.81005,0.742667,0.415423,0.058371,0.233461,-0.08533,0.13906,0.740397,-0.883807,0.38717,-0.076417
3.378007,-0.412981,0.773435,-0.053456,-0.033605,-0.492043,0.868278,0.215979,0.420064,0.62296,0.340891,-0.310452,-0.234467,-0.07704,0.036873,0.311979,0.397462,-0.273444,0.149375,-0.100097,0.033575,0.024358,0.23027,0.205472,-0.125874,0.774018,0.731644,0.397279,0.083024,0.246605,-0.09122,0.135239,0.782904,-0.9084120000000001,0.402176,-0.054711
3.378281,-0.412541,0.773429,-0.054554,-0.034514,-0.49264,0.867836,0.218532,0.421059,0.624407,0.34279,-0.312153,-0.234068,-0.075202,0.037563,0.312761,0.398096,-0.273442,0.151039,-0.101512,0.035283,0.023716,0.210392,0.212644,-0.107587,0.728936,0.720223,0.372163,0.105823,0.262906,-0.095336,0.127384,0.803395,-0.92712,0.411594,-0.041536
3.378478,-0.41182,0.773775,-0.055286,-0.03528,-0.49293,0.867594,0.219399,0.421157,0.62484,0.344766,-0.31348,-0.233207,-0.074179,0.037343,0.313162,0.398385,-0.273609,0.152966,-0.102738,0.036424,0.023788,0.192154,0.216516,-0.100538,0.677343,0.698086,0.340695,0.127807,0.27672,-0.094034,0.112159,0.813199,-0.9354420000000001,0.416047,-0.035374
3.378579,-0.410744,0.775576,-0.055534,-0.036044,-0.493252,0.867363,0.21891,0.419785,0.625095,0.346851,-0.314295,-0.231947,-0.075543,0.035848,0.314093,0.398447,-0.275404,0.155023,-0.104171,0.037114,0.024506,0.180582,0.218199,-0.100882,0.62457,0.673098,0.313136,0.151072,0.290032,-0.092611,0.096651,0.812902,-0.939066,0.413871,-0.036472
3.37858,-0.409589,0.776062,-0.055379,-0.036878,-0.493813,0.867019,0.218282,0.417937,0.625616,0.348852,-0.315252,-0.230409,-0.076392,0.03425,0.315746,0.399151,-0.275641,0.157069,-0.105925,0.037498,0.02559,0.173708,0.220569,-0.110357,0.574953,0.650124,0.290135,0.165655,0.301456,-0.092257,0.085305,0.8058,-0.9425770000000001,0.406478,-0.038678
3.378484,-0.408293,0.776192,-0.054944,-0.037596,-0.494477,0.866637,0.217025,0.415723,0.626179,0.350713,-0.316059,-0.228485,-0.077749,0.032308,0.317818,0.399441,-0.275303,0.159095,-0.107767,0.03764,0.026811,0.170301,0.223992,-0.127117,0.531919,0.634606,0.270773,0.173339,0.308908,-0.090615,0.073744,0.793697,-0.942309,0.399245,-0.03957
3.378284,-0.406899,0.776222,-0.054575,-0.038203,-0.495197,0.866223,0.215381,0.41401,0.62667,0.352989,-0.316977,-0.226426,-0.079391,0.03078,0.320164,0.399431,-0.274578,0.160849,-0.109345,0.037462,0.028155,0.168639,0.2276,-0.147022,0.497961,0.627279,0.262348,0.174621,0.310941,-0.087838,0.066825,0.781465,-0.9432990000000001,0.394293,-0.041713
3.377985,-0.405421,0.776229,-0.054315,-0.03874,-0.495913,0.865806,0.213182,0.412991,0.626839,0.356241,-0.318275,-0.224219,-0.081339,0.029688,0.322366,0.399546,-0.273547,0.162782,-0.110363,0.037042,0.02968,0.16834,0.229626,-0.166157,0.472696,0.622184,0.2597,0.166286,0.308307,-0.084244,0.062542,0.768282,-0.944154,0.386594,-0.045396
3.377629,-0.40384,0.776309,-0.05407,-0.03926,-0.496592,0.865408,0.21045,0.412175,0.62663,0.360162,-0.319914,-0.221562,-0.083637,0.028725,0.324342,0.400148,-0.272556,0.164843,-0.1108,0.036517,0.031337,0.170672,0.229253,-0.182247,0.456431,0.618064,0.258463,0.160061,0.302134,-0.079987,0.059128,0.753856,-0.943717,0.377808,-0.048738
3.37725,-0.402121,0.776731,-0.053714,-0.039795,-0.497136,0.865094,0.207124,0.411186,0.626082,0.364438,-0.321991,-0.218823,-0.086396,0.027595,0.32611,0.401503,-0.27181,0.167133,-0.110795,0.035912,0.032961,0.175241,0.226352,-0.197371,0.452797,0.616114,0.265545,0.15165,0.293665,-0.07489,0.054576,0.736296,-0.940409,0.37017,-0.057549
3.376853,-0.400254,0.778592,-0.053205,-0.040215,-0.497445,0.864928,0.20298,0.411084,0.625041,0.368308,-0.325661,-0.216318,-0.089675,0.026198,0.327399,0.403207,-0.27115,0.169796,-0.110398,0.035092,0.034456,0.180593,0.221183,-0.210911,0.458109,0.615416,0.273509,0.145239,0.28404,-0.070571,0.051743,0.716194,-0.935507,0.360645,-0.068683
3.376585,-0.398197,0.779151,-0.052571,-0.040461,-0.497522,0.864911,0.197629,0.409566,0.623281,0.373058,-0.328401,-0.21262,-0.093623,0.024093,0.328242,0.405035,-0.270391,0.172939,-0.109548,0.033969,0.035868,0.188303,0.216005,-0.22349,0.474665,0.617606,0.285216,0.13796,0.274189,-0.067262,0.05021,0.69481,-0.928137,0.351061,-0.079891
3.376453,-0.39596,0.779287,-0.051726,-0.040527,-0.497346,0.86506,0.191075,0.407261,0.620567,0.378252,-0.331411,-0.207671,-0.097908,0.021112,0.328769,0.406273,-0.269333,0.176558,-0.108317,0.032585,0.037253,0.197466,0.210534,-0.235438,0.501157,0.623419,0.300733,0.128249,0.264433,-0.066551,0.052154,0.672711,-0.92088,0.342126,-0.089508
3.37652,-0.393484,0.77929,-0.050599,-0.040498,-0.497201,0.865211,0.183909,0.403727,0.617547,0.38353,-0.334937,-0.201403,-0.10251,0.017061,0.32967,0.40662,-0.267755,0.180869,-0.10655,0.031054,0.038739,0.212421,0.202364,-0.240344,0.531391,0.63134,0.3115,0.120218,0.25846,-0.069887,0.057558,0.649234,-0.913674,0.33122,-0.097096
3.376785,-0.390723,0.77926,-0.049256,-0.040282,-0.497308,0.865237,0.176308,0.399702,0.61562,0.38883,-0.338508,-0.194248,-0.10766,0.012292,0.331307,0.405897,-0.265342,0.18583,-0.10398,0.029261,0.04055,0.226852,0.196373,-0.245745,0.564736,0.632837,0.327806,0.112788,0.250924,-0.077187,0.063097,0.635478,-0.907723,0.317812,-0.102328
3.377267,-0.387668,0.779222,-0.047628,-0.039953,-0.497663,0.86514,0.168701,0.394661,0.61486,0.393627,-0.342153,-0.185747,-0.113466,0.006766,0.333789,0.404696,-0.262148,0.191297,-0.100481,0.027161,0.042718,0.246057,0.18678,-0.251051,0.596919,0.636596,0.344591,0.111737,0.232231,-0.081949,0.073405,0.629999,-0.9066090000000001,0.312356,-0.10181
3.377961,-0.384287,0.779164,-0.045575,-0.039674,-0.498324,0.864883,0.160888,0.388094,0.614838,0.398436,-0.346167,-0.175977,-0.120265,0.000325,0.337398,0.404035,-0.258661,0.19714,-0.096156,0.024848,0.045164,0.256547,0.178962,-0.253072,0.642485,0.638626,0.360929,0.110123,0.225936,-0.092413,0.081975,0.619648,-0.902444,0.302483,-0.10014
3.37886,-0.380535,0.779095,-0.042979,-0.039379,-0.498874,0.864712,0.151728,0.379783,0.61427,0.403239,-0.350122,-0.16575,-0.128084,-0.007644,0.341388,0.403852,-0.254865,0.203893,-0.091206,0.022377,0.047978,0.2688,0.171634,-0.254721,0.688576,0.642277,0.375378,0.106062,0.219119,-0.102656,0.089815,0.611287,-0.898668,0.299937,-0.09535
3.379946,-0.376353,0.77903,-0.039861,-0.038993,-0.499311,0.864627,0.141506,0.369631,0.613573,0.407259,-0.353392,-0.155436,-0.137166,-0.017123,0.345661,0.403883,-0.249923,0.211525,-0.085895,0.019705,0.051138,0.280553,0.164561,-0.255348,0.730891,0.64717,0.38487,0.099351,0.213223,-0.113006,0.097345,0.605481,-0.89767,0.303102,-0.092005
3.38115,-0.371694,0.778974,-0.036244,-0.038282,-0.499472,0.864725,0.129807,0.358014,0.612875,0.410269,-0.35517,-0.1448,-0.147926,-0.028033,0.349183,0.403595,-0.242663,0.219559,-0.080415,0.016831,0.054606,0.290814,0.157817,-0.253939,0.768325,0.65324,0.394613,0.09356900000000001,0.209477,-0.121189,0.101111,0.601393,-0.893233,0.307604,-0.089381
3.382396,-0.366512,0.778858,-0.03193,-0.03714,-0.500102,0.86458,0.116744,0.345324,0.613839,0.412829,-0.355659,-0.135159,-0.161572,-0.03979,0.353655,0.403328,-0.233019,0.228208,-0.074774,0.013746,0.05861,0.29958,0.150742,-0.251834,0.79949,0.659833,0.403032,0.086841,0.206995,-0.129216,0.103022,0.600156,-0.887648,0.312486,-0.087014
3.383625,-0.360826,0.778554,-0.026869,-0.03547,-0.502003,0.863721,0.102962,0.331989,0.61852,0.414841,-0.355642,-0.126819,-0.178757,-0.05117,0.361124,0.403397,-0.22167,0.234739,-0.069102,0.010233,0.063444,0.307755,0.142211,-0.245878,0.820037,0.664388,0.40338,0.08457,0.20396,-0.138841,0.106912,0.60273,-0.885797,0.317238,-0.082783
3.384762,-0.35475,0.777768,-0.021342,-0.033604,-0.505021,0.862188,0.088878,0.318478,0.626472,0.416761,-0.354821,-0.119287,-0.197943,-0.061868,0.371067,0.403131,-0.209635,0.239275,-0.063564,0.0061,0.069074,0.314779,0.133205,-0.23919,0.833991,0.669484,0.406833,0.080916,0.202031,-0.147428,0.109182,0.605665,-0.884965,0.321544,-0.080622
3.385753,-0.348459,0.775629,-0.015353,-0.031622,-0.508362,0.860426,0.073372,0.304463,0.635395,0.420416,-0.352357,-0.112178,-0.218248,-0.072517,0.380952,0.402095,-0.19799,0.243679,-0.058173,0.001305,0.075866,0.31781,0.125297,-0.236559,0.839922,0.675662,0.399385,0.079466,0.201605,-0.155065,0.107825,0.606365,-0.882766,0.325591,-0.080627
3.386405,-0.34217,0.774961,-0.009392,-0.02984,-0.512618,0.858046,0.058207,0.292002,0.646379,0.423775,-0.350598,-0.105494,-0.238214,-0.082865,0.386593,0.398677,-0.187202,0.24677,-0.052838,-0.004288,0.083818,0.317112,0.119071,-0.236857,0.841587,0.682723,0.394508,0.07627,0.204411,-0.160836,0.104246,0.604539,-0.87947,0.32866,-0.082346
3.386636,-0.336206,0.774747,-0.003366,-0.028317,-0.518057,0.85487,0.044708,0.280636,0.660797,0.426321,-0.347714,-0.100218,-0.258879,-0.096315,0.373273,0.392563,-0.178304,0.247666,-0.046796,-0.01047,0.09239000000000001,0.312141,0.115286,-0.242181,0.839591,0.692914,0.389226,0.073484,0.210001,-0.164764,0.098588,0.599274,-0.874736,0.331398,-0.083475
3.386383,-0.330889,0.774708,0.002167,-0.0268,-0.524704,0.85086,0.03358,0.272317,0.678272,0.428346,-0.344059,-0.097031,-0.281045,-0.115358,0.33518,0.384012,-0.170327,0.247747,-0.03977,-0.016946,0.100478,0.302364,0.113355,-0.246563,0.832479,0.699716,0.382006,0.073162,0.217883,-0.1656,0.091759,0.591864,-0.869306,0.332913,-0.083873
3.385959,-0.326376,0.774854,0.006802,-0.025113,-0.531345,0.846756,0.025825,0.265913,0.696694,0.425715,-0.337934,-0.094641,-0.301914,-0.149686,0.268987,0.371723,-0.16693,0.247532,-0.033483,-0.022957,0.106579,0.288767,0.114449,-0.249816,0.823183,0.705196,0.375555,0.074128,0.228003,-0.162689,0.084071,0.586274,-0.865588,0.334339,-0.084738
3.385426,-0.323207,0.775641,0.010383,-0.023834,-0.537842,0.842645,0.025562,0.259465,0.716081,0.413481,-0.327813,-0.093395,-0.316146,-0.201358,0.168639,0.358998,-0.171738,0.242497,-0.028712,-0.028171,0.109922,0.273593,0.118309,-0.25359,0.810039,0.711741,0.37115,0.074505,0.239187,-0.157447,0.077489,0.586628,-0.867143,0.336485,-0.085324
3.384056,-0.321093,0.77822,0.013262,-0.022587,-0.544707,0.838218,0.029425,0.254042,0.735643,0.396444,-0.31534,-0.093557,-0.320727,-0.254608,0.044292,0.351602,-0.185519,0.202289,-0.024736,-0.031938,0.111115,0.258362,0.123632,-0.25262,0.79006,0.717143,0.37091,0.078397,0.249044,-0.150158,0.070861,0.593217,-0.870563,0.339282,-0.084453
3.382054,-0.320333,0.779586,0.015136,-0.021089,-0.550893,0.834172,0.034869,0.25207,0.752977,0.378657,-0.302173,-0.095485,-0.315231,-0.30763,-0.098915,0.348052,-0.204449,0.149782,-0.021605,-0.033962,0.110381,0.243268,0.127238,-0.243597,0.765556,0.72264,0.368012,0.086148,0.258928,-0.145792,0.063269,0.603764,-0.873326,0.339794,-0.082735
3.379371,-0.320799,0.780343,0.016726,-0.019598,-0.556676,0.83033,0.040699,0.25262,0.768161,0.362447,-0.289252,-0.09924500000000001,-0.30029,-0.363889,-0.262535,0.349466,-0.220984,0.091604,-0.019215,-0.034653,0.107862,0.230702,0.137338,-0.236203,0.734154,0.721193,0.35213,0.09363,0.267586,-0.141053,0.058342,0.613937,-0.879678,0.343905,-0.078115
3.376017,-0.322384,0.780472,0.018254,-0.018475,-0.562339,0.826499,0.047139,0.255302,0.782094,0.349504,-0.278065,-0.104991,-0.275251,-0.42146,-0.442475,0.359136,-0.235942,0.025457,-0.01699,-0.034749,0.103852,0.21692,0.14391,-0.227728,0.695795,0.716229,0.341641,0.097717,0.266423,-0.130757,0.056395,0.631258,-0.887512,0.353726,-0.080096
3.371865,-0.325078,0.779567,0.020029,-0.018043,-0.567769,0.822746,0.05389,0.260247,0.795131,0.341611,-0.269343,-0.113004,-0.242851,-0.474062,-0.615509,0.377825,-0.247718,-0.022667,-0.015717,-0.034616,0.09912000000000001,0.196406,0.153268,-0.223019,0.66225,0.70938,0.330826,0.102404,0.269915,-0.132543,0.045299,0.637818,-0.889183,0.355467,-0.075439
3.366933,-0.329191,0.779441,0.021528,-0.018268,-0.572308,0.819552,0.061918,0.267327,0.806045,0.337017,-0.261828,-0.123251,-0.20915,-0.51463,-0.759623,0.397206,-0.250144,-0.053272,-0.016171,-0.03429,0.093928,0.178597,0.16386,-0.218707,0.626088,0.702156,0.316823,0.109436,0.269403,-0.13623,0.037865,0.64731,-0.896603,0.357194,-0.074991
3.361092,-0.334441,0.779438,0.022032,-0.019208,-0.576209,0.81678,0.073564,0.276694,0.815344,0.33185,-0.253635,-0.13572,-0.175099,-0.541799,-0.871689,0.414494,-0.239818,-0.062347,-0.017831,-0.033219,0.088486,0.163069,0.171962,-0.205642,0.591431,0.690089,0.309303,0.122444,0.266044,-0.137776,0.029167,0.656779,-0.901736,0.358796,-0.074167
3.354174,-0.340816,0.779373,0.021015,-0.020394,-0.579614,0.814365,0.088833,0.289889,0.823079,0.32555,-0.244116,-0.150252,-0.150349,-0.552156,-0.936705,0.430474,-0.222552,-0.058689,-0.021407,-0.030994,0.083155,0.149343,0.179338,-0.187055,0.560101,0.67714,0.305917,0.134715,0.260685,-0.138173,0.022024,0.663782,-0.907135,0.359228,-0.077495
3.345964,-0.34828,0.779017,0.018546,-0.021885,-0.583035,0.811941,0.107356,0.307951,0.830226,0.320326,-0.23414,-0.166843,-0.140239,-0.54731,-0.953432,0.449174,-0.207974,-0.057534,-0.027009,-0.027481,0.078318,0.139667,0.185381,-0.16435,0.532665,0.667125,0.3048,0.147055,0.252767,-0.137306,0.017809,0.668861,-0.912144,0.358732,-0.077882
3.336213,-0.356793,0.778071,0.015936,-0.023693,-0.587283,0.808878,0.126233,0.331755,0.838385,0.32206,-0.225429,-0.186961,-0.142663,-0.536121,-0.941288,0.477644,-0.203775,-0.067948,-0.033753,-0.023111,0.074306,0.135215,0.184061,-0.133084,0.508897,0.65497,0.305393,0.169704,0.241978,-0.135418,0.011703,0.667743,-0.913608,0.356983,-0.083446
3.324901,-0.366229,0.776648,0.011647,-0.025198,-0.591991,0.805467,0.146719,0.363606,0.84747,0.32813,-0.217472,-0.209859,-0.148659,-0.513989,-0.9157900000000002,0.508397,-0.213504,-0.093661,-0.041669,-0.018307,0.070558,0.135663,0.181989,-0.104345,0.492587,0.644185,0.30974,0.187744,0.230493,-0.130699,0.00692,0.663161,-0.913331,0.355202,-0.091249
3.312126,-0.376462,0.775062,0.005077,-0.025188,-0.597021,0.801814,0.167191,0.405213,0.855259,0.336883,-0.206516,-0.231506,-0.146,-0.480332,-0.900226,0.53153,-0.237667,-0.102811,-0.049441,-0.012768,0.066492,0.138696,0.184085,-0.084296,0.483758,0.637551,0.315968,0.201473,0.218535,-0.119597,0.002656,0.654934,-0.909026,0.353562,-0.097083
3.29829,-0.387147,0.773735,-0.00393,-0.02408,-0.602553,0.797706,0.18701,0.456865,0.862063,0.352533,-0.192398,-0.24433,-0.1339,-0.437095,-0.894254,0.546967,-0.266142,-0.095967,-0.057333,-0.005439,0.06217,0.144274,0.190175,-0.074261,0.482143,0.629564,0.320745,0.210924,0.207323,-0.103841,0.000669,0.643704,-0.9014430000000001,0.3491,-0.104529
3.283913,-0.397824,0.774322,-0.015017,-0.022396,-0.608738,0.792913,0.205676,0.519608,0.869224,0.378178,-0.178629,-0.247018,-0.117064,-0.386231,-0.890443,0.556571,-0.294809,-0.091785,-0.06562,0.004355,0.058679,0.153443,0.203327,-0.081412,0.490765,0.627383,0.324723,0.204142,0.197131,-0.086756,0.004011,0.632566,-0.892752,0.343237,-0.11196
3.269743,-0.408331,0.773491,-0.026955,-0.020853,-0.617291,0.785996,0.225529,0.592655,0.877394,0.424494,-0.151894,-0.242693,-0.098083,-0.328659,-0.883058,0.558473,-0.321196,-0.095555,-0.073306,0.016653,0.057071,0.166199,0.216202,-0.093858,0.507232,0.625501,0.332284,0.190013,0.185544,-0.072155,0.016794,0.624479,-0.887339,0.336342,-0.11512
3.256388,-0.417781,0.771564,-0.039058,-0.018876,-0.628629,0.776495,0.234792,0.665523,0.882434,0.486937,-0.11414,-0.187202,-0.08181,-0.26649,-0.868517,0.549484,-0.343589,-0.103997,-0.079209,0.030792,0.057443,0.181251,0.225695,-0.109587,0.529931,0.627486,0.339579,0.169108,0.170551,-0.060525,0.038391,0.621235,-0.889033,0.327899,-0.115845
3.24443,-0.426043,0.769556,-0.048547,-0.016071,-0.642549,0.764536,0.223371,0.727227,0.876627,0.563737,-0.079213,-0.035939,-0.072653,-0.20717,-0.844397,0.536047,-0.359895,-0.116206,-0.082257,0.046349,0.058976,0.202316,0.220596,-0.123886,0.551561,0.630931,0.350938,0.15446,0.146948,-0.050366,0.05846,0.630272,-0.896824,0.323771,-0.112463
3.234134,-0.433523,0.768027,-0.056724,-0.013992,-0.663049,0.746293,0.160881,0.745652,0.757465,0.670085,-0.091736,0.121832,-0.06513,-0.14801,-0.803733,0.515977,-0.369067,-0.130081,-0.07233,0.062958,0.062667,0.216437,0.208241,-0.134606,0.588236,0.632935,0.368551,0.134816,0.133051,-0.044334,0.074135,0.637126,-0.899596,0.313793,-0.108264
3.225228,-0.440496,0.767859,-0.060944,-0.015145,-0.688042,0.722948,0.051151,0.688755,0.53192,0.789894,-0.129213,0.109621,-0.054815,-0.096361,-0.74976,0.486165,-0.369167,-0.141754,-0.052183,0.075739,0.067763,0.230383,0.187892,-0.147402,0.626562,0.638993,0.384035,0.115005,0.12057,-0.041395,0.086121,0.63944,-0.902451,0.308039,-0.107343
3.217539,-0.447244,0.768985,-0.060913,-0.015331,-0.709103,0.702301,-0.040967,0.614151,0.380135,0.878076,-0.170356,0.082982,-0.041671,-0.052901,-0.701943,0.443808,-0.35935,-0.148578,-0.039549,0.08489,0.069418,0.244433,0.166971,-0.166665,0.662118,0.650222,0.394136,0.085308,0.113201,-0.039378,0.094629,0.636836,-0.899735,0.301726,-0.106877
3.210798,-0.453965,0.770639,-0.058684,-0.014523,-0.728554,0.682315,-0.10884,0.547379,0.304338,0.924523,-0.203744,0.065526,-0.029043,-0.016212,-0.655079,0.400996,-0.346478,-0.150656,-0.031701,0.092462,0.068584,0.26043,0.147752,-0.185549,0.686251,0.662723,0.396389,0.043913,0.109973,-0.040895,0.105818,0.633187,-0.896186,0.293425,-0.107123
3.204512,-0.460548,0.772149,-0.055007,-0.013724,-0.749017,0.660121,-0.16799,0.47128,0.248239,0.934933,-0.234631,0.064939,-0.021019,0.014206,-0.602109,0.36849,-0.336669,-0.151177,-0.022913,0.09917500000000001,0.068172,0.279369,0.127667,-0.190971,0.692376,0.666559,0.393142,0.006561,0.106936,-0.048481,0.12378,0.630867,-0.89705,0.28821,-0.104207
3.198287,-0.466804,0.773032,-0.04958,-0.011805,-0.771646,0.634007,-0.227039,0.386302,0.189601,0.916289,-0.25988,0.03385,-0.023903,0.04117,-0.540011,0.352268,-0.332221,-0.154107,-0.012389,0.104606,0.069064,0.301272,0.109196,-0.183032,0.681247,0.661484,0.389201,-0.016112,0.099469,-0.059507,0.14804,0.628182,-0.897837,0.280258,-0.095893
3.191791,-0.472992,0.772988,-0.044252,-0.008482,-0.795126,0.604768,-0.285725,0.296008,0.117748,0.875838,-0.281877,-0.002894,-0.033326,0.068639,-0.47225,0.351557,-0.334763,-0.160119,-0.001016,0.108289,0.07081,0.326104,0.095501,-0.169386,0.659479,0.654229,0.381645,-0.013832,0.08945,-0.071753,0.17398,0.62854,-0.901828,0.276967,-0.092688
3.184501,-0.479201,0.77223,-0.038503,-0.00477,-0.818088,0.573783,-0.342169,0.205503,0.035831,0.816479,-0.282778,-0.022084,-0.043243,0.097849,-0.401719,0.356238,-0.340943,-0.170084,0.009652,0.110537,0.073074,0.350374,0.08978,-0.163246,0.636684,0.657303,0.370794,0.00015,0.079302,-0.081723,0.193142,0.63242,-0.902321,0.279346,-0.088407
3.17625,-0.485368,0.770761,-0.032792,-0.000823,-0.839737,0.542001,-0.390188,0.114764,-0.058796,0.740748,-0.272234,-0.023983,-0.051733,0.128856,-0.330269,0.365225,-0.350848,-0.182904,0.018707,0.111511,0.075626,0.369757,0.09055,-0.161627,0.621657,0.664556,0.361439,0.018428,0.072658,-0.08579,0.195941,0.636637,-0.893915,0.288338,-0.086514
3.166793,-0.491192,0.768911,-0.02674,0.002596,-0.85923,0.510884,-0.430882,0.033921,-0.145993,0.655396,-0.235601,-0.033756,-0.054571,0.159994,-0.262543,0.369605,-0.359752,-0.195973,0.024957,0.110771,0.07824,0.382311,0.095757,-0.161369,0.614267,0.674394,0.359616,0.035056,0.07265,-0.085883,0.182647,0.637455,-0.882514,0.298443,-0.094904
3.156194,-0.496374,0.766559,-0.020854,0.006072,-0.876028,0.481772,-0.464553,-0.029581,-0.204632,0.567337,-0.194398,-0.055998,-0.053909,0.190961,-0.201835,0.372318,-0.368935,-0.208488,0.027196,0.108478,0.080896,0.389182,0.10561,-0.158475,0.610894,0.681248,0.362193,0.03809,0.079185,-0.082623,0.158069,0.635856,-0.86873,0.313809,-0.107477
3.144633,-0.500857,0.763787,-0.015574,0.009663,-0.889818,0.455948,-0.495959,-0.073502,-0.216665,0.484217,-0.149737,-0.0933,-0.0494,0.221743,-0.148927,0.372365,-0.376789,-0.220544,0.025146,0.105019,0.083907,0.391924,0.119192,-0.147554,0.608308,0.682192,0.368309,0.03908,0.092138,-0.077814,0.128309,0.632016,-0.851886,0.330592,-0.122539
3.13235,-0.504911,0.760624,-0.010865,0.013912,-0.901064,0.433327,-0.525531,-0.09931,-0.182168,0.409833,-0.117832,-0.15438,-0.043194,0.252295,-0.102989,0.373411,-0.384417,-0.23108,0.019845,0.101262,0.087063,0.391767,0.133999,-0.126225,0.605347,0.674969,0.376732,0.044803,0.109826,-0.078738,0.109974,0.630752,-0.844997,0.34364,-0.131996
3.119571,-0.50874,0.75733,-0.00658,0.018036,-0.9110140000000002,0.411929,-0.548811,-0.116566,-0.133262,0.345441,-0.086188,-0.195236,-0.035565,0.281037,-0.060539,0.376907,-0.391803,-0.238783,0.014223,0.09666400000000001,0.090163,0.390934,0.152143,-0.102974,0.602805,0.667978,0.380564,0.054863,0.12945,-0.085866,0.100927,0.6324,-0.842286,0.351987,-0.13439
3.106391,-0.512508,0.75413,-0.002493,0.021715,-0.920273,0.390667,-0.563241,-0.130853,-0.087223,0.295366,-0.066799,-0.229952,-0.02713,0.307403,-0.019096,0.383882,-0.39941,-0.243861,0.009773,0.090841,0.092815,0.390851,0.168697,-0.072372,0.599788,0.659987,0.387283,0.075133,0.149349,-0.100848,0.106404,0.6417,-0.848997,0.356031,-0.125843
3.0928,-0.516453,0.751398,0.00158,0.024994,-0.92901,0.369207,-0.571744,-0.149088,-0.063442,0.269345,-0.066459,-0.246236,-0.017271,0.330749,0.02173,0.393443,-0.406438,-0.246512,0.006907,0.08358,0.09479000000000001,0.390415,0.181585,-0.037755,0.597592,0.650507,0.392096,0.100613,0.168473,-0.121474,0.121078,0.657551,-0.864019,0.358385,-0.108196
3.078866,-0.520643,0.749991,0.006021,0.026697,-0.937969,0.345638,-0.576122,-0.164969,-0.068532,0.272996,-0.061323,-0.246872,-0.006206,0.348489,0.063629,0.405662,-0.410718,-0.247387,0.00722,0.074346,0.095982,0.389911,0.1901,-0.001447,0.598172,0.640806,0.398403,0.130832,0.184699,-0.142796,0.13562,0.676301,-0.880879,0.365264,-0.090232
3.064202,-0.525235,0.751807,0.010807,0.028065,-0.9474840000000002,0.318385,-0.570399,-0.174181,-0.089944,0.292332,-0.062201,-0.24645,0.006812,0.364006,0.106542,0.422842,-0.409106,-0.24765,0.010525,0.063252,0.095463,0.390834,0.193474,0.037685,0.600051,0.626411,0.401099,0.161093,0.196163,-0.160065,0.146909,0.697612,-0.894536,0.37485,-0.072987
3.048883,-0.530266,0.753558,0.016046,0.02846,-0.957277,0.28732,-0.554485,-0.17533,-0.124799,0.318268,-0.054456,-0.236158,0.023253,0.37383,0.154519,0.436968,-0.400331,-0.247719,0.015599,0.049688,0.092503,0.392958,0.194074,0.07041,0.607179,0.616852,0.405066,0.184058,0.202935,-0.175215,0.156651,0.720935,-0.908552,0.385275,-0.054394
3.032945,-0.535636,0.756108,0.022791,0.025851,-0.966899,0.252821,-0.532732,-0.176708,-0.156054,0.319627,-0.027653,-0.153757,0.045245,0.373178,0.208848,0.441808,-0.381328,-0.247757,0.02014,0.033258,0.08689,0.396726,0.188262,0.095189,0.618557,0.611062,0.405857,0.196468,0.203101,-0.192001,0.165137,0.741206,-0.9246200000000001,0.398341,-0.032715
3.016326,-0.541034,0.759183,0.031092,0.018109,-0.974833,0.220016,-0.503068,-0.160718,-0.121687,0.282752,0.03754,-0.023186,0.067329,0.361255,0.266062,0.443997,-0.348745,-0.247754,0.019587,0.012589,0.079373,0.394415,0.175879,0.107915,0.638119,0.613605,0.413556,0.199624,0.201518,-0.21112,0.167417,0.750834,-0.93477,0.404971,-0.010599
2.998735,-0.546093,0.762799,0.036468,0.010266,-0.980771,0.191449,-0.485371,-0.139156,-0.071602,0.288158,0.020353,0.010291,0.078811,0.357432,0.308898,0.477444,-0.313154,-0.247562,0.017614,-0.013502,0.073811,0.383134,0.168667,0.11169,0.66748,0.622494,0.415575,0.194702,0.205544,-0.224816,0.162302,0.750377,-0.939083,0.408782,-0.002562
2.980208,-0.55093,0.766753,0.039632,0.00322,-0.985476,0.165092,-0.466471,-0.117397,-0.026527,0.308263,-0.024339,0.017618,0.075218,0.362522,0.33198,0.543951,-0.262433,-0.242811,0.017876,-0.039797,0.070873,0.3586,0.168341,0.106881,0.707749,0.641422,0.423816,0.179864,0.215356,-0.230664,0.155794,0.740248,-0.9379400000000001,0.408598,-0.003172
2.96177,-0.556646,0.77319,0.040231,-0.001818,-0.990149,0.134101,-0.438278,-0.092401,0.020869,0.325605,-0.062858,0.04768,0.05308,0.365757,0.335874,0.641828,-0.196538,-0.140402,0.023798,-0.060021,0.070305,0.325795,0.169248,0.111433,0.759891,0.663803,0.423421,0.160087,0.227487,-0.238753,0.16042,0.720188,-0.934302,0.395726,-0.00164
2.943575,-0.562726,0.773709,0.039079,-0.008686,-0.994505,0.096736,-0.406109,-0.068204,0.081438,0.345083,-0.102072,0.074556,-0.000993,0.338246,0.300481,0.776005,-0.133796,0.129107,0.037176,-0.072662,0.071586,0.285482,0.1614,0.103603,0.795669,0.69434,0.421055,0.137193,0.223614,-0.26311,0.19032,0.700451,-0.940292,0.372098,0.01793
2.925958,-0.568568,0.774499,0.036149,-0.01366,-0.997828,0.053349,-0.37347,-0.036469,0.15442,0.365135,-0.147577,0.081085,-0.083753,0.302559,0.164036,0.94648,-0.069817,0.242392,0.060745,-0.079536,0.073889,0.242733,0.145748,0.100972,0.807902,0.717852,0.414333,0.130945,0.210519,-0.296577,0.227379,0.672732,-0.945898,0.339392,0.041164
2.907953,-0.574188,0.775159,0.031397,-0.018142,-0.999237,0.014518,-0.334563,-0.011943,0.222076,0.381724,-0.192139,0.082239,-0.177069,0.211882,0.051024,1.103608,-0.053028,0.247419,0.078502,-0.083588,0.077484,0.207546,0.121836,0.099332,0.790625,0.73521,0.403157,0.161448,0.191155,-0.316941,0.247183,0.634243,-0.93823,0.322013,0.042339
2.889123,-0.579167,0.775595,0.025719,-0.022815,-0.999352,-0.010653,-0.289355,-0.003905,0.270501,0.388157,-0.231105,0.081025,-0.251772,0.09248700000000001,0.017791,1.202679,-0.121272,0.244195,0.076858,-0.088478,0.08159,0.168262,0.10234,0.09594,0.768593,0.744799,0.390223,0.18761,0.178532,-0.318486,0.240441,0.589901,-0.911722,0.31914,0.020005
2.86956,-0.583259,0.775791,0.018634,-0.027432,-0.999086,-0.02697,-0.237677,-0.007183,0.303513,0.385081,-0.263694,0.078462,-0.309525,-0.031551,-0.045394,1.248505,-0.170563,0.166784,0.064241,-0.094038,0.085871,0.127629,0.086589,0.09463,0.732852,0.735359,0.361438,0.210286,0.174813,-0.297353,0.212091,0.544587,-0.868619,0.323324,-0.021571
2.849712,-0.586273,0.775617,0.011197,-0.031418,-0.998756,-0.037069,-0.186322,-0.014885,0.324809,0.380855,-0.291971,0.074421,-0.351831,-0.1181,-0.113355,1.237797,-0.211982,0.027844,0.044487,-0.097975,0.090212,0.085839,0.076192,0.08362,0.695512,0.719885,0.334745,0.215417,0.180564,-0.262598,0.185427,0.50556,-0.830168,0.333518,-0.071039
2.829872,-0.588337,0.774823,0.004812,-0.035058,-0.998397,-0.04418,-0.140908,-0.023136,0.339377,0.382198,-0.322239,0.068856,-0.39914,-0.144036,-0.135707,1.19354,-0.239918,-0.055589,0.020835,-0.098075,0.095097,0.045772,0.07312,0.056354,0.648531,0.705795,0.309842,0.219004,0.193262,-0.233054,0.162983,0.458085,-0.798162,0.336767,-0.107155
2.809915,-0.589741,0.773585,-6e-06,-0.037322,-0.998045,-0.050139,-0.100096,-0.029275,0.350634,0.386439,-0.354827,0.062734,-0.447436,-0.135403,-0.129554,1.117854,-0.245051,-0.058109,-0.001762,-0.094045,0.099097,0.014747,0.079599,0.020019,0.594333,0.690183,0.281925,0.220882,0.207336,-0.210414,0.153852,0.417395,-0.77503,0.331631,-0.125108
2.789584,-0.590517,0.771913,-0.003239,-0.038709,-0.997741,-0.054806,-0.061689,-0.034195,0.359159,0.390517,-0.388381,0.056001,-0.485164,-0.118298,-0.118523,1.006247,-0.248297,-0.038407,-0.021271,-0.087417,0.101383,-0.011828,0.096791,-0.028411,0.537274,0.685746,0.25052,0.219953,0.22499,-0.194584,0.156209,0.387116,-0.769066,0.324552,-0.131931
2.768865,-0.590762,0.769965,-0.004363,-0.038531,-0.9975560000000001,-0.058127,-0.021637,-0.038193,0.364657,0.383155,-0.416378,0.048615,-0.507627,-0.108429,-0.1234,0.858896,-0.241464,-0.018709,-0.03727,-0.079034,0.101953,-0.035327,0.117438,-0.07495,0.480096,0.685161,0.223917,0.227392,0.244966,-0.178933,0.161781,0.369519,-0.773687,0.320324,-0.130796
2.747924,-0.590478,0.767374,-0.00447,-0.037828,-0.99745,-0.060362,0.018607,-0.042053,0.367217,0.370563,-0.440864,0.039939,-0.516142,-0.102308,-0.142058,0.690071,-0.227232,-0.022091,-0.050782,-0.069916,0.101338,-0.054807,0.137827,-0.117224,0.428511,0.680697,0.205711,0.231564,0.266153,-0.16077,0.165184,0.368641,-0.782165,0.324326,-0.12011
2.726894,-0.589631,0.76434,-0.003553,-0.036415,-0.997421,-0.061749,0.058997,-0.044882,0.367429,0.352338,-0.460894,0.029954,-0.514924,-0.09901,-0.178974,0.512588,-0.205077,-0.020423,-0.061447,-0.060544,0.099734,-0.070783,0.160668,-0.155791,0.376498,0.675178,0.19913,0.221809,0.277992,-0.138828,0.16338,0.390194,-0.78927,0.327546,-0.114823
2.705773,-0.588178,0.761042,-0.001158,-0.034263,-0.997546,-0.061054,0.097508,-0.04613,0.363909,0.330264,-0.475731,0.019243,-0.513287,-0.087865,-0.211631,0.350213,-0.183825,-0.00844,-0.070405,-0.050232,0.097408,-0.084592,0.17569,-0.190332,0.335184,0.661689,0.196828,0.214747,0.292913,-0.116342,0.157002,0.424407,-0.796445,0.33586,-0.108169
2.684325,-0.585955,0.757044,0.001658,-0.032388,-0.9976950000000001,-0.059603,0.132698,-0.045365,0.358595,0.315488,-0.494603,0.007168,-0.51842,-0.071582,-0.220153,0.231711,-0.167239,0.01755,-0.0788,-0.038674,0.095404,-0.093206,0.187462,-0.224152,0.306695,0.6435,0.196423,0.203639,0.306553,-0.098178,0.147606,0.470054,-0.806651,0.354791,-0.105229
2.662368,-0.582886,0.752412,0.003747,-0.031161,-0.997805,-0.058314,0.166618,-0.043183,0.352674,0.309565,-0.516991,-0.00662,-0.537837,-0.067396,-0.220259,0.212237,-0.165914,0.04978,-0.086282,-0.026931,0.094599,-0.095838,0.198291,-0.256914,0.290159,0.633703,0.204082,0.197941,0.316385,-0.085633,0.14201,0.527182,-0.821774,0.376219,-0.09592
2.639863,-0.578786,0.747986,0.005372,-0.028836,-0.997883,-0.058049,0.201697,-0.036153,0.348271,0.305241,-0.534484,-0.024313,-0.554096,-0.072552,-0.23876,0.25851,-0.14333,0.023505,-0.09334,-0.01597,0.094357,-0.088773,0.209012,-0.289232,0.284353,0.632486,0.218361,0.190228,0.321449,-0.075959,0.139764,0.591192,-0.839731,0.390744,-0.080254
