hanqing-shi/Humanoids-Motion-Generation/dataset/data_joint/walk/walk2_subject4_seg1.csv
root_x,root_y,root_z,root_qx,root_qy,root_qz,root_qw,left_hip_pitch_joint,left_hip_roll_joint,left_hip_yaw_joint,left_knee_joint,left_ankle_pitch_joint,left_ankle_roll_joint,right_hip_pitch_joint,right_hip_roll_joint,right_hip_yaw_joint,right_knee_joint,right_ankle_pitch_joint,right_ankle_roll_joint,waist_yaw_joint,waist_roll_joint,waist_pitch_joint,left_shoulder_pitch_joint,left_shoulder_roll_joint,left_shoulder_yaw_joint,left_elbow_joint,left_wrist_roll_joint,left_wrist_pitch_joint,left_wrist_yaw_joint,right_shoulder_pitch_joint,right_shoulder_roll_joint,right_shoulder_yaw_joint,right_elbow_joint,right_wrist_roll_joint,right_wrist_pitch_joint,right_wrist_yaw_joint
0.006454,0.004223,0.785319,0.001707,0.002393,-0.071951,0.997404,0.019276,0.043322,0.22536,0.21428,-0.308963,-0.026389,-0.160449,-0.005463,-0.0639,0.48766,-0.315282,-0.03106,0.02074,-0.024317,-0.013326,0.114547,0.05087,-0.137963,0.906583,0.82317,0.22914,-0.039378,0.088211,-0.006058,-0.083132,0.864149,-1.084982,0.174177,0.053124
0.00717,0.004728,0.784113,0.005121,0.003431,-0.089115,0.996002,0.020023,0.043173,0.25953,0.222385,-0.319137,-0.028949,-0.192171,-0.041716,-0.163415,0.545067,-0.323308,-0.047963,0.024172,-0.027887,-0.0111,0.13609,0.056073,-0.148527,0.890884,0.828108,0.197274,-0.014001,0.079736,-0.008985,-0.091665,0.853027,-1.063626,0.165014,0.019426
0.008434,0.004721,0.782745,0.007912,0.003597,-0.105435,0.994388,0.027438,0.043515,0.292057,0.223256,-0.326278,-0.031898,-0.201212,-0.071148,-0.248167,0.566939,-0.330113,-0.064394,0.025849,-0.032062,-0.009452,0.161135,0.068673,-0.157937,0.878021,0.823928,0.166875,0.014812,0.073496,-0.014709,-0.090636,0.844197,-1.045095,0.156681,-0.008009
0.009936,0.004135,0.780563,0.009778,0.002741,-0.120516,0.992659,0.037158,0.046169,0.321786,0.225085,-0.331026,-0.036188,-0.1964,-0.078848,-0.279275,0.560778,-0.335594,-0.074197,0.024727,-0.035467,-0.00875,0.18289,0.086559,-0.169454,0.875549,0.818317,0.146992,0.039585,0.069124,-0.021266,-0.079954,0.84017,-1.030483,0.151391,-0.029969
0.011556,0.00304,0.780427,0.010427,0.00135,-0.133904,0.990939,0.045408,0.052067,0.34774,0.231633,-0.334847,-0.041098,-0.183048,-0.063627,-0.249634,0.533974,-0.33838,-0.067929,0.021221,-0.036933,-0.008667,0.197673,0.106985,-0.182665,0.884703,0.816231,0.140977,0.044353,0.065169,-0.030919,-0.057878,0.842244,-1.024834,0.148812,-0.045065
0.013123,0.001581,0.780995,0.009942,-0.000168,-0.146886,0.989104,0.047305,0.063315,0.37144,0.252228,-0.337938,-0.046601,-0.162863,-0.041474,-0.207556,0.495556,-0.336653,-0.054372,0.018539,-0.036983,-0.008507,0.202837,0.130285,-0.197756,0.902455,0.823631,0.145861,0.03113,0.060336,-0.041464,-0.029704,0.849225,-1.025308,0.148857,-0.050619
0.01423,-0.000186,0.78191,0.008274,-0.001846,-0.160176,0.987052,0.039967,0.08174,0.39342,0.292477,-0.338122,-0.05267,-0.139211,-0.020731,-0.178217,0.452692,-0.32793,-0.052329,0.017295,-0.036148,-0.00769,0.20046,0.148737,-0.200709,0.9259750000000002,0.829378,0.164329,0.015566,0.054137,-0.050745,0.000449,0.85966,-1.0292,0.150849,-0.049115
0.014685,-0.002025,0.7829,0.005851,-0.002899,-0.17316,0.984872,0.01876,0.108233,0.411907,0.358182,-0.335402,-0.059637,-0.119788,-0.000177,-0.152556,0.415405,-0.314224,-0.05412,0.016246,-0.034338,-0.005161,0.191658,0.162496,-0.195641,0.950146,0.835156,0.189352,0.001245,0.045994,-0.0573,0.026085,0.871011,-1.030229,0.155978,-0.044373
0.014952,-0.003532,0.784801,0.002578,-0.004049,-0.186868,0.982373,-0.020791,0.145777,0.425286,0.463767,-0.324587,-0.070083,-0.106386,0.020861,-0.123564,0.39031,-0.304209,-0.056573,0.015929,-0.031194,0.000248,0.179817,0.173227,-0.182348,0.966423,0.838676,0.215469,0.000392,0.035532,-0.061415,0.049224,0.881306,-1.030005,0.160849,-0.039732
0.014813,-0.00458,0.785189,-0.000754,-0.005031,-0.202551,0.979258,-0.078843,0.191183,0.428239,0.60025,-0.294593,-0.074914,-0.100203,0.041442,-0.092329,0.377595,-0.300488,-0.059867,0.017536,-0.026717,0.008842,0.167919,0.181798,-0.16817,0.973222,0.840681,0.233947,0.002816,0.023763,-0.06579,0.072551,0.88855,-1.031578,0.163302,-0.035959
0.014811,-0.005006,0.784742,-0.004042,-0.006552,-0.220931,0.975259,-0.144517,0.237229,0.418458,0.7444,-0.239531,-0.074556,-0.094876,0.060731,-0.06035,0.368942,-0.299401,-0.063308,0.021234,-0.021112,0.020367,0.159767,0.187737,-0.150688,0.965065,0.837482,0.240101,0.014452,0.01246,-0.068993,0.092111,0.891085,-1.029351,0.166814,-0.036114
0.0153,-0.004599,0.783841,-0.007354,-0.009176,-0.242107,0.970178,-0.208592,0.271875,0.390673,0.875286,-0.181306,-0.057092,-0.08666,0.078844,-0.023196,0.360128,-0.297198,-0.06545,0.027303,-0.01472,0.035008,0.158713,0.190068,-0.13074,0.941588,0.828792,0.23238,0.038906,0.002433,-0.073219,0.109269,0.889511,-1.019983,0.162118,-0.038939
0.017204,-0.00365,0.784906,-0.01052,-0.013505,-0.265581,0.963937,-0.264272,0.27874,0.337182,0.972354,-0.158231,-0.046924,-0.07174,0.094723,0.020148,0.348149,-0.290819,-0.065023,0.034374,-0.009494,0.052605,0.166128,0.184002,-0.10041,0.908169,0.80764,0.225543,0.078578,-0.005369,-0.080179,0.127133,0.888042,-1.011043,0.155846,-0.046716
0.019885,-0.002085,0.785304,-0.0133,-0.019307,-0.290167,0.956689,-0.311708,0.244082,0.250189,1.031403,-0.148752,-0.082976,-0.054931,0.107206,0.066704,0.33969,-0.283128,-0.061894,0.039683,-0.006663,0.072174,0.180529,0.169996,-0.070054,0.870744,0.778979,0.215218,0.121297,-0.010546,-0.087513,0.141484,0.889438,-1.000815,0.151027,-0.057704
0.02318,0.000114,0.78571,-0.014483,-0.024224,-0.313978,0.949011,-0.343775,0.181007,0.150734,1.046325,-0.141139,-0.129469,-0.045557,0.114728,0.112201,0.34079,-0.277652,-0.056665,0.042108,-0.006385,0.090232,0.194851,0.152804,-0.048683,0.835917,0.751723,0.205693,0.161554,-0.015328,-0.096489,0.154914,0.894667,-0.995787,0.160075,-0.062545
0.027223,0.002818,0.786055,-0.014931,-0.02864,-0.337255,0.940859,-0.354929,0.118656,0.057938,1.02325,-0.149597,-0.161207,-0.042284,0.119272,0.156516,0.351681,-0.276535,-0.049008,0.0422,-0.008467,0.104712,0.206253,0.138374,-0.043829,0.80799,0.726076,0.191752,0.171261,-0.01719,-0.106049,0.168076,0.897588,-0.994741,0.171043,-0.063065
0.032057,0.005673,0.786346,-0.014251,-0.032326,-0.361534,0.931689,-0.344692,0.064507,-0.02927,0.964379,-0.182443,-0.160749,-0.042107,0.122028,0.204052,0.36573,-0.277977,-0.039108,0.042696,-0.011511,0.115225,0.212269,0.134676,-0.060547,0.785984,0.714411,0.177026,0.156405,-0.016416,-0.114414,0.176686,0.896141,-0.987095,0.177241,-0.055395
0.037641,0.00838,0.786281,-0.014202,-0.035011,-0.387089,0.921268,-0.316233,0.004634,-0.141988,0.881136,-0.220936,-0.161975,-0.041934,0.127017,0.255171,0.379243,-0.281771,-0.027923,0.045422,-0.014673,0.122354,0.21485,0.141016,-0.087425,0.765059,0.713796,0.15761,0.134185,-0.013851,-0.12125,0.181309,0.890398,-0.971232,0.178338,-0.050655
0.043819,0.010611,0.785426,-0.015507,-0.036781,-0.413419,0.909666,-0.265761,-0.063049,-0.294115,0.781938,-0.25378,-0.1866,-0.038984,0.135533,0.308673,0.389579,-0.287847,-0.016515,0.049724,-0.017386,0.126036,0.220091,0.153157,-0.113297,0.742337,0.719721,0.140824,0.113454,-0.01106,-0.124791,0.193963,0.887492,-0.957741,0.1748,-0.055182
0.05016,0.01236,0.782619,-0.018264,-0.038119,-0.440194,0.896907,-0.197377,-0.112923,-0.444445,0.676897,-0.275307,-0.217905,-0.031511,0.146835,0.363658,0.393374,-0.293259,-0.005257,0.052558,-0.018661,0.126964,0.22375,0.164731,-0.132009,0.725503,0.727374,0.131961,0.098594,-0.008003,-0.133894,0.212139,0.887122,-0.94997,0.168123,-0.057292
0.056038,0.014522,0.782294,-0.02158,-0.039146,-0.464168,0.884618,-0.13912,-0.11663,-0.505367,0.601311,-0.290591,-0.185258,-0.019956,0.156813,0.414728,0.385447,-0.291188,0.005921,0.049414,-0.018159,0.126659,0.225838,0.168812,-0.140781,0.714954,0.730127,0.133129,0.091547,-0.006668,-0.145625,0.229931,0.888686,-0.946925,0.166429,-0.058369
0.061746,0.016887,0.780526,-0.026961,-0.03821,-0.483772,0.873944,-0.104705,-0.089712,-0.466329,0.553344,-0.31852,-0.135335,-0.012732,0.168787,0.455439,0.379678,-0.289101,0.019198,0.040126,-0.015651,0.125782,0.224052,0.170873,-0.143065,0.709736,0.729529,0.138911,0.091531,-0.005467,-0.15469,0.237907,0.890184,-0.940579,0.172986,-0.06357
0.067335,0.019415,0.781666,-0.030175,-0.035926,-0.501117,0.864107,-0.07347,-0.057587,-0.408504,0.491527,-0.328154,-0.10065,-0.006109,0.174405,0.490669,0.364407,-0.277815,0.030046,0.029417,-0.013616,0.122542,0.216412,0.17124,-0.146137,0.713289,0.729809,0.144773,0.094086,-0.002244,-0.160336,0.229421,0.890811,-0.928526,0.18945,-0.073832
0.072937,0.022608,0.783368,-0.031635,-0.033605,-0.515152,0.855855,-0.045691,-0.038068,-0.365156,0.432082,-0.324136,-0.074612,-0.00143,0.173423,0.519243,0.348056,-0.265116,0.040107,0.018377,-0.012484,0.117837,0.206626,0.176356,-0.152076,0.726716,0.731771,0.146642,0.091468,0.010569,-0.164195,0.203687,0.886602,-0.909787,0.212464,-0.094114
0.078505,0.026421,0.784915,-0.031619,-0.031045,-0.526537,0.848997,-0.02346,-0.027976,-0.333991,0.378782,-0.31498,-0.059755,-0.001611,0.168781,0.542201,0.335362,-0.25342,0.049931,0.007169,-0.01259,0.112342,0.18719,0.182998,-0.166323,0.74631,0.741379,0.152853,0.080058,0.029349,-0.160466,0.164398,0.878462,-0.88171,0.23364,-0.11476
0.083913,0.030893,0.785965,-0.030462,-0.028289,-0.537156,0.842458,-0.007544,-0.023312,-0.307105,0.334227,-0.30676,-0.051519,-0.009193,0.164026,0.563092,0.331158,-0.244264,0.060184,-0.002865,-0.013251,0.107047,0.163855,0.193073,-0.183918,0.764214,0.753753,0.154815,0.061774,0.049903,-0.153206,0.119865,0.866443,-0.84992,0.254049,-0.134694
0.089048,0.035986,0.78645,-0.028612,-0.025559,-0.548978,0.834956,0.00236,-0.021744,-0.279965,0.300125,-0.299798,-0.04274,-0.024874,0.16276,0.585596,0.339261,-0.238994,0.070184,-0.010156,-0.014201,0.102897,0.141133,0.206995,-0.195222,0.777791,0.763529,0.153326,0.051224,0.069814,-0.14378,0.08227,0.853832,-0.82284,0.259698,-0.149945
0.094086,0.041635,0.78642,-0.026356,-0.022695,-0.563099,0.825657,0.006148,-0.021789,-0.249023,0.276691,-0.294735,-0.034285,-0.047116,0.165695,0.610925,0.357409,-0.23619,0.0788,-0.014377,-0.015692,0.099921,0.121163,0.215295,-0.195236,0.785686,0.766511,0.151555,0.055056,0.083054,-0.136308,0.075284,0.845286,-0.808789,0.263449,-0.154415
0.099044,0.047663,0.785845,-0.023281,-0.020645,-0.578925,0.814787,0.005967,-0.023932,-0.211768,0.260814,-0.290581,-0.02655,-0.073117,0.169801,0.636081,0.382768,-0.239232,0.088113,-0.015817,-0.018228,0.098187,0.107228,0.219796,-0.181384,0.791039,0.757765,0.149939,0.074949,0.098561,-0.143156,0.084438,0.842421,-0.808741,0.25631,-0.145114
0.103914,0.053943,0.784652,-0.019336,-0.019798,-0.595691,0.802737,0.001119,-0.028664,-0.169857,0.25429,-0.289304,-0.020588,-0.101999,0.170815,0.65178,0.41198,-0.250872,0.100494,-0.014838,-0.02269,0.098024,0.10142,0.219378,-0.159076,0.793129,0.741912,0.152978,0.105744,0.106282,-0.153359,0.110271,0.845552,-0.826771,0.251322,-0.127121
0.108725,0.060371,0.783128,-0.014311,-0.019633,-0.612621,0.790003,-0.007978,-0.035521,-0.12562,0.253384,-0.289868,-0.015582,-0.134381,0.16592,0.653352,0.440144,-0.263968,0.115755,-0.012266,-0.029372,0.098615,0.097157,0.216443,-0.136323,0.797793,0.720346,0.154935,0.130947,0.111051,-0.163178,0.13934,0.848911,-0.850044,0.246268,-0.103869
0.113581,0.066738,0.781736,-0.009531,-0.019949,-0.63003,0.776256,-0.015956,-0.04183,-0.079889,0.251472,-0.289845,-0.008903,-0.16403,0.15738,0.651115,0.45822,-0.270199,0.133186,-0.009386,-0.037295,0.099502,0.092322,0.215193,-0.117975,0.808287,0.701638,0.158634,0.152024,0.115563,-0.168155,0.162751,0.849434,-0.86825,0.240125,-0.080189
0.11837,0.072932,0.780624,-0.005238,-0.020592,-0.647547,0.761729,-0.023481,-0.046803,-0.033489,0.250519,-0.289754,-0.001315,-0.18997,0.148704,0.65281,0.46829,-0.270429,0.148454,-0.006738,-0.045438,0.100714,0.085914,0.215439,-0.107803,0.826301,0.692769,0.166809,0.166619,0.121045,-0.168473,0.17786,0.845879,-0.877303,0.231791,-0.060454
0.122991,0.078824,0.780207,-0.00171,-0.021086,-0.665074,0.746478,-0.030042,-0.049151,0.013448,0.248833,-0.288811,0.006383,-0.215856,0.136497,0.637812,0.470792,-0.264005,0.153098,-0.003458,-0.053352,0.102474,0.076504,0.210412,-0.103308,0.854648,0.690159,0.184957,0.177879,0.131743,-0.166823,0.187386,0.834764,-0.880397,0.224214,-0.044731
0.127089,0.084211,0.782096,0.000498,-0.020992,-0.682606,0.730485,-0.035097,-0.047263,0.06057,0.245949,-0.28635,0.013617,-0.246121,0.110363,0.580661,0.462747,-0.249113,0.130707,0.000768,-0.060812,0.104821,0.071191,0.214958,-0.105601,0.880202,0.69932,0.198096,0.179501,0.135333,-0.162944,0.195831,0.830028,-0.880793,0.215455,-0.035442
0.130957,0.089583,0.784207,0.001821,-0.020672,-0.700027,0.713815,-0.039453,-0.04236,0.107657,0.243417,-0.283919,0.019942,-0.2767,0.0637,0.470484,0.452435,-0.230088,0.073683,0.005222,-0.067779,0.107387,0.065616,0.21476,-0.112773,0.9079680000000001,0.712511,0.209178,0.173437,0.140702,-0.159648,0.204181,0.8234,-0.883181,0.208381,-0.029159
0.134415,0.09437400000000001,0.784633,0.002862,-0.020005,-0.716359,0.69744,-0.044226,-0.035515,0.152587,0.243038,-0.283265,0.025008,-0.300362,0.011155,0.351352,0.437818,-0.220982,0.027328,0.007252,-0.073711,0.109509,0.061197,0.210569,-0.12093,0.933112,0.724828,0.217411,0.167859,0.145423,-0.157247,0.20886,0.814677,-0.884911,0.204475,-0.025491
0.13752,0.098501,0.784481,0.003444,-0.019096,-0.731647,0.681407,-0.048742,-0.026847,0.195299,0.245531,-0.284977,0.028753,-0.313238,-0.033412,0.259424,0.417149,-0.227984,0.017533,0.006655,-0.078017,0.110751,0.061418,0.207078,-0.137061,0.950733,0.741406,0.217183,0.161644,0.150785,-0.160135,0.206428,0.805566,-0.885345,0.197626,-0.025313
0.140318,0.101976,0.784194,0.00348,-0.018536,-0.747412,0.664094,-0.050144,-0.016611,0.239598,0.24805,-0.287907,0.03086,-0.322343,-0.078268,0.165585,0.399315,-0.238235,0.031086,0.006588,-0.081271,0.111316,0.063994,0.202704,-0.158556,0.961568,0.761507,0.208087,0.156462,0.154793,-0.159712,0.202693,0.798338,-0.885405,0.195327,-0.028327
0.142724,0.104897,0.783938,0.003461,-0.018554,-0.763853,0.645114,-0.049007,-0.005462,0.28653,0.250448,-0.291397,0.031674,-0.329246,-0.133379,0.041955,0.390032,-0.242015,0.049462,0.008233,-0.084478,0.111269,0.069121,0.194447,-0.172988,0.9648040000000001,0.771875,0.196404,0.153385,0.157112,-0.159474,0.198681,0.793585,-0.885559,0.195157,-0.030507
0.144781,0.107271,0.783918,0.003039,-0.018391,-0.779838,0.625704,-0.044072,0.006298,0.33328,0.248433,-0.293148,0.031634,-0.332876,-0.195261,-0.099466,0.392641,-0.233339,0.05861,0.010638,-0.087548,0.11049,0.074968,0.186745,-0.186574,0.961702,0.778566,0.182327,0.148903,0.15882,-0.159807,0.195698,0.790521,-0.888898,0.193656,-0.038236
0.146424,0.109087,0.784082,0.0021,-0.018437,-0.794087,0.607521,-0.036151,0.017282,0.376395,0.244386,-0.294064,0.03131,-0.329462,-0.248865,-0.212152,0.400885,-0.2152,0.038687,0.010542,-0.089971,0.109201,0.080893,0.179935,-0.199508,0.954088,0.783158,0.167352,0.149532,0.159119,-0.15744,0.18939,0.789053,-0.886293,0.195045,-0.039484
0.147599,0.110419,0.784339,0.000702,-0.018603,-0.806352,0.591143,-0.026978,0.0275,0.414521,0.240479,-0.294726,0.031055,-0.321289,-0.283773,-0.279181,0.404743,-0.198076,0.022289,0.007438,-0.091637,0.107675,0.080443,0.17115,-0.208601,0.949856,0.780683,0.153932,0.146365,0.158262,-0.152683,0.18843,0.787779,-0.885814,0.200775,-0.043494
0.148243,0.111329,0.784604,-0.00111,-0.018784,-0.81666,0.576812,-0.017954,0.037732,0.447421,0.239092,-0.29633,0.030381,-0.313868,-0.295154,-0.28778,0.403033,-0.186898,0.020917,0.001758,-0.09222300000000001,0.106099,0.076625,0.166099,-0.220355,0.947317,0.780937,0.144034,0.143754,0.158188,-0.151855,0.187207,0.787234,-0.884509,0.204571,-0.045238
0.14839,0.111848,0.78485,-0.002927,-0.018965,-0.825799,0.563638,-0.0084,0.047422,0.477512,0.237735,-0.298014,0.029284,-0.307287,-0.292248,-0.264005,0.394976,-0.179829,0.024754,-0.003791,-0.0918,0.104138,0.068024,0.162221,-0.232686,0.947197,0.782894,0.139859,0.138599,0.159713,-0.152341,0.18602,0.786494,-0.883073,0.206216,-0.045149
0.148038,0.112093,0.785038,-0.003976,-0.019163,-0.835091,0.549763,0.00145,0.056408,0.509079,0.234975,-0.298949,0.027499,-0.295134,-0.297031,-0.270175,0.382068,-0.177916,0.016248,-0.005639,-0.091484,0.101104,0.055722,0.159133,-0.244443,0.949091,0.786149,0.140778,0.129611,0.162469,-0.153251,0.184982,0.785446,-0.881745,0.205569,-0.044993
0.147158,0.112164,0.785089,-0.003744,-0.019691,-0.844603,0.535018,0.011011,0.063591,0.542457,0.230289,-0.298456,0.025021,-0.275158,-0.323791,-0.351106,0.369757,-0.178647,-0.005566,-0.002912,-0.092249,0.09687,0.040721,0.156798,-0.254196,0.951046,0.788961,0.143859,0.119475,0.16511,-0.154006,0.183655,0.785538,-0.881438,0.206475,-0.04557
0.145796,0.112033,0.784898,-0.002675,-0.020413,-0.853479,0.52072,0.02085,0.068431,0.574622,0.222915,-0.296535,0.022037,-0.247677,-0.354422,-0.465849,0.357354,-0.180588,-0.020218,0.000893,-0.093483,0.091859,0.025296,0.155143,-0.259292,0.9504880000000001,0.78933,0.147138,0.115566,0.166592,-0.153681,0.182368,0.787806,-0.881779,0.210153,-0.044252
0.14389,0.111755,0.784028,-0.00116,-0.021458,-0.861277,0.507681,0.030299,0.071983,0.603891,0.216071,-0.294821,0.018279,-0.219756,-0.372604,-0.56202,0.346999,-0.179711,-0.027012,0.00259,-0.094601,0.086702,0.010926,0.154512,-0.261148,0.9477930000000001,0.788075,0.149629,0.117921,0.167266,-0.152316,0.181897,0.790786,-0.882432,0.212733,-0.041734
0.141034,0.111075,0.784421,0.000208,-0.022063,-0.868289,0.495568,0.041503,0.075706,0.630771,0.206406,-0.291195,0.013248,-0.196643,-0.377459,-0.627629,0.32553,-0.166991,-0.025106,0.002045,-0.095339,0.081371,-0.003565,0.151987,-0.260906,0.946706,0.784425,0.152134,0.123326,0.170669,-0.149463,0.182753,0.789867,-0.885449,0.215606,-0.038628
0.137854,0.110294,0.784752,0.000938,-0.021968,-0.874354,0.48479,0.055059,0.079737,0.654794,0.192713,-0.285273,0.006738,-0.182122,-0.363736,-0.642089,0.289593,-0.137842,-0.008702,-0.001278,-0.09454000000000001,0.076352,-0.011577,0.158784,-0.256864,0.9396040000000001,0.777915,0.149693,0.12597,0.163795,-0.145688,0.187204,0.799262,-0.888655,0.216362,-0.034616
0.133956,0.10938,0.783625,0.001045,-0.021849,-0.879963,0.474539,0.070009,0.0849,0.677564,0.180274,-0.279859,-0.001667,-0.177909,-0.337504,-0.611404,0.260937,-0.098971,0.006629,-0.006084,-0.091817,0.071828,-0.017489,0.165059,-0.253041,0.931946,0.772961,0.149276,0.13299,0.156636,-0.14164,0.191845,0.809312,-0.889697,0.214668,-0.026146
0.129416,0.108498,0.784207,0.001106,-0.021574,-0.885593,0.46396,0.084751,0.091856,0.700828,0.170638,-0.274517,-0.012532,-0.178116,-0.315383,-0.580077,0.24188,-0.077207,0.013627,-0.009747,-0.08801,0.06721,-0.021074,0.169969,-0.249237,0.925316,0.76737,0.149604,0.139821,0.14969,-0.138548,0.19705,0.81733,-0.892391,0.214247,-0.018933
0.12411,0.107568,0.784885,0.001264,-0.021194,-0.890801,0.453897,0.098333,0.100278,0.722987,0.164097,-0.269849,-0.024862,-0.178831,-0.298387,-0.559076,0.234617,-0.070011,0.018124,-0.012453,-0.083315,0.062728,-0.023643,0.174183,-0.247054,0.920778,0.762208,0.151789,0.142387,0.144313,-0.135777,0.201404,0.820828,-0.896129,0.214691,-0.016621
0.118085,0.106743,0.785432,0.00119,-0.020513,-0.895224,0.445143,0.110858,0.110622,0.742234,0.160274,-0.266143,-0.037656,-0.178042,-0.282213,-0.542833,0.231921,-0.072506,0.021017,-0.015397,-0.077951,0.058523,-0.025815,0.179049,-0.249276,0.917619,0.759471,0.151098,0.144367,0.140746,-0.132448,0.203303,0.820258,-0.897581,0.213322,-0.016924
0.11142,0.106128,0.785894,0.001066,-0.019415,-0.898669,0.438196,0.121696,0.122933,0.757577,0.158856,-0.263037,-0.050798,-0.175619,-0.265594,-0.530479,0.2303,-0.078664,0.01712,-0.018894,-0.072226,0.054619,-0.029005,0.184684,-0.256752,0.918148,0.759442,0.150304,0.140324,0.139509,-0.126992,0.198725,0.815371,-0.892965,0.211457,-0.022757
0.104266,0.105691,0.786278,0.000746,-0.018244,-0.9012500000000001,0.432915,0.132209,0.135951,0.769504,0.158032,-0.259771,-0.064368,-0.171661,-0.24932,-0.521192,0.229619,-0.086325,0.010792,-0.022677,-0.066012,0.051106,-0.033258,0.190096,-0.268416,0.92154,0.761674,0.150524,0.132146,0.140699,-0.120835,0.192046,0.808888,-0.887189,0.210263,-0.02964
0.096751,0.105397,0.786523,0.000137,-0.017113,-0.903265,0.428742,0.142461,0.1499,0.779016,0.158927,-0.256777,-0.078131,-0.166893,-0.233824,-0.514223,0.231035,-0.096304,0.003801,-0.026538,-0.059272,0.048158,-0.038784,0.190974,-0.285096,0.931285,0.768159,0.151311,0.132562,0.148035,-0.115138,0.185457,0.796854,-0.88423,0.210699,-0.033105
0.088952,0.10522,0.78656,-0.000709,-0.016006,-0.90504,0.425024,0.15244,0.16516,0.787537,0.16236,-0.254509,-0.092207,-0.161794,-0.218639,-0.508278,0.234378,-0.109406,-0.002672,-0.030382,-0.052037,0.045762,-0.042605,0.193118,-0.296601,0.938912,0.76991,0.150983,0.13184,0.151271,-0.109058,0.179,0.789438,-0.882486,0.212568,-0.035068
0.080921,0.105123,0.786295,-0.001807,-0.014655,-0.90694,0.421001,0.162496,0.182444,0.796637,0.168543,-0.253973,-0.106997,-0.157029,-0.203073,-0.502163,0.240381,-0.127797,-0.003222,-0.033886,-0.044211,0.043723,-0.043373,0.193633,-0.301481,0.944223,0.765695,0.151614,0.130142,0.15129,-0.102587,0.173751,0.78695,-0.881954,0.216091,-0.036422
0.072747,0.105132,0.785786,-0.00304,-0.013092,-0.908999,0.416581,0.17245,0.201392,0.806051,0.177009,-0.253737,-0.122573,-0.152361,-0.186598,-0.494921,0.247157,-0.14949,-0.000347,-0.036767,-0.035888,0.041838,-0.040651,0.192648,-0.301642,0.946246,0.7587,0.15633,0.130924,0.1485,-0.096234,0.171017,0.788635,-0.88299,0.220116,-0.036723
0.06452,0.105274,0.785125,-0.004162,-0.011534,-0.911415,0.411305,0.181651,0.221575,0.815667,0.188702,-0.251784,-0.139198,-0.148829,-0.169214,-0.484713,0.254721,-0.172717,-0.000593,-0.038925,-0.027191,0.039976,-0.032445,0.195496,-0.298916,0.937753,0.750165,0.159597,0.127963,0.137072,-0.091136,0.171717,0.799381,-0.886255,0.222583,-0.035981
0.056286,0.105555,0.784376,-0.005208,-0.010169,-0.914239,0.405014,0.189114,0.24387,0.825385,0.207055,-0.249419,-0.154679,-0.146192,-0.151487,-0.471793,0.262968,-0.19472,0.001336,-0.0403,-0.018482,0.03808,-0.018181,0.192619,-0.295367,0.925086,0.74339,0.162141,0.121998,0.123343,-0.083885,0.174797,0.809718,-0.891069,0.226953,-0.034203
0.048062,0.105963,0.783551,-0.00654,-0.008757,-0.917487,0.397615,0.193274,0.271421,0.833987,0.238047,-0.246147,-0.170587,-0.143338,-0.132575,-0.456466,0.271167,-0.216283,0.005729,-0.041145,-0.01009,0.036542,-0.003588,0.188424,-0.29068,0.914459,0.736081,0.164117,0.112709,0.113669,-0.07969,0.175632,0.816891,-0.893122,0.22671,-0.03291
0.039861,0.106509,0.782714,-0.008165,-0.007754,-0.921337,0.388602,0.193376,0.304543,0.839592,0.285078,-0.238597,-0.18621,-0.139587,-0.112778,-0.437988,0.278341,-0.236752,0.011735,-0.041582,-0.002384,0.035886,0.012384,0.182577,-0.282406,0.904487,0.727988,0.16681,0.105859,0.104802,-0.077599,0.176671,0.822289,-0.89504,0.225067,-0.034188
0.03189,0.107222,0.7819,-0.010223,-0.007005,-0.9257240000000002,0.377996,0.187454,0.343199,0.838396,0.350221,-0.229426,-0.193786,-0.135765,-0.092756,-0.41743,0.286562,-0.256229,0.018151,-0.041023,0.004456,0.036586,0.026414,0.175901,-0.271384,0.899204,0.718627,0.170531,0.10465,0.10004,-0.07969,0.179042,0.826681,-0.898311,0.221542,-0.03815
0.024278,0.107691,0.782352,-0.012617,-0.006462,-0.930703,0.365501,0.172176,0.38348,0.818624,0.432578,-0.223175,-0.174959,-0.131441,-0.073015,-0.395366,0.295207,-0.273022,0.026093,-0.038343,0.010857,0.038699,0.045282,0.167328,-0.255656,0.88835,0.711344,0.179024,0.108628,0.092796,-0.08459,0.182529,0.836646,-0.90412,0.210653,-0.04336
0.017509,0.108161,0.781631,-0.015742,-0.006013,-0.936495,0.350276,0.139118,0.413103,0.753352,0.526697,-0.227706,-0.13821,-0.126284,-0.052425,-0.369954,0.302892,-0.287298,0.034342,-0.031743,0.01718,0.042789,0.062509,0.158292,-0.237778,0.876105,0.709615,0.19472,0.115148,0.081144,-0.087841,0.188112,0.845449,-0.910849,0.202179,-0.045925
0.010755,0.107997,0.782024,-0.01974,-0.005086,-0.94315,0.331741,0.079847,0.411095,0.618452,0.618467,-0.251133,-0.163964,-0.12123,-0.030426,-0.339544,0.312845,-0.299841,0.043064,-0.021166,0.023162,0.049523,0.080429,0.154831,-0.219682,0.859205,0.715775,0.210663,0.122688,0.066907,-0.090892,0.192231,0.855709,-0.92054,0.19217,-0.046962
0.004492,0.1074,0.781401,-0.022951,-0.005082,-0.949755,0.312111,0.014657,0.372407,0.460394,0.690736,-0.272572,-0.222519,-0.117037,-0.011573,-0.306631,0.322138,-0.310634,0.053466,-0.011734,0.027776,0.056973,0.099196,0.151381,-0.199337,0.836635,0.727042,0.224701,0.138524,0.04979,-0.094744,0.199871,0.865553,-0.9324420000000002,0.186834,-0.046876
-0.001537,0.106294,0.780903,-0.025263,-0.006203,-0.9552520000000002,0.294646,-0.038622,0.314825,0.335119,0.735096,-0.291262,-0.246533,-0.111393,0.002252,-0.276205,0.328375,-0.319262,0.063685,-0.007831,0.030389,0.063306,0.120679,0.148952,-0.177308,0.812152,0.731574,0.224629,0.151011,0.03301,-0.100815,0.20891,0.875505,-0.944235,0.185713,-0.045783
-0.007538,0.104812,0.780731,-0.026638,-0.008318,-0.960042,0.278461,-0.076074,0.270911,0.261387,0.760815,-0.306544,-0.247378,-0.104911,0.012708,-0.246616,0.331659,-0.324858,0.06841,-0.008149,0.031737,0.068452,0.143719,0.147872,-0.15529,0.791689,0.725771,0.21369,0.150578,0.017233,-0.107411,0.216022,0.884939,-0.952187,0.186282,-0.046338
-0.013622,0.103045,0.780713,-0.027636,-0.010079,-0.964925,0.260871,-0.102034,0.260087,0.229675,0.772848,-0.322413,-0.24579,-0.098291,0.024528,-0.21402,0.333251,-0.32801,0.066181,-0.007802,0.033701,0.072938,0.158464,0.145468,-0.145529,0.780286,0.724268,0.203414,0.136687,-0.002504,-0.111804,0.22594,0.897044,-0.955357,0.188369,-0.04511
-0.019831,0.101118,0.780886,-0.028535,-0.010849,-0.969861,0.241741,-0.125823,0.256668,0.223341,0.770032,-0.333619,-0.213553,-0.090995,0.039618,-0.177996,0.332637,-0.327661,0.055168,-0.005375,0.03685,0.077233,0.172424,0.154309,-0.141916,0.77586,0.722288,0.182511,0.108867,-0.019244,-0.118235,0.23437,0.9063310000000001,-0.955862,0.188894,-0.046688
-0.026205,0.099053,0.781194,-0.029276,-0.011022,-0.974681,0.2214,-0.149481,0.245004,0.218347,0.752181,-0.336339,-0.167485,-0.082454,0.056186,-0.139744,0.330296,-0.326338,0.042837,-0.001171,0.040704,0.08123,0.183477,0.167985,-0.143587,0.777875,0.724033,0.165015,0.078613,-0.033804,-0.123353,0.242098,0.913955,-0.955118,0.189981,-0.049314
-0.032761,0.096894,0.781503,-0.029987,-0.010604,-0.978983,0.201446,-0.174412,0.224987,0.203818,0.719896,-0.335264,-0.14297,-0.072687,0.072916,-0.102117,0.327629,-0.325296,0.03075,0.003694,0.04437,0.084834,0.189646,0.184403,-0.153019,0.786086,0.736527,0.158629,0.05549,-0.04492,-0.125823,0.247202,0.9192030000000002,-0.952506,0.19161,-0.055153
-0.039539,0.094694,0.78173,-0.030623,-0.009687,-0.982628,0.182787,-0.200098,0.200367,0.182442,0.679157,-0.325326,-0.132101,-0.062317,0.089095,-0.066581,0.325728,-0.325257,0.018616,0.00816,0.047373,0.088013,0.192212,0.197913,-0.163391,0.797458,0.753353,0.16142,0.043837,-0.051746,-0.124998,0.247316,0.922501,-0.945738,0.196567,-0.064974
-0.046623,0.092529,0.781881,-0.030958,-0.008848,-0.985716,0.16531,-0.225794,0.176768,0.164371,0.633146,-0.308006,-0.11853,-0.051315,0.103953,-0.032683,0.323785,-0.325686,0.005774,0.011607,0.049618,0.090892,0.192314,0.205959,-0.170247,0.809512,0.768871,0.169174,0.042108,-0.054984,-0.122532,0.246013,0.924478,-0.936561,0.200381,-0.075042
-0.054017,0.0904,0.781905,-0.031148,-0.007945,-0.988278,0.149244,-0.249569,0.157803,0.156586,0.582764,-0.282685,-0.096652,-0.039541,0.117482,-0.000984,0.321755,-0.327079,-0.006057,0.014213,0.051127,0.093448,0.19123,0.207768,-0.170501,0.820432,0.779211,0.179509,0.04819,-0.054432,-0.119192,0.244413,0.926289,-0.926865,0.203436,-0.085306
-0.061719,0.088351,0.781808,-0.031111,-0.007248,-0.990389,0.134571,-0.269814,0.143089,0.16239,0.526215,-0.250659,-0.068489,-0.026377,0.129019,0.028288,0.317974,-0.329341,-0.014903,0.016286,0.052152,0.09558,0.190336,0.20225,-0.162295,0.827904,0.778956,0.190163,0.056608,-0.049788,-0.115126,0.241679,0.927965,-0.915592,0.206544,-0.094911
-0.06969,0.086337,0.78151,-0.030801,-0.006584,-0.992151,0.121016,-0.287199,0.129083,0.170965,0.465034,-0.213474,-0.056629,-0.012875,0.138592,0.055177,0.31403,-0.333855,-0.018848,0.018562,0.052686,0.097409,0.189613,0.194189,-0.152865,0.830148,0.773966,0.19346,0.060264,-0.042422,-0.112273,0.245398,0.93062,-0.910033,0.208928,-0.09903600000000001
-0.077924,0.084369,0.780978,-0.030103,-0.005697,-0.993604,0.108682,-0.30224,0.114101,0.179065,0.402219,-0.177018,-0.058079,0.000304,0.146842,0.079481,0.31032,-0.340361,-0.018888,0.021422,0.052832,0.098846,0.189168,0.188152,-0.146568,0.824385,0.772004,0.189545,0.058762,-0.033539,-0.110805,0.257885,0.933847,-0.9131800000000002,0.208329,-0.102822
-0.086464,0.082468,0.780262,-0.029108,-0.004496,-0.994836,0.097125,-0.316812,0.093963,0.169575,0.343105,-0.143757,-0.065958,0.013103,0.154538,0.10189,0.307165,-0.347427,-0.018057,0.025899,0.052536,0.099859,0.190898,0.184237,-0.138744,0.806582,0.77047,0.179334,0.054835,-0.02404,-0.110517,0.279704,0.94062,-0.926028,0.206446,-0.10302
-0.095414,0.080644,0.779448,-0.028142,-0.003125,-0.995852,0.086471,-0.329308,0.072225,0.148778,0.289238,-0.112646,-0.079173,0.027711,0.161765,0.122943,0.301982,-0.353484,-0.019129,0.031117,0.051903,0.100313,0.200148,0.180677,-0.125266,0.774891,0.765632,0.165074,0.051173,-0.013132,-0.107248,0.301053,0.950271,-0.937474,0.208038,-0.094627
-0.104852,0.078878,0.778463,-0.027548,-0.001188,-0.996647,0.077037,-0.337297,0.052493,0.124724,0.243186,-0.09251,-0.09060000000000001,0.045152,0.169343,0.142396,0.294441,-0.359231,-0.020832,0.036343,0.051149,0.100378,0.217127,0.182684,-0.107015,0.740235,0.75601,0.14249,0.05917,0.004457,-0.106732,0.318485,0.956693,-0.941423,0.204295,-0.080937
-0.114723,0.077148,0.777252,-0.027203,0.001121,-0.997299,0.068216,-0.341006,0.03608,0.105367,0.207325,-0.084358,-0.09034,0.063009,0.177382,0.161226,0.288563,-0.365795,-0.023238,0.04096,0.050493,0.100275,0.229546,0.180834,-0.093196,0.711369,0.747929,0.128208,0.070363,0.021287,-0.104239,0.335819,0.964002,-0.943425,0.199014,-0.067877
-0.125013,0.075401,0.775819,-0.026788,0.003423,-0.997891,0.059021,-0.341009,0.021716,0.084298,0.183231,-0.08031,-0.088787,0.079336,0.185749,0.181199,0.287213,-0.372881,-0.029571,0.045047,0.049641,0.100077,0.234558,0.180008,-0.084891,0.695178,0.743046,0.117095,0.080748,0.036579,-0.100551,0.360455,0.9716,-0.949076,0.199834,-0.048852
-0.135783,0.07354,0.773992,-0.026545,0.00597,-0.998399,0.049581,-0.336221,0.007392,0.050347,0.170567,-0.080752,-0.085734,0.095563,0.194217,0.201135,0.289123,-0.381666,-0.036327,0.049003,0.048344,0.099442,0.238073,0.184942,-0.081164,0.689511,0.739494,0.109729,0.083672,0.054466,-0.097822,0.37758,0.974517,-0.955847,0.200544,-0.026283
-0.147011,0.071576,0.771538,-0.026153,0.007894,-0.998828,0.039946,-0.326093,-0.008005,0.006869,0.16899,-0.071379,-0.079969,0.114389,0.200356,0.223015,0.286945,-0.388719,-0.0396,0.052066,0.046509,0.097934,0.239805,0.185092,-0.080193,0.692141,0.738936,0.109945,0.083354,0.065859,-0.09718,0.391721,0.978329,-0.963562,0.202081,-0.011129
-0.158291,0.069101,0.771292,-0.025383,0.008305,-0.99921,0.029441,-0.314587,-0.02325,-0.035937,0.174738,-0.036712,-0.041798,0.134872,0.200834,0.2474,0.279545,-0.390517,-0.03558,0.053958,0.043718,0.09525,0.239183,0.181086,-0.080463,0.70273,0.74103,0.116213,0.082939,0.072733,-0.098532,0.403162,0.983118,-0.970982,0.203608,0.001192
-0.170107,0.066308,0.77149,-0.024401,0.008056,-0.999473,0.019844,-0.298503,-0.027708,-0.041081,0.170122,0.009409,-0.009443,0.155003,0.197555,0.269779,0.272827,-0.389833,-0.027817,0.053073,0.040058,0.090778,0.235934,0.174778,-0.081672,0.723139,0.745159,0.125456,0.080211,0.078113,-0.100136,0.402873,0.9841470000000001,-0.9688310000000001,0.204969,0.006567
-0.182669,0.063372,0.77093,-0.023287,0.006789,-0.999643,0.011232,-0.277502,-0.023674,-0.018316,0.166133,0.034444,-0.001989,0.173219,0.191174,0.288658,0.270523,-0.384664,-0.017913,0.050162,0.034608,0.08493,0.230131,0.166128,-0.081925,0.75223,0.751818,0.138247,0.078639,0.081819,-0.103304,0.398359,0.983436,-0.966416,0.211741,0.005688
-0.195187,0.060338,0.772185,-0.021964,0.004671,-0.999742,0.003563,-0.264143,-0.023013,0.001803,0.173904,0.020729,-0.003292,0.185931,0.182736,0.302954,0.27637,-0.374863,-0.006353,0.047393,0.027272,0.078773,0.218836,0.15638,-0.082877,0.790367,0.761577,0.156364,0.074547,0.08482,-0.105189,0.388172,0.978022,-0.961545,0.21769,-0.00273
-0.207785,0.057063,0.77399,-0.021176,0.002205,-0.9997680000000002,-0.003244,-0.24955,-0.02638,0.017429,0.183924,1.6e-05,0.007458,0.19387,0.173624,0.312132,0.292704,-0.362352,0.007058,0.045417,0.018964,0.073117,0.204003,0.14788,-0.086382,0.831979,0.774095,0.169684,0.066734,0.088315,-0.106192,0.372764,0.969348,-0.951328,0.22002,-0.012127
-0.220602,0.05372,0.777763,-0.020732,-5.8e-05,-0.99973,-0.010492,-0.231552,-0.030096,0.032724,0.191107,-0.018261,0.021879,0.199262,0.166405,0.322261,0.318369,-0.346299,0.022506,0.044155,0.010857,0.068122,0.188499,0.140005,-0.09463,0.870002,0.792692,0.18415,0.053883,0.083692,-0.108197,0.362772,0.964361,-0.936063,0.219445,-0.017083
-0.23306,0.050404,0.780172,-0.020629,-0.002276,-0.999605,-0.018941,-0.212808,-0.033433,0.049969,0.196692,-0.037303,0.039221,0.199558,0.160851,0.336496,0.350513,-0.329253,0.039734,0.043616,0.003766,0.063787,0.171934,0.130295,-0.103604,0.893601,0.809277,0.199916,0.039503,0.074791,-0.114616,0.352478,0.956073,-0.920443,0.211148,-0.015809
-0.245214,0.047128,0.781847,-0.020587,-0.004629,-0.9993860000000001,-0.027972,-0.194725,-0.0368,0.068865,0.202336,-0.057313,0.051662,0.194039,0.156857,0.349923,0.39344,-0.314104,0.05593,0.044199,-0.002951,0.060657,0.158531,0.123937,-0.11242,0.906692,0.824629,0.204065,0.033011,0.064401,-0.123641,0.353772,0.943993,-0.91127,0.198686,-0.014247
-0.257083,0.043923,0.783076,-0.02126,-0.006952,-0.999068,-0.036929,-0.174651,-0.040568,0.087672,0.205566,-0.076904,0.060992,0.184278,0.154675,0.361075,0.446585,-0.296195,0.073631,0.045786,-0.009856,0.058606,0.148085,0.11766,-0.11819,0.910484,0.83498,0.200549,0.035029,0.052293,-0.134585,0.362802,0.930347,-0.908016,0.18547,-0.01655
-0.268522,0.040788,0.783853,-0.022516,-0.009644,-0.998652,-0.045772,-0.153781,-0.045567,0.106409,0.207659,-0.096161,0.068357,0.167047,0.154338,0.368759,0.514276,-0.271766,0.094071,0.048162,-0.016973,0.057804,0.140047,0.109743,-0.119803,0.90664,0.838266,0.194077,0.046132,0.039438,-0.145343,0.371498,0.916965,-0.906719,0.180407,-0.021312
-0.279286,0.037585,0.783844,-0.023797,-0.013362,-0.998121,-0.054851,-0.136966,-0.052845,0.126299,0.214865,-0.117534,0.074615,0.137641,0.155793,0.376156,0.602455,-0.240977,0.127071,0.051792,-0.024235,0.058289,0.132181,0.100291,-0.119596,0.898378,0.834977,0.182983,0.057481,0.02646,-0.154881,0.375507,0.902933,-0.904113,0.183351,-0.024155
-0.289227,0.03437,0.782671,-0.024721,-0.019269,-0.997349,-0.065673,-0.128021,-0.063048,0.150392,0.232626,-0.143476,0.080029,0.087783,0.160588,0.386727,0.722905,-0.197427,0.193576,0.057509,-0.031562,0.059984,0.121652,0.089911,-0.11746,0.886999,0.827467,0.172608,0.065031,0.012391,-0.163743,0.373532,0.886425,-0.896434,0.187121,-0.028723
-0.298786,0.031631,0.780454,-0.025989,-0.02632,-0.996228,-0.07849,-0.121118,-0.073944,0.178544,0.253783,-0.172084,0.08421,0.025463,0.171814,0.384013,0.863833,-0.138434,0.24534,0.067008,-0.038608,0.062225,0.109966,0.079942,-0.1156,0.873912,0.819374,0.162116,0.071888,-0.002216,-0.173561,0.371168,0.869536,-0.886069,0.188872,-0.030766
-0.308422,0.028825,0.779796,-0.027218,-0.032396,-0.994716,-0.093539,-0.110159,-0.082429,0.209938,0.266594,-0.196738,0.087655,-0.046433,0.186177,0.342314,1.010725,-0.064532,0.247665,0.082162,-0.044238,0.065163,0.09569200000000001,0.071456,-0.11366,0.86221,0.812033,0.154078,0.081451,-0.016285,-0.182929,0.370975,0.851918,-0.876358,0.188412,-0.033678
-0.318232,0.026539,0.778489,-0.028829,-0.036643,-0.99306,-0.10797,-0.092248,-0.089551,0.238375,0.266219,-0.214818,0.09153,-0.125505,0.183207,0.284898,1.140405,0.023348,0.24775,0.099248,-0.048729,0.068634,0.078518,0.065225,-0.11213,0.855286,0.806908,0.153567,0.094254,-0.026817,-0.189131,0.370682,0.834173,-0.865954,0.187713,-0.038767
-0.328199,0.024899,0.777537,-0.030849,-0.038837,-0.991704,-0.118588,-0.067598,-0.096717,0.25822,0.253336,-0.225938,0.094645,-0.198317,0.166407,0.234267,1.24023,0.109617,0.247747,0.113222,-0.052374,0.072048,0.059142,0.061868,-0.115802,0.853976,0.807042,0.154293,0.111228,-0.032487,-0.192259,0.369512,0.816971,-0.856212,0.190223,-0.046423
-0.337931,0.024086,0.776651,-0.032914,-0.040107,-0.990987,-0.123502,-0.04688,-0.103441,0.267025,0.246881,-0.23786,0.096535,-0.259525,0.143722,0.200024,1.311503,0.164429,0.247742,0.120921,-0.055828,0.075641,0.03882,0.061093,-0.124932,0.85801,0.811862,0.150799,0.135987,-0.031366,-0.194201,0.367008,0.799813,-0.847097,0.194136,-0.054496
-0.347318,0.023948,0.775516,-0.034968,-0.040931,-0.99104,-0.122237,-0.035533,-0.109086,0.265075,0.258341,-0.256512,0.098214,-0.302965,0.13207,0.205472,1.348116,0.109781,0.247735,0.119337,-0.059275,0.078788,0.025686,0.064591,-0.136232,0.870272,0.817704,0.126018,0.17266,-0.020976,-0.196177,0.362931,0.781173,-0.835668,0.193648,-0.064799
-0.356546,0.02433,0.774093,-0.036829,-0.0422,-0.991486,-0.117555,-0.030064,-0.115114,0.256641,0.28123,-0.28006,0.100195,-0.341735,0.104639,0.219161,1.353052,-0.018609,0.247627,0.111156,-0.063126,0.081845,0.007561,0.066075,-0.150106,0.88266,0.821389,0.09498500000000001,0.2009,-0.00792,-0.192914,0.360331,0.768269,-0.822788,0.196707,-0.074433
-0.36605,0.025029,0.772794,-0.038382,-0.043202,-0.992232,-0.110162,-0.020949,-0.122494,0.242566,0.297843,-0.301729,0.102357,-0.378267,0.065137,0.228256,1.324788,-0.122415,0.245116,0.097748,-0.067614,0.084675,-0.004226,0.070237,-0.164341,0.885879,0.820853,0.061867,0.222947,0.003483,-0.192915,0.357869,0.760176,-0.813126,0.198711,-0.078248
-0.375833,0.025965,0.771706,-0.039294,-0.044648,-0.992787,-0.104098,-0.008074,-0.130568,0.229519,0.306887,-0.321018,0.10404,-0.411446,0.026391,0.210855,1.265095,-0.193682,0.203015,0.084375,-0.071923,0.086644,-0.008316,0.07334,-0.175596,0.879614,0.810197,0.029446,0.238721,0.01369,-0.193007,0.355871,0.759741,-0.806809,0.202426,-0.076594
-0.385794,0.026934,0.770969,-0.039179,-0.045774,-0.993245,-0.099167,0.007795,-0.138067,0.217828,0.30715,-0.336703,0.105208,-0.437453,5.1e-05,0.191533,1.17629,-0.24542,0.143072,0.072281,-0.075352,0.087144,-0.006228,0.078675,-0.190098,0.866093,0.796863,0.001221,0.242444,0.022652,-0.191461,0.354324,0.767147,-0.803665,0.207304,-0.073618
-0.395864,0.027936,0.770558,-0.037389,-0.046474,-0.9936910000000002,-0.09498,0.02408,-0.144336,0.206935,0.300149,-0.348764,0.105405,-0.456471,-0.019572,0.173007,1.060797,-0.278025,0.103828,0.062252,-0.076851,0.085786,-0.002302,0.086674,-0.209843,0.851165,0.786205,-0.017262,0.239047,0.02935,-0.187755,0.351069,0.782154,-0.802723,0.217637,-0.073918
-0.405982,0.028982,0.770353,-0.034018,-0.046417,-0.994198,-0.090875,0.039203,-0.148461,0.195903,0.289147,-0.358563,0.104276,-0.46817,-0.033429,0.155378,0.926522,-0.284834,0.085336,0.054097,-0.076308,0.082166,0.001983,0.096009,-0.232063,0.839038,0.778578,-0.026369,0.234896,0.035183,-0.180148,0.34535,0.804735,-0.797093,0.228533,-0.068429
-0.416104,0.030024,0.770235,-0.029328,-0.045689,-0.994765,-0.086576,0.052997,-0.150806,0.18444,0.274935,-0.36635,0.101517,-0.474116,-0.042917,0.138778,0.781195,-0.260746,0.076665,0.047607,-0.074119,0.076502,0.006679,0.103386,-0.252471,0.837209,0.771191,-0.021701,0.222775,0.040179,-0.17348,0.342685,0.831697,-0.790331,0.235381,-0.051864
-0.426269,0.031087,0.770133,-0.023574,-0.044367,-0.995396,-0.081628,0.066176,-0.151936,0.171567,0.256707,-0.370803,0.098878,-0.47227,-0.048685,0.126028,0.628632,-0.216259,0.078627,0.042167,-0.070253,0.069791,0.009434,0.109306,-0.272058,0.843569,0.766802,-0.009916,0.2067,0.043945,-0.170191,0.342089,0.857988,-0.783511,0.239556,-0.022485
-0.436626,0.032361,0.769914,-0.01778,-0.042815,-0.996036,-0.07591,0.080247,-0.152195,0.156919,0.236785,-0.373193,0.097178,-0.461708,-0.048393,0.123792,0.48012,-0.173148,0.087953,0.037048,-0.065075,0.063621,0.009301,0.114099,-0.291815,0.859619,0.768888,0.014025,0.18047,0.048039,-0.169221,0.336067,0.874271,-0.773153,0.244245,0.002027
-0.447242,0.033927,0.769664,-0.012538,-0.040747,-0.996663,-0.069602,0.096876,-0.150789,0.141024,0.215001,-0.373541,0.094038,-0.445065,-0.039587,0.138584,0.355003,-0.129904,0.088796,0.031508,-0.058908,0.058778,0.008491,0.116705,-0.306637,0.880517,0.771612,0.042286,0.154533,0.052396,-0.174735,0.338197,0.877878,-0.776398,0.243128,0.007679
-0.458077,0.035948,0.769296,-0.008004,-0.037975,-0.997233,-0.063411,0.114803,-0.146546,0.125025,0.194742,-0.375497,0.089748,-0.42949,-0.027316,0.16074,0.274562,-0.079551,0.110411,0.026531,-0.0525,0.055373,0.009445,0.119813,-0.318168,0.902628,0.775409,0.067343,0.132745,0.057872,-0.18093,0.341987,0.874531,-0.784233,0.238933,0.000524
-0.469166,0.03857,0.768503,-0.004487,-0.035407,-0.9976910000000001,-0.057778,0.131506,-0.140439,0.110675,0.182081,-0.380363,0.08399,-0.421308,-0.013478,0.179252,0.261418,-0.028917,0.106192,0.021921,-0.04658,0.053049,0.013704,0.124438,-0.327981,0.925487,0.781793,0.09023900000000001,0.112703,0.062808,-0.186102,0.347312,0.871262,-0.79495,0.236687,-0.010645
-0.480381,0.041872,0.768346,-0.001871,-0.032827,-0.998064,-0.05279,0.146693,-0.131701,0.099234,0.177321,-0.386241,0.076145,-0.418208,-0.005139,0.174993,0.276719,0.003714,0.082051,0.019058,-0.040698,0.051531,0.022809,0.129963,-0.333382,0.944215,0.792232,0.115248,0.098082,0.06404,-0.182629,0.347745,0.873609,-0.801813,0.239464,-0.026769
-0.492036,0.045458,0.767538,-9.8e-05,-0.029897,-0.998361,-0.048798,0.162178,-0.12099,0.092179,0.176048,-0.387876,0.066882,-0.415421,0.001946,0.161402,0.302788,0.013258,0.056042,0.01711,-0.033358,0.050663,0.030721,0.135647,-0.334461,0.966727,0.799052,0.136211,0.090956,0.069997,-0.183687,0.337099,0.872919,-0.800683,0.243187,-0.039624
-0.503703,0.049292,0.76852,0.000978,-0.026796,-0.998604,-0.045518,0.17456,-0.108418,0.087324,0.18246,-0.381807,0.055841,-0.412896,0.010237,0.148618,0.33075,-0.000656,0.035672,0.015424,-0.02479,0.050664,0.042801,0.138407,-0.326669,0.986493,0.800033,0.155153,0.087925,0.073583,-0.180423,0.321945,0.874541,-0.796959,0.247724,-0.047878
-0.515331,0.053205,0.770583,0.001724,-0.023885,-0.998839,-0.041793,0.184166,-0.095562,0.082198,0.192765,-0.364409,0.043616,-0.402217,0.016019,0.135329,0.346485,-0.017472,0.023195,0.014244,-0.016686,0.050794,0.056798,0.140584,-0.319361,0.999868,0.802082,0.172186,0.082742,0.077377,-0.178184,0.300811,0.878777,-0.79263,0.2479,-0.054574
-0.527054,0.057279,0.775192,0.002513,-0.021384,-0.999113,-0.0362,0.191802,-0.083105,0.074115,0.207534,-0.33829,0.029888,-0.381077,0.018418,0.120342,0.344615,-0.031485,0.010141,0.01285,-0.009466,0.050083,0.065476,0.142919,-0.314278,1.008736,0.802573,0.180343,0.065794,0.080749,-0.172332,0.277739,0.87925,-0.788658,0.249268,-0.063474
-0.538318,0.061378,0.778795,0.00378,-0.019359,-0.99938,-0.029173,0.192252,-0.070716,0.062957,0.22726,-0.309294,0.014207,-0.355734,0.018215,0.103589,0.330721,-0.043942,0.000296,0.011148,-0.002893,0.048533,0.069333,0.148611,-0.312945,1.009636,0.805018,0.178733,0.048783,0.082351,-0.166318,0.25902,0.877225,-0.789554,0.248319,-0.074042
-0.54924,0.065378,0.781937,0.004387,-0.017869,-0.999601,-0.021415,0.191574,-0.059771,0.049221,0.248761,-0.279436,-0.001558,-0.327792,0.016462,0.08628,0.312596,-0.05549,-0.007301,0.009425,0.003005,0.046094,0.069372,0.157739,-0.318631,1.004751,0.814061,0.171685,0.029379,0.083403,-0.160601,0.245129,0.875255,-0.794021,0.248124,-0.083117
-0.559902,0.069269,0.784686,0.004525,-0.016684,-0.999759,-0.013519,0.189621,-0.050176,0.033079,0.273142,-0.249233,-0.016251,-0.299096,0.014487,0.068912,0.293585,-0.066685,-0.012387,0.007987,0.008264,0.043607,0.068413,0.166762,-0.317209,0.9900350000000001,0.817123,0.159126,0.01669,0.082488,-0.155031,0.236059,0.873001,-0.799188,0.243675,-0.089056
-0.570197,0.073048,0.786864,0.004529,-0.015885,-0.999846,-0.005939,0.18432,-0.041957,0.01751,0.303418,-0.222014,-0.027529,-0.273682,0.01283,0.052311,0.279628,-0.079746,-0.015633,0.007132,0.01294,0.041587,0.067534,0.174021,-0.303244,0.966677,0.810384,0.146769,0.00872,0.077809,-0.1512,0.233555,0.872844,-0.806588,0.235577,-0.088747
-0.580057,0.076748,0.788377,0.004184,-0.015116,-0.999876,0.001016,0.17527,-0.033805,0.004942,0.341672,-0.199778,-0.038561,-0.253114,0.012585,0.036885,0.274434,-0.09549800000000001,-0.019363,0.006973,0.017172,0.04028,0.066617,0.177779,-0.275644,0.9358550000000002,0.794681,0.138877,0.010189,0.068952,-0.147958,0.234344,0.874915,-0.814698,0.228759,-0.086357
-0.589486,0.080393,0.789383,0.003498,-0.014274,-0.999865,0.007289,0.161367,-0.026004,-0.00616,0.389428,-0.177979,-0.046113,-0.236612,0.013879,0.022768,0.276616,-0.112752,-0.025005,0.007668,0.021091,0.039647,0.067413,0.175301,-0.235227,0.897083,0.773789,0.136083,0.023671,0.054893,-0.143659,0.237386,0.88007,-0.823997,0.226576,-0.082415
-0.598487,0.084006,0.790029,0.002728,-0.013197,-0.999818,0.013471,0.138938,-0.018398,-0.017362,0.451348,-0.153101,-0.052077,-0.222596,0.016344,0.008839,0.282286,-0.129791,-0.032037,0.009165,0.024749,0.039587,0.064751,0.168326,-0.19192,0.859277,0.754037,0.139303,0.047563,0.042471,-0.139714,0.239097,0.881574,-0.832376,0.226881,-0.078064
-0.607089,0.087578,0.790415,0.00138,-0.0118,-0.999725,0.020201,0.108166,-0.010691,-0.028916,0.526882,-0.120351,-0.059159,-0.207265,0.019523,-0.005993,0.286312,-0.145209,-0.039689,0.011062,0.028167,0.039893,0.053699,0.159622,-0.154841,0.831137,0.737067,0.141753,0.075542,0.036359,-0.133032,0.237086,0.871582,-0.835533,0.232954,-0.078371
-0.615337,0.091063,0.790532,-0.000401,-0.010472,-0.999565,0.027571,0.068039,-0.004499,-0.042937,0.615129,-0.073789,-0.073568,-0.189648,0.02253,-0.02181,0.286492,-0.159065,-0.047106,0.013049,0.031175,0.040491,0.042616,0.152424,-0.131125,0.805299,0.728341,0.13937,0.10322,0.033648,-0.126383,0.227347,0.859581,-0.831091,0.235526,-0.084754
-0.623198,0.094313,0.790133,-0.002089,-0.008792,-0.999312,0.035971,0.015981,-0.00037,-0.061542,0.718334,-0.016131,-0.104191,-0.17185,0.025667,-0.039246,0.284751,-0.172002,-0.05404,0.014438,0.033518,0.042173,0.030747,0.149251,-0.121347,0.780919,0.727463,0.134299,0.120548,0.032774,-0.119598,0.213562,0.846304,-0.821392,0.235362,-0.093524
-0.630687,0.097266,0.789706,-0.00399,-0.007749,-0.99897,0.044519,-0.041345,-0.000964,-0.08291,0.823042,0.05402,-0.150245,-0.152462,0.027731,-0.056231,0.279484,-0.183028,-0.060684,0.014544,0.035046,0.044682,0.020714,0.148969,-0.12286,0.758335,0.732953,0.126888,0.123493,0.031481,-0.115743,0.204304,0.835173,-0.813702,0.232151,-0.101299
-0.638249,0.099771,0.791322,-0.006257,-0.007783,-0.998611,0.051724,-0.098784,-0.004922,-0.098272,0.925523,0.130374,-0.191953,-0.132617,0.028302,-0.07001,0.274401,-0.19297,-0.067001,0.013572,0.035753,0.04783,0.016225,0.147684,-0.12453,0.736169,0.736795,0.117782,0.122991,0.027798,-0.116511,0.204531,0.82957,-0.812631,0.227563,-0.10625
-0.64559,0.101819,0.791559,-0.008645,-0.008513,-0.998294,0.05711,-0.154738,-0.004357,-0.099049,1.016446,0.19695,-0.223213,-0.113604,0.028591,-0.079985,0.269417,-0.202645,-0.072579,0.01213,0.035661,0.0514,0.018287,0.144076,-0.122869,0.713829,0.735737,0.109797,0.122222,0.020895,-0.120517,0.21424,0.831115,-0.817629,0.224842,-0.10399
-0.652708,0.10334,0.791289,-0.011041,-0.009237,-0.998074,0.060341,-0.205842,0.011084,-0.080016,1.095914,0.240006,-0.238094,-0.096827,0.029622,-0.085817,0.267211,-0.212901,-0.077122,0.011073,0.035184,0.055472,0.026576,0.140545,-0.120981,0.693667,0.734517,0.10317,0.123858,0.010631,-0.125381,0.229208,0.839304,-0.824519,0.225845,-0.097594
-0.659689,0.104264,0.790721,-0.013696,-0.009626,-0.998009,0.060806,-0.248013,0.038057,-0.050099,1.161861,0.239757,-0.236395,-0.082278,0.031799,-0.086758,0.26974,-0.225222,-0.08029,0.012141,0.034969,0.059904,0.039393,0.136378,-0.11863,0.680729,0.733817,0.099022,0.127145,-0.001419,-0.129725,0.246819,0.85172,-0.831542,0.228779,-0.090178
-0.666515,0.104669,0.789885,-0.015899,-0.009358000000000002,-0.998044,0.059723,-0.282816,0.062906,-0.020708,1.20483,0.172781,-0.207549,-0.072039,0.034943,-0.084999,0.278655,-0.240344,-0.082436,0.015871,0.035604,0.064162,0.053249,0.131835,-0.11502,0.677834,0.730288,0.094599,0.12812,-0.011573,-0.131715,0.260317,0.863479,-0.830794,0.230476,-0.077767
-0.67327,0.104677,0.788826,-0.017286,-0.008196,-0.998079,0.058922,-0.313785,0.081807,0.007322,1.219799,0.073977,-0.155126,-0.065277,0.038897,-0.083703,0.291597,-0.257531,-0.084099,0.021159,0.036895,0.067547,0.064203,0.133464,-0.11477,0.690991,0.731017,0.095462,0.122005,-0.011877,-0.128398,0.260209,0.865267,-0.820117,0.231632,-0.068379
-0.68017,0.1044,0.787748,-0.017728,-0.006938,-0.998117,0.058307,-0.341069,0.09413,0.033197,1.202805,-0.016018,-0.117071,-0.059092,0.042643,-0.082654,0.302977,-0.274501,-0.085425,0.026867,0.038423,0.069794,0.070825,0.131826,-0.117042,0.715703,0.7352,0.104114,0.110471,-0.009414,-0.123275,0.256271,0.859385,-0.800446,0.231441,-0.065928
-0.68731,0.103849,0.786653,-0.017256,-0.005531,-0.998145,0.05813,-0.364514,0.096108,0.051328,1.153597,-0.095857,-0.091646,-0.053418,0.046101,-0.082281,0.312923,-0.291278,-0.086268,0.032292,0.039844,0.071156,0.074695,0.124568,-0.119381,0.745789,0.743598,0.120032,0.100005,-0.008315,-0.121039,0.256712,0.852304,-0.770746,0.22636,-0.068919
-0.694717,0.102995,0.785372,-0.016214,-0.003046,-0.99815,0.058511,-0.384736,0.09243100000000001,0.062641,1.076153,-0.169377,-0.065285,-0.04939,0.050778,-0.083387,0.324789,-0.3094,-0.086714,0.03689,0.04134,0.071941,0.081973,0.121712,-0.121564,0.777706,0.754399,0.140178,0.088384,-0.002243,-0.123023,0.258561,0.845758,-0.741788,0.208635,-0.075914
-0.702487,0.101903,0.784065,-0.01427,-0.000339,-0.998146,0.059159,-0.401135,0.090899,0.074317,0.974336,-0.217593,-0.048323,-0.045975,0.05555,-0.084988,0.335323,-0.327273,-0.086913,0.040279,0.042891,0.072137,0.087134,0.119697,-0.123981,0.813075,0.766684,0.158024,0.08043,0.004068,-0.12366,0.266357,0.838194,-0.716095,0.193004,-0.083713
-0.710717,0.100533,0.782896,-0.011452,0.002123,-0.998187,0.05905,-0.410981,0.090759,0.087935,0.850206,-0.23766,-0.032331,-0.04109,0.060031,-0.085024,0.340323,-0.342651,-0.086786,0.043041,0.044274,0.071672,0.093771,0.11776,-0.12732,0.848492,0.780595,0.174623,0.071615,0.008283,-0.124952,0.279723,0.833307,-0.6953,0.184488,-0.086846
-0.719437,0.098821,0.781827,-0.008149,0.004142,-0.998271,0.058062,-0.415728,0.087175,0.094629,0.713195,-0.231966,-0.013182,-0.034088,0.063679,-0.082932,0.340296,-0.355889,-0.086066,0.045842,0.044987,0.070739,0.099535,0.114512,-0.130015,0.881562,0.791313,0.188081,0.054382,0.01077,-0.125249,0.294436,0.832045,-0.684617,0.180817,-0.084494
-0.728684,0.09676,0.780799,-0.004808,0.00561,-0.998404,0.055999,-0.414731,0.079478,0.092072,0.569431,-0.195669,-0.006983,-0.024336,0.066376,-0.078235,0.335818,-0.367554,-0.084772,0.048767,0.044729,0.069327,0.113181,0.110625,-0.126911,0.904595,0.797229,0.191745,0.042211,0.009231,-0.12691,0.313353,0.836244,-0.679767,0.181008,-0.077313
-0.738495,0.094365,0.779725,-0.001751,0.006582,-0.998586,0.052723,-0.408107,0.068519,0.075841,0.42698,-0.137527,-0.020483,-0.011404,0.068238,-0.070748,0.32724,-0.377368,-0.082957,0.051696,0.043197,0.0679,0.130944,0.103597,-0.109926,0.917775,0.790854,0.197105,0.037922,0.005695,-0.127988,0.333685,0.843115,-0.679333,0.185293,-0.070412
-0.748976,0.091653,0.778416,0.000679,0.007069,-0.998828,0.047867,-0.395538,0.05039,0.032666,0.296864,-0.083144,-0.035635,0.004065,0.069301,-0.060137,0.317718,-0.386426,-0.080734,0.055753,0.040513,0.066592,0.151062,0.094172,-0.080228,0.921155,0.771223,0.19922,0.04384,0.001511,-0.127881,0.352837,0.85065,-0.680188,0.191616,-0.063356
-0.760242,0.088558,0.776498,0.001834,0.00785,-0.999072,0.042301,-0.381579,0.037088,-0.012922,0.204794,-0.063915,-0.045964,0.02207,0.070482,-0.048112,0.311051,-0.398984,-0.077927,0.059858,0.03749,0.065456,0.17103,0.088471,-0.056242,0.920094,0.75805,0.200879,0.052511,-0.00155,-0.127093,0.370256,0.857098,-0.681472,0.194583,-0.055044
-0.772245,0.084999,0.77374,0.001201,0.0087,-0.9992470000000001,0.037787,-0.368932,0.033838,-0.023694,0.168815,-0.052928,-0.062018,0.045205,0.070511,-0.037459,0.303909,-0.412185,-0.073951,0.062339,0.034808,0.0645,0.186702,0.08853,-0.050774,0.919239,0.765192,0.199935,0.057139,-0.001633,-0.126182,0.381015,0.861612,-0.679852,0.194259,-0.050308
-0.784547,0.080987,0.773172,-0.000482,0.007386,-0.9994170000000001,0.033341,-0.350943,0.029519,-0.020637,0.166851,-0.010699,-0.063427,0.073925,0.064576,-0.027046,0.291339,-0.421033,-0.068568,0.064687,0.031505,0.063092,0.195716,0.089227,-0.056721,0.92324,0.783335,0.199037,0.051514,0.002604,-0.127883,0.385268,0.862809,-0.676623,0.189368,-0.049639
-0.797761,0.076365,0.773178,-0.003637,0.004029,-0.9995790000000001,0.028499,-0.327287,0.019947,-0.013282,0.169195,0.025193,-0.039125,0.107394,0.052381,-0.017208,0.277962,-0.426202,-0.061781,0.067525,0.026415,0.061664,0.199873,0.086652,-0.058942,0.928839,0.798558,0.199383,0.045899,0.010548,-0.132,0.385166,0.86228,-0.674958,0.182742,-0.051618
-0.811677,0.071383,0.772506,-0.007398,-0.000835,-0.999663,0.024859,-0.297942,0.007105,-0.001375,0.173422,0.032884,-0.022603,0.139079,0.035346,-0.010802,0.272388,-0.424842,-0.054553,0.07018,0.018139,0.060234,0.198609,0.081634,-0.056426,0.935043,0.810427,0.206585,0.039064,0.022153,-0.135502,0.378459,0.860976,-0.67404,0.181825,-0.058625
-0.825605,0.066259,0.773679,-0.01161,-0.006437,-0.999652,0.022802,-0.269164,-0.008183,0.010973,0.179267,0.01481,-0.015668,0.162911,0.015203,-0.008772,0.283378,-0.411559,-0.046555,0.07237,0.007139,0.05867,0.193191,0.0764,-0.047981,0.937466,0.818131,0.21009,0.042133,0.035825,-0.136608,0.367161,0.860707,-0.674103,0.188517,-0.068223
-0.83935,0.061315,0.775663,-0.015776,-0.011262,-0.999576,0.021724,-0.2375,-0.022565,0.020803,0.180103,-0.007109,-0.011822,0.180167,-0.003379,-0.009711,0.304602,-0.386613,-0.039795,0.074343,-0.004556,0.056636,0.185065,0.072209,-0.035194,0.936186,0.821647,0.212571,0.051085,0.050133,-0.134786,0.358041,0.86279,-0.677016,0.196963,-0.077262
-0.852972,0.056579,0.780057,-0.018173,-0.014828,-0.999522,0.020142,-0.206996,-0.034534,0.02894,0.176057,-0.024431,-0.005063,0.190177,-0.018386,-0.008312,0.332978,-0.353965,-0.032616,0.076586,-0.014663,0.053481,0.17343,0.068838,-0.025148,0.929175,0.825763,0.213679,0.058678,0.053377,-0.133923,0.363713,0.874485,-0.684314,0.209072,-0.079369
-0.865861,0.052089,0.782988,-0.019487,-0.017302,-0.999509,0.017381,-0.179761,-0.044289,0.036979,0.169962,-0.037755,0.008435,0.191585,-0.030172,-9.700000000000001e-05,0.365328,-0.318902,-0.022908,0.078808,-0.022311,0.049198,0.161538,0.065278,-0.012841,0.9135160000000001,0.824077,0.206418,0.070932,0.052444,-0.140153,0.385626,0.884371,-0.702614,0.215372,-0.068451
-0.878276,0.047975,0.785091,-0.02074,-0.018802,-0.999495,0.015025,-0.157218,-0.052247,0.043246,0.169596,-0.051889,0.024778,0.190955,-0.038702,0.009513,0.39955,-0.285106,-0.010503,0.080503,-0.028545,0.044283,0.151227,0.061354,-0.002432,0.895255,0.819048,0.196713,0.081888,0.0485,-0.152513,0.419147,0.892504,-0.728419,0.211641,-0.050822
-0.89025,0.044151,0.786501,-0.021531,-0.019713,-0.999477,0.013928,-0.140879,-0.059392,0.047045,0.176844,-0.069499,0.038483,0.187995,-0.045206,0.017555,0.435502,-0.252878,0.003023,0.080838,-0.034325,0.039434,0.142352,0.061074,0.0043,0.884091,0.811849,0.172687,0.096752,0.047101,-0.165611,0.455202,0.89806,-0.753638,0.208173,-0.037766
-0.901921,0.04044,0.78732,-0.021861,-0.020385,-0.999458,0.013828,-0.128351,-0.06671,0.048007,0.188472,-0.090067,0.048919,0.181999,-0.051166,0.023274,0.475147,-0.221512,0.01787,0.079936,-0.040001,0.0352,0.12173,0.057968,0.000482,0.876987,0.806976,0.152338,0.109585,0.045326,-0.178784,0.476956,0.896999,-0.775894,0.21385,-0.026747
-0.9133730000000002,0.036827,0.78769,-0.022603,-0.021199,-0.999421,0.014025,-0.115416,-0.074404,0.047397,0.200738,-0.111858,0.056469,0.17199,-0.057057,0.028065,0.522327,-0.18768,0.031525,0.078447,-0.045421,0.031772,0.102213,0.061094,-0.013015,0.871242,0.806562,0.1316,0.115984,0.041473,-0.18543,0.481011,0.898157,-0.787679,0.225291,-0.021779
-0.924599,0.033282,0.787651,-0.024134,-0.021898,-0.999364,0.014464,-0.100115,-0.081935,0.045799,0.210975,-0.132825,0.062512,0.156042,-0.061974,0.034112,0.580937,-0.149344,0.047947,0.076956,-0.050125,0.029495,0.085218,0.070687,-0.034261,0.86451,0.812667,0.116336,0.116699,0.036019,-0.181813,0.463266,0.906338,-0.780885,0.241336,-0.032946
-0.9356080000000001,0.029756,0.787237,-0.026341,-0.021734,-0.9992970000000002,0.015466,-0.082159,-0.088061,0.042895,0.217936,-0.152223,0.067638,0.134507,-0.064685,0.04167,0.648522,-0.103353,0.075455,0.075613,-0.053518,0.028239,0.06376,0.078016,-0.057579,0.862106,0.821495,0.113084,0.11417,0.035594,-0.173281,0.435059,0.910662,-0.766468,0.257687,-0.052486
-0.94628,0.026313,0.786356,-0.028835,-0.020982,-0.999218,0.017084,-0.064735,-0.093062,0.038964,0.226012,-0.171778,0.072108,0.106232,-0.065128,0.050305,0.725044,-0.052598,0.108683,0.07432,-0.055331,0.028001,0.042062,0.08307,-0.080199,0.862995,0.82919,0.112188,0.112062,0.036841,-0.165396,0.408965,0.909182,-0.752173,0.26435,-0.06734
-0.956564,0.022975,0.785431,-0.031276,-0.019424,-0.999138,0.019197,-0.048039,-0.096343,0.034051,0.234493,-0.191224,0.075803,0.072351,-0.063654,0.057709,0.8064,0.003556,0.14711,0.073019,-0.055771,0.028651,0.021728,0.085386,-0.099238,0.864365,0.831469,0.11066,0.111521,0.038339,-0.161146,0.389214,0.901299,-0.743985,0.262368,-0.075988
-0.966781,0.019916,0.786391,-0.033958,-0.017818,-0.999046,0.020915,-0.031273,-0.098506,0.03,0.243891,-0.210297,0.078737,0.030281,-0.06257,0.062147,0.899616,0.064886,0.173969,0.071745,-0.055607,0.030575,0.004777,0.086372,-0.11687,0.865977,0.829913,0.108845,0.111138,0.040075,-0.160307,0.375754,0.888159,-0.742712,0.25416,-0.078005
-0.976614,0.016986,0.786137,-0.036769,-0.016242,-0.998959,0.021545,-0.011463,-0.099898,0.028027,0.246719,-0.226687,0.080979,-0.020902,-0.065995,0.058964,0.9957760000000001,0.127116,0.196951,0.070574,-0.055611,0.033416,-0.007968,0.088798,-0.135975,0.866433,0.827806,0.104259,0.111964,0.042393,-0.16038,0.363492,0.870124,-0.744893,0.243864,-0.078394
-0.98608,0.014227,0.785454,-0.039339,-0.015196,-0.998879,0.021488,0.009606000000000002,-0.101799,0.027564,0.245156,-0.241034,0.082774,-0.075272,-0.079026,0.047676,1.089058,0.178587,0.217825,0.069061,-0.056275,0.037045,-0.014901,0.09332,-0.156022,0.86341,0.824799,0.097605,0.11363,0.044652,-0.15998,0.350987,0.850082,-0.748982,0.234083,-0.080144
-0.995115,0.011743,0.784439,-0.041474,-0.015495,-0.998798,0.021011,0.027782,-0.105701,0.02862,0.246196,-0.254726,0.084121,-0.130221,-0.097303,0.03699,1.172643,0.198927,0.23858,0.066917,-0.058063,0.041137,-0.015106,0.098785,-0.176394,0.857712,0.820906,0.089024,0.118222,0.046233,-0.159157,0.337938,0.829516,-0.753954,0.227026,-0.084747
-1.003813,0.009580000000000002,0.783071,-0.042971,-0.017063,-0.998721,0.020488,0.039673,-0.111495,0.030716,0.256225,-0.271455,0.085225,-0.181798,-0.104274,0.037472,1.232181,0.127048,0.223266,0.064742,-0.060994,0.045265,-0.010399,0.103076,-0.192699,0.854396,0.811926,0.082773,0.124034,0.049128,-0.15813,0.324523,0.810257,-0.757483,0.220696,-0.088333
-1.012486,0.007681,0.781623,-0.044171,-0.018686,-0.998647,0.020075,0.048909,-0.116998,0.032898,0.270426,-0.289231,0.085757,-0.228334,-0.10792,0.037973,1.25849,0.012054,0.184936,0.063168,-0.064079,0.049122,-0.003023,0.106957,-0.207703,0.856327,0.804023,0.082181,0.125866,0.054532,-0.157076,0.313683,0.794384,-0.763043,0.21843,-0.08926
-1.021289,0.006018,0.78036,-0.045057,-0.020183,-0.998567,0.020653,0.057906,-0.122071,0.033566,0.283866,-0.304379,0.085215,-0.269523,-0.118592,0.030575,1.249761,-0.074214,0.149503,0.061474,-0.067033,0.052682,0.009573000000000002,0.109529,-0.219,0.86111,0.799959,0.087915,0.126882,0.058984,-0.149644,0.305759,0.78588,-0.767558,0.2169,-0.095615
-1.030258,0.004506,0.779485,-0.045365,-0.020904,-0.9984980000000001,0.022518,0.069067,-0.125944,0.031411,0.290599,-0.314916,0.084255,-0.303776,-0.128524,0.018654,1.204643,-0.131897,0.106864,0.058796,-0.06973,0.055538,0.01817,0.113098,-0.230744,0.875694,0.795334,0.097292,0.122762,0.070257,-0.153466,0.295243,0.772397,-0.769318,0.206782,-0.095999
-1.03933,0.003281,0.778697,-0.044775,-0.022145,-0.998443,0.024823,0.078743,-0.130255,0.028212,0.297251,-0.326186,0.083298,-0.333267,-0.135538,0.007329,1.130824,-0.185599,0.073826,0.055347,-0.072095,0.057866,0.028724,0.114791,-0.241104,0.893102,0.791708,0.107712,0.119934,0.080333,-0.15435,0.280702,0.763066,-0.768649,0.202966,-0.108175
-1.048557,0.002149,0.778234,-0.043493,-0.022215,-0.998432,0.027349,0.09157100000000001,-0.132307,0.02342,0.295353,-0.334378,0.082132,-0.354839,-0.134485,-0.002416,1.031325,-0.223263,0.046463,0.051928,-0.073942,0.059127,0.040594,0.118695,-0.253272,0.912544,0.793049,0.118337,0.114313,0.09007,-0.148978,0.258955,0.757348,-0.757537,0.199841,-0.129292
-1.057867,0.001122,0.777861,-0.041937,-0.021984,-0.9984440000000001,0.029447,0.106615,-0.133398,0.018613,0.288137,-0.340606,0.081301,-0.370918,-0.129015,-0.011061,0.9179250000000002,-0.239579,0.029339,0.048585,-0.07497,0.059817,0.055361,0.12339,-0.263934,0.931777,0.795704,0.129133,0.107371,0.098415,-0.141508,0.234474,0.757024,-0.73825,0.200684,-0.144189
-1.067157,0.000137,0.777432,-0.039829,-0.021474,-0.998482,0.03141,0.122474,-0.133886,0.013592,0.27628,-0.344377,0.08119,-0.38324,-0.118609,-0.017138,0.798702,-0.235807,0.026533,0.04516,-0.075397,0.060097,0.075129,0.128562,-0.271847,0.945547,0.7972,0.139711,0.099895,0.103232,-0.137727,0.209646,0.761871,-0.715643,0.201108,-0.143383
-1.076468,-0.000797,0.776799,-0.037198,-0.021028,-0.9985250000000001,0.033488,0.138099,-0.13438,0.008184,0.262432,-0.346962,0.081527,-0.391454,-0.104717,-0.018964,0.677332,-0.217555,0.034347,0.042149,-0.075319,0.059986,0.088774,0.129916,-0.279325,0.955269,0.798816,0.155772,0.091572,0.103891,-0.131901,0.1912,0.769789,-0.69668,0.204298,-0.140063
-1.08588,-0.001699,0.776006,-0.034244,-0.020406,-0.99857,0.035618,0.155027,-0.134446,0.002216,0.244479,-0.347176,0.082003,-0.395113,-0.091995,-0.021693,0.557311,-0.188723,0.054612,0.039978,-0.074629,0.059408,0.105098,0.135908,-0.285797,0.965117,0.800258,0.163333,0.087219,0.105504,-0.1302,0.181875,0.775064,-0.682815,0.203509,-0.135735
-1.095534,-0.002529,0.774949,-0.031427,-0.020176,-0.998563,0.038439,0.17287,-0.135054,-0.00505,0.225956,-0.346801,0.082393,-0.394192,-0.07657,-0.013569,0.446738,-0.161496,0.062158,0.03798,-0.073232,0.058583,0.120919,0.143339,-0.290137,0.974927,0.800612,0.168166,0.082949,0.108861,-0.132347,0.180599,0.777536,-0.677029,0.201439,-0.131813
-1.105577,-0.003291,0.773587,-0.029298,-0.020311,-0.998486,0.041883,0.192422,-0.136158,-0.013717,0.208168,-0.34664,0.082566,-0.388903,-0.060509,0.005629,0.354072,-0.137674,0.067477,0.036195,-0.071357,0.057707,0.134903,0.150694,-0.294101,0.984796,0.802285,0.174256,0.075619,0.113583,-0.136277,0.183131,0.779693,-0.676359,0.200274,-0.1261
-1.116117,-0.003885,0.771783,-0.02788,-0.021096,-0.998314,0.046339,0.211545,-0.137858,-0.023769,0.195935,-0.347355,0.081851,-0.380607,-0.0484,0.025816,0.288948,-0.121669,0.082189,0.035454,-0.069335,0.056945,0.145774,0.156954,-0.296455,0.9931930000000002,0.804105,0.180525,0.069306,0.119785,-0.140729,0.184824,0.781385,-0.676935,0.198452,-0.121066
-1.127151,-0.004262,0.769116,-0.027012,-0.022932,-0.998034,0.05169,0.230526,-0.140748,-0.034883,0.187832,-0.349551,0.080101,-0.372412,-0.042856,0.037574,0.261828,-0.105826,0.091453,0.035652,-0.067396,0.05614,0.154193,0.161857,-0.295482,0.998623,0.804084,0.183399,0.069832,0.127075,-0.144855,0.18311,0.783267,-0.676613,0.200159,-0.114614
-1.138087,-0.004084,0.76817,-0.026415,-0.024162,-0.997662,0.05822,0.248996,-0.140869,-0.04743,0.180401,-0.34975,0.076693,-0.368438,-0.038366,0.049078,0.273847,-0.068219,0.074695,0.035482,-0.065023,0.054571,0.160021,0.166219,-0.292505,1.003587,0.803347,0.186263,0.067722,0.132635,-0.146995,0.181264,0.788438,-0.679059,0.20813,-0.108635
-1.149669,-0.003662,0.767723,-0.025578,-0.024695,-0.997239,0.065189,0.267524,-0.138066,-0.060358,0.172867,-0.346544,0.071411,-0.365856,-0.034858,0.054322,0.294626,-0.028558,0.047229,0.035656,-0.061814,0.051313,0.162287,0.170282,-0.286999,1.005701,0.802303,0.18984,0.068263,0.134772,-0.148262,0.182713,0.798221,-0.686994,0.216259,-0.103409
-1.161909,-0.003072,0.767024,-0.025,-0.024077,-0.9968070000000001,0.071907,0.286618,-0.131721,-0.072415,0.165951,-0.337339,0.064879,-0.35699,-0.035227,0.04455,0.313134,-0.00516,0.021956,0.037193,-0.057199,0.046246,0.162226,0.17338,-0.281232,1.006107,0.802538,0.195393,0.072229,0.134496,-0.146946,0.184816,0.814707,-0.697579,0.224369,-0.099014
-1.174251,-0.00214,0.768423,-0.024341,-0.02289,-0.9963860000000001,0.078098,0.300015,-0.122908,-0.082301,0.168524,-0.323249,0.054621,-0.350066,-0.035987,0.030574,0.335951,-0.023055,0.016238,0.038869,-0.050951,0.039978,0.160548,0.172384,-0.272008,1.003825,0.800711,0.201717,0.077691,0.130476,-0.145248,0.186664,0.837406,-0.710966,0.233577,-0.093844
-1.187214,-0.001023,0.77275,-0.02281,-0.021415,-0.996047,0.083137,0.310283,-0.112936,-0.089527,0.179802,-0.303905,0.037748,-0.33723,-0.034824,0.01733,0.349149,-0.044253,0.008358,0.039403,-0.043503,0.0324,0.159988,0.165897,-0.257364,0.996019,0.793562,0.20306,0.081374,0.120723,-0.144469,0.190806,0.866044,-0.731062,0.250827,-0.085263
-1.19993,0.000287,0.77598,-0.021082,-0.019225,-0.995673,0.088442,0.316113,-0.100432,-0.098792,0.189297,-0.278808,0.014532,-0.317261,-0.031446,0.003807,0.345698,-0.058534,-0.005545,0.038408,-0.036049,0.024114,0.159895,0.157976,-0.239681,0.982394,0.782342,0.204033,0.082635,0.109248,-0.142519,0.196771,0.891595,-0.754979,0.266593,-0.073841
-1.212495,0.001637,0.778919,-0.019111,-0.016641,-0.995192,0.094604,0.320234,-0.086595,-0.111399,0.197735,-0.250917,-0.01362,-0.293851,-0.027587,-0.011184,0.333301,-0.068236,-0.018195,0.036086,-0.028929,0.016037,0.159871,0.151579,-0.226098,0.9604490000000001,0.76947,0.194176,0.081311,0.099873,-0.138605,0.198599,0.907365,-0.775614,0.27583,-0.062117
-1.224872,0.00294,0.781517,-0.016819,-0.014119,-0.994658,0.100867,0.324579,-0.073036,-0.129024,0.202794,-0.222971,-0.046313,-0.270797,-0.02417,-0.026846,0.318938,-0.076985,-0.025568,0.032993,-0.021778,0.008391,0.162379,0.158145,-0.223823,0.932576,0.76141,0.164717,0.072298,0.096897,-0.136727,0.18956,0.907727,-0.790316,0.272919,-0.060337
-1.237106,0.004279,0.783725,-0.014464,-0.011362,-0.994037,0.10748,0.329554,-0.058878,-0.152589,0.205252,-0.195506,-0.084124,-0.248286,-0.020359,-0.043711,0.30464,-0.086661,-0.029974,0.029574,-0.01477,0.000912,0.160789,0.165318,-0.231727,0.897369,0.763962,0.140269,0.067168,0.092701,-0.125686,0.176455,0.902669,-0.797617,0.26726,-0.069009
-1.249207,0.005729,0.785573,-0.012093,-0.008476,-0.99329,0.114701,0.33354,-0.044305,-0.182016,0.208578,-0.16842,-0.127111,-0.226948,-0.01598,-0.061474,0.292029,-0.097518,-0.033646,0.025982,-0.008257,-0.006451,0.15521,0.17345,-0.242126,0.860688,0.766697,0.120515,0.063657,0.091029,-0.114588,0.160763,0.89184,-0.796542,0.254431,-0.07825
-1.261171,0.007306,0.787156,-0.009766,-0.005759,-0.992397,0.122555,0.334566,-0.030678,-0.219449,0.216564,-0.140646,-0.175974,-0.207033,-0.011374,-0.07975,0.282022,-0.109533,-0.038011,0.022382,-0.002685,-0.013496,0.147177,0.180802,-0.251551,0.826438,0.767339,0.107556,0.063539,0.090371,-0.105813,0.149205,0.87955,-0.795609,0.238544,-0.08917
-1.27301,0.008931,0.788625,-0.007598,-0.004018,-0.991384,0.130709,0.331036,-0.020891,-0.258834,0.233054,-0.106515,-0.220019,-0.18878,-0.008004,-0.097366,0.275944,-0.123637,-0.042379,0.018759,0.001324,-0.019909,0.137847,0.181697,-0.255079,0.796403,0.7609,0.104964,0.06682,0.088351,-0.099339,0.146319,0.869931,-0.795108,0.227307,-0.099993
-1.284525,0.010341,0.789875,-0.005745,-0.003457,-0.990318,0.138659,0.323583,-0.019031,-0.295433,0.259271,-0.070113,-0.244947,-0.172941,-0.006676,-0.113383,0.274887,-0.139937,-0.046134,0.0154,0.003289,-0.025391,0.122146,0.182003,-0.254779,0.779325,0.74832,0.102756,0.070227,0.087881,-0.09593,0.151942,0.861537,-0.799047,0.225347,-0.10184
-1.295563,0.011414,0.790817,-0.004074,-0.004277,-0.989291,0.145836,0.309708,-0.027058,-0.316054,0.300788,-0.033543,-0.247586,-0.160023,-0.007662,-0.126971,0.278201,-0.157494,-0.049516,0.012128,0.002932,-0.029398,0.110693,0.182112,-0.251814,0.764315,0.735862,0.101023,0.076666,0.0831,-0.09215400000000001,0.160884,0.858643,-0.803929,0.227626,-0.095912
-1.306081,0.012338,0.791331,-0.00275,-0.006225,-0.98854,0.150807,0.287316,-0.03988,-0.32156,0.35998,0.000616,-0.247721,-0.148938,-0.00961,-0.136542,0.283659,-0.175183,-0.052891,0.009694,0.001029,-0.031563,0.102834,0.182004,-0.245212,0.750707,0.72501,0.103855,0.086787,0.073646,-0.089211,0.175122,0.860635,-0.811765,0.228616,-0.088846
-1.316166,0.013093,0.791536,-0.002002,-0.00915,-0.987997,0.154186,0.254125,-0.057727,-0.315429,0.439681,0.040144,-0.247727,-0.136415,-0.012011,-0.142316,0.286857,-0.191776,-0.056371,0.008676,-0.002049,-0.031645,0.098455,0.180825,-0.236582,0.738783,0.716249,0.109908,0.096417,0.060515,-0.087976,0.195043,0.867054,-0.821839,0.228,-0.080357
-1.325583,0.013692,0.791419,-0.002091,-0.011926,-0.98761,0.156459,0.204552,-0.077324,-0.298854,0.548173,0.08127,-0.24771,-0.125355,-0.013839,-0.14577,0.293849,-0.209553,-0.059848,0.008617,-0.00577,-0.028995,0.097037,0.178454,-0.223819,0.728436,0.706429,0.117411,0.105531,0.04459,-0.088528,0.218973,0.875547,-0.83241,0.22568,-0.069704
-1.334796,0.014311,0.793069,-0.002991,-0.015404,-0.987216,0.158617,0.141491,-0.095295,-0.268231,0.679632,0.133583,-0.247749,-0.111258,-0.016539,-0.148418,0.298348,-0.225989,-0.063102,0.007998,-0.009493,-0.023831,0.098587,0.17458,-0.211119,0.719848,0.698931,0.120342,0.112551,0.02785,-0.09348600000000001,0.246596,0.882773,-0.846815,0.219483,-0.062286
-1.343645,0.014736,0.793172,-0.005414,-0.018663,-0.986787,0.160855,0.064109,-0.105079,-0.227627,0.820415,0.187747,-0.247742,-0.091839,-0.01804,-0.15136,0.297264,-0.240871,-0.066041,0.006544,-0.012582,-0.016471,0.10565,0.172507,-0.196643,0.714836,0.689831,0.117909,0.118902,0.017673,-0.098216,0.267986,0.883271,-0.862655,0.212895,-0.059084
-1.352029,0.014889,0.792611,-0.008728,-0.021081,-0.986528,0.161993,-0.020748,-0.095511,-0.170003,0.960538,0.227413,-0.247732,-0.070748,-0.017179,-0.152669,0.293851,-0.254221,-0.068587,0.004291,-0.013841,-0.006633,0.11704,0.165252,-0.181164,0.710939,0.681416,0.120464,0.12655,0.005157,-0.102248,0.282725,0.882577,-0.870357,0.209288,-0.057252
-1.359898,0.014669,0.79138,-0.012283,-0.020896,-0.986873,0.159671,-0.104017,-0.061629,-0.123773,1.086616,0.192074,-0.247638,-0.054825,-0.01066,-0.14888,0.297542,-0.269253,-0.071001,0.00457,-0.011087,0.005053,0.135266,0.155216,-0.16765,0.704399,0.677405,0.127211,0.133127,-0.01049,-0.111016,0.288578,0.884958,-0.872327,0.199097,-0.055787
-1.367625,0.014018,0.78963,-0.015836,-0.018132,-0.987768,0.154063,-0.183959,-0.010793,-0.092597,1.186454,0.092463,-0.246052,-0.042003,0.001715,-0.140034,0.305574,-0.285786,-0.073509,0.009508,-0.004719,0.01698,0.152008,0.1456,-0.157518,0.705015,0.677743,0.135209,0.137722,-0.023053,-0.115228,0.288333,0.884711,-0.869911,0.195787,-0.061375
-1.375523,0.012906,0.787759,-0.018985,-0.014632,-0.9888,0.147308,-0.256763,0.039769,-0.051217,1.246278,0.017553,-0.2109,-0.028726,0.015653,-0.128711,0.312151,-0.301388,-0.07562,0.016531,0.003033,0.027856,0.168939,0.137039,-0.15249,0.713267,0.686647,0.145041,0.143951,-0.032676,-0.113066,0.277475,0.88378,-0.855416,0.199898,-0.072763
-1.383665,0.011304,0.785846,-0.021241,-0.010908,-0.989952,0.139372,-0.319082,0.071494,-0.0146,1.25982,-0.04831,-0.156666,-0.017397,0.029485,-0.115028,0.320291,-0.317193,-0.077243,0.02391,0.009729,0.037299,0.180454,0.133588,-0.155079,0.735455,0.705174,0.158322,0.151018,-0.033319,-0.109561,0.261562,0.879177,-0.830719,0.199793,-0.082494
-1.39206,0.009146,0.783887,-0.022313,-0.007206,-0.991127,0.130837,-0.372495,0.083412,0.005716,1.229965,-0.120947,-0.128788,-0.009922,0.04188,-0.099967,0.332507,-0.334479,-0.077977,0.03101,0.014391,0.045209,0.18643,0.128209,-0.159353,0.762786,0.729538,0.181327,0.160285,-0.03505,-0.100292,0.245202,0.876287,-0.800486,0.202049,-0.092032
-1.400924,0.006403,0.781927,-0.022418,-0.003388,-0.99231,0.121685,-0.416331,0.086554,0.014819,1.162175,-0.184907,-0.108031,-0.003975,0.053381,-0.083702,0.345869,-0.352973,-0.077898,0.037003,0.017149,0.051216,0.196558,0.121218,-0.154085,0.788826,0.747105,0.200184,0.172878,-0.037844,-0.092238,0.239589,0.875183,-0.765628,0.202803,-0.097789
-1.41046,0.003082,0.78019,-0.0213,0.000635,-0.993532,0.111537,-0.447673,0.091398,0.018185,1.058267,-0.224882,-0.098639,0.004,0.064602,-0.065301,0.35267,-0.369615,-0.077188,0.0418,0.0181,0.054981,0.209637,0.115542,-0.135488,0.814717,0.74985,0.214253,0.18138,-0.037143,-0.089559,0.253214,0.871429,-0.742991,0.193752,-0.100091
-1.420727,-0.00068,0.778947,-0.018857,0.003443,-0.994763,0.100398,-0.464318,0.090605,0.009846,0.920417,-0.233495,-0.08877,0.017361,0.07312,-0.043695,0.346182,-0.38118,-0.076136,0.046175,0.017607,0.056402,0.222686,0.10827,-0.110446,0.842,0.744258,0.229948,0.180601,-0.034964,-0.092088,0.279018,0.867064,-0.729145,0.183703,-0.095649
-1.431696,-0.004972,0.777787,-0.015958,0.00594,-0.996035,0.087319,-0.464438,0.077729,-0.028727,0.758873,-0.217911,-0.088123,0.032402,0.079922,-0.017877,0.337351,-0.392521,-0.073396,0.05072,0.016075,0.05625,0.236204,0.100635,-0.083355,0.86773,0.735759,0.244522,0.174577,-0.033185,-0.097984,0.312872,0.863034,-0.723214,0.175263,-0.085077
-1.443242,-0.009561,0.776672,-0.013007,0.007362,-0.99726,0.072447,-0.449377,0.064255,-0.088084,0.588964,-0.170906,-0.101666,0.049384,0.08389,0.012034,0.325936,-0.402235,-0.069273,0.055435,0.013324,0.055472,0.249732,0.093912,-0.060467,0.888989,0.732047,0.251927,0.169403,-0.032158,-0.10582,0.349443,0.859075,-0.722416,0.167801,-0.072409
-1.4552,-0.014423,0.775375,-0.010271,0.008422,-0.998303,0.056692,-0.422374,0.065408,-0.132685,0.428729,-0.126434,-0.111311,0.065908,0.085847,0.043904,0.316635,-0.410313,-0.064102,0.058911,0.010247,0.055004,0.263548,0.087471,-0.041233,0.905933,0.731076,0.25509,0.158444,-0.03126,-0.113698,0.382246,0.856543,-0.721905,0.16413,-0.063887
-1.467599,-0.0196,0.773722,-0.008911,0.009662,-0.999122,0.039787,-0.389408,0.075865,-0.148835,0.300751,-0.103438,-0.125949,0.084638,0.086426,0.076194,0.309111,-0.417819,-0.058869,0.060564,0.007706,0.055247,0.277848,0.08219,-0.028732,0.918186,0.736182,0.256606,0.144284,-0.030312,-0.120625,0.410749,0.857692,-0.722247,0.166085,-0.060762
-1.4803,-0.025048,0.771627,-0.008783,0.009831,-0.999612,0.024541,-0.359484,0.086401,-0.128511,0.230509,-0.068446,-0.162787,0.107575,0.082454,0.105008,0.298752,-0.420528,-0.053478,0.060162,0.005432,0.05615,0.289022,0.076795,-0.024769,0.926278,0.747255,0.25279,0.12853,-0.0281,-0.128629,0.433148,0.862095,-0.724103,0.173046,-0.060365
-1.492715,-0.030963,0.77143,-0.009094,0.00939,-0.999859,0.010545,-0.335517,0.088529,-0.112417,0.224024,-0.033777,-0.147776,0.128751,0.074357,0.130437,0.29224,-0.418418,-0.04699,0.060131,0.002579,0.056581,0.293755,0.073301,-0.025423,0.932165,0.760271,0.245109,0.107947,-0.022271,-0.136971,0.445568,0.867469,-0.725206,0.183375,-0.065329
-1.505521,-0.037034,0.77067,-0.009519,0.007196,-0.999928,-0.00101,-0.316728,0.086686,-0.088018,0.240042,-0.035156,-0.131505,0.148673,0.061057,0.150423,0.288093,-0.408612,-0.039894,0.058539,-0.001932,0.056635,0.28776,0.070196,-0.02805,0.93887,0.771842,0.23807,0.081744,-0.012778,-0.144199,0.443644,0.873247,-0.722324,0.198736,-0.071766
-1.518205,-0.04331,0.772398,-0.010392,0.004519,-0.999889,-0.009651,-0.300948,0.081578,-0.063629,0.258662,-0.053735,-0.120263,0.163674,0.045323,0.163612,0.294208,-0.389211,-0.031418,0.05612,-0.008349,0.055964,0.273556,0.071441,-0.034832,0.943903,0.787887,0.230117,0.061069,0.002169,-0.147909,0.427428,0.880234,-0.717595,0.218346,-0.090573
-1.531192,-0.049722,0.776729,-0.010632,0.002335,-0.999793,-0.017162,-0.281007,0.075804,-0.041144,0.268545,-0.072195,-0.113607,0.172741,0.030653,0.173504,0.31163,-0.358884,-0.022541,0.053496,-0.015014,0.054432,0.254836,0.077552,-0.043911,0.944054,0.808006,0.225048,0.045221,0.021716,-0.144346,0.396717,0.890135,-0.704891,0.24052,-0.10815
-1.543733,-0.055941,0.780279,-0.010153,0.000227,-0.9996330000000001,-0.025119,-0.255326,0.070068,-0.018729,0.261988,-0.084479,-0.104365,0.173005,0.017361,0.184111,0.334898,-0.323882,-0.014996,0.051377,-0.020645,0.052242,0.233493,0.083303,-0.045984,0.932772,0.821451,0.220224,0.047407,0.039377,-0.140333,0.367713,0.900346,-0.697973,0.258941,-0.117976
-1.555884,-0.061837,0.783426,-0.009289,-0.001493,-0.999379,-0.03395,-0.22601,0.065032,0.004121,0.24474,-0.093454,-0.090665,0.166554,0.006501,0.195826,0.365691,-0.286794,-0.007537,0.049517,-0.025094,0.049894,0.211318,0.088666,-0.043726,0.913339,0.826086,0.210865,0.058476,0.053215,-0.139625,0.346882,0.907992,-0.6968,0.270166,-0.111922
-1.567635,-0.067256,0.785883,-0.008436,-0.003003,-0.999042,-0.042834,-0.198328,0.060572,0.026623,0.228137,-0.102822,-0.081246,0.153987,-0.001601,0.207712,0.407169,-0.25392,0.00102,0.047218,-0.02924,0.047938,0.189833,0.096457,-0.038752,0.888123,0.821269,0.194077,0.077079,0.066163,-0.147426,0.339193,0.905894,-0.709502,0.268045,-0.093288
-1.579064,-0.072337,0.787622,-0.007757,-0.004565,-0.998672,-0.050721,-0.173946,0.054801,0.046827,0.215721,-0.113187,-0.072961,0.137515,-0.008136,0.219292,0.456523,-0.223173,0.010675,0.044139,-0.033483,0.046314,0.173364,0.108438,-0.032038,0.863654,0.810048,0.166257,0.103757,0.074327,-0.160544,0.348099,0.901039,-0.729488,0.257017,-0.078258
-1.590278,-0.077073,0.78868,-0.007278,-0.006285,-0.998311,-0.057291,-0.154594,0.047398,0.063568,0.211518,-0.126069,-0.062326,0.117988,-0.012336,0.232946,0.51264,-0.191772,0.021519,0.039653,-0.038169,0.045165,0.143733,0.115288,-0.028844,0.851253,0.796706,0.147549,0.131081,0.087893,-0.171583,0.357207,0.885411,-0.749301,0.250026,-0.067865
-1.601403,-0.081527,0.789161,-0.007331,-0.008189,-0.99797,-0.062723,-0.139273,0.038663,0.077469,0.215985,-0.142143,-0.050012,0.094835,-0.014139,0.248744,0.576692,-0.153668,0.037913,0.033717,-0.043324,0.044914,0.116038,0.129267,-0.03051,0.836509,0.782798,0.132201,0.147477,0.092836,-0.180091,0.356481,0.876342,-0.760779,0.246029,-0.066232
-1.612498,-0.085764,0.789006,-0.00827,-0.010236,-0.997635,-0.06746,-0.124874,0.028935,0.089557,0.225096,-0.160215,-0.037103,0.065998,-0.012707,0.267676,0.652745,-0.107303,0.066534,0.026738,-0.048701,0.045567,0.084881,0.143209,-0.041564,0.830863,0.776492,0.12651,0.156695,0.099674,-0.184021,0.344659,0.865881,-0.762007,0.244484,-0.06864
-1.623632,-0.089789,0.788207,-0.010117,-0.012204,-0.997303,-0.071659,-0.10895,0.018695,0.100253,0.234705,-0.17926,-0.024707,0.032797,-0.005274,0.291761,0.738141,-0.049907,0.098002,0.019371,-0.054245,0.046922,0.051866,0.156893,-0.058292,0.833258,0.779665,0.126326,0.168925,0.106864,-0.185449,0.327627,0.854326,-0.759023,0.244179,-0.07241
-1.634723,-0.093515,0.786825,-0.012934,-0.013795,-0.9969420000000001,-0.075825,-0.09130700000000001,0.009367,0.110456,0.245428,-0.199847,-0.014257,-0.004395,0.008231,0.318771,0.829399,0.017502,0.149913,0.01278,-0.059843,0.049135,0.017331,0.167272,-0.077555,0.846017,0.785602,0.133726,0.17238,0.115138,-0.185598,0.310605,0.84202,-0.758679,0.245336,-0.074989
-1.645716,-0.09692700000000001,0.785395,-0.016489,-0.014653,-0.996493,-0.080716,-0.070929,0.001978,0.121379,0.255014,-0.221149,-0.00571,-0.042455,0.02514,0.341414,0.91997,0.088205,0.200873,0.007906,-0.064998,0.052114,-0.016747,0.175874,-0.09811,0.863273,0.793288,0.138283,0.171412,0.124843,-0.184292,0.294534,0.825406,-0.760936,0.245795,-0.076634
-1.657006,-0.100103,0.786533,-0.020397,-0.014448,-0.995943,-0.086444,-0.045331,-0.003525,0.133284,0.257492,-0.239565,0.001745,-0.081459,0.040424,0.351781,1.009217,0.155568,0.229132,0.005229,-0.069111,0.055782,-0.047401,0.178952,-0.113715,0.885815,0.797316,0.143194,0.17234,0.13974,-0.181702,0.279377,0.798493,-0.764247,0.24164,-0.078297
-1.667847,-0.102909,0.786233,-0.023853,-0.013736,-0.995227,-0.093624,-0.018912,-0.007117,0.147195,0.255518,-0.256441,0.00762,-0.130648,0.046001,0.338428,1.093629,0.217441,0.244954,0.005045,-0.072456,0.060135,-0.073893,0.182131,-0.124187,0.902986,0.796893,0.146671,0.170253,0.150744,-0.177044,0.266335,0.77319,-0.766879,0.233498,-0.078049
-1.678161,-0.105385,0.785406,-0.026609,-0.012872,-0.99443,-0.101173,0.006575,-0.010358,0.161709,0.250573,-0.270834,0.012514,-0.187042,0.036264,0.308813,1.174238,0.257743,0.246399,0.005372,-0.075944,0.064338,-0.092595,0.185298,-0.134022,0.912531,0.796649,0.143827,0.173228,0.157632,-0.172607,0.258714,0.752506,-0.772127,0.227166,-0.076329
-1.687799,-0.107257,0.783916,-0.028367,-0.014081,-0.993546,-0.108918,0.022891,-0.01532,0.1771,0.25715,-0.288212,0.015747,-0.242276,0.021905,0.287156,1.245248,0.224583,0.239273,0.003361,-0.080625,0.068028,-0.101444,0.184109,-0.136476,0.915531,0.789374,0.142323,0.180769,0.159814,-0.171656,0.257281,0.736847,-0.781341,0.223135,-0.072182
-1.697017,-0.10863,0.781932,-0.029201,-0.016775,-0.992606,-0.116614,0.03098,-0.021275,0.192752,0.274845,-0.309168,0.017819,-0.291618,0.015042,0.270356,1.290571,0.09174,0.185898,-6.2e-05,-0.086332,0.070806,-0.101891,0.178946,-0.136976,0.912941,0.778664,0.141368,0.187347,0.158819,-0.174361,0.260954,0.725881,-0.795,0.218005,-0.063764
-1.706274,-0.109734,0.77996,-0.029092,-0.019204,-0.991712,-0.123659,0.03843,-0.027069,0.207201,0.289953,-0.32862,0.019546,-0.33607,0.014398,0.252363,1.302473,-0.032503,0.145612,-0.004029,-0.09195900000000001,0.072477,-0.095232,0.171222,-0.13852,0.908371,0.765566,0.135008,0.194901,0.157014,-0.176806,0.262842,0.718066,-0.808144,0.215315,-0.055465
-1.715783,-0.110658,0.778247,-0.028072,-0.020976,-0.9909150000000002,-0.129842,0.04802,-0.032821,0.219976,0.297556,-0.344951,0.021393,-0.374875,0.021852,0.23522,1.275842,-0.113088,0.120661,-0.008547,-0.096645,0.072976,-0.084327,0.162355,-0.143094,0.907028,0.7519,0.128455,0.193191,0.155946,-0.177112,0.261064,0.712219,-0.818033,0.214375,-0.048908
-1.725541,-0.111298,0.77671,-0.026268,-0.022293,-0.990191,-0.135405,0.058203,-0.038038,0.231445,0.301533,-0.360582,0.022983,-0.40584,0.035874,0.22345,1.213308,-0.179994,0.111607,-0.013418,-0.099819,0.072456,-0.071716,0.152284,-0.15084,0.908974,0.741715,0.126733,0.187825,0.156278,-0.175424,0.254749,0.7066,-0.82213,0.212711,-0.045015
-1.735561,-0.111583,0.775265,-0.023955,-0.02359,-0.989508,-0.140513,0.06901,-0.043319,0.241818,0.303114,-0.376781,0.024376,-0.432666,0.044082,0.207401,1.123485,-0.229106,0.106393,-0.018066,-0.101581,0.071443,-0.058654,0.139818,-0.162378,0.914916,0.734532,0.131656,0.172044,0.158153,-0.174242,0.246023,0.703779,-0.823493,0.21281,-0.042224
-1.745834,-0.111558,0.774201,-0.020587,-0.023443,-0.9890040000000001,-0.144562,0.082356,-0.046648,0.249868,0.295949,-0.389342,0.025171,-0.45303,0.042043,0.179586,1.007747,-0.253285,0.096284,-0.022732,-0.101998,0.069751,-0.047615,0.126743,-0.177677,0.923062,0.724525,0.13911,0.125826,0.160805,-0.171359,0.235439,0.703817,-0.822512,0.213627,-0.042761
-1.756298,-0.111113,0.773333,-0.016435,-0.022883,-0.988688,-0.14732,0.097505,-0.049405,0.255528,0.281905,-0.397947,0.025078,-0.467527,0.040933,0.148679,0.877251,-0.249444,0.064567,-0.027929,-0.101025,0.067282,-0.038813,0.115599,-0.194883,0.925686,0.712368,0.144837,0.065723,0.163064,-0.167329,0.223519,0.706573,-0.819231,0.21376,-0.044533
-1.766988,-0.110274,0.772485,-0.011674,-0.021808,-0.988517,-0.149069,0.114911,-0.051569,0.259231,0.260864,-0.401937,0.024271,-0.474731,0.040333,0.11481,0.737818,-0.222893,0.043655,-0.03318,-0.09831,0.064142,-0.033027,0.108685,-0.218205,0.919915,0.707674,0.143915,0.017829,0.1642,-0.163142,0.211905,0.7125,-0.815966,0.217245,-0.043098
-1.77798,-0.109044,0.771354,-0.006754,-0.020207,-0.98853,-0.149514,0.133692,-0.052886,0.260372,0.237067,-0.404216,0.022915,-0.473131,0.046961,0.09061,0.597727,-0.189454,0.030247,-0.038682,-0.094136,0.060508,-0.026296,0.107356,-0.242156,0.905035,0.706543,0.136153,-0.009961,0.160518,-0.15986,0.202638,0.726864,-0.816458,0.223274,-0.041197
-1.789347,-0.107321,0.769713,-0.002436,-0.01882,-0.98879,-0.148105,0.152616,-0.054018,0.258026,0.216156,-0.405889,0.021098,-0.46355,0.056237,0.07657,0.474271,-0.157722,0.016781,-0.044219,-0.088818,0.056824,-0.021629,0.102806,-0.261867,0.889868,0.704884,0.12965,-0.011076,0.161388,-0.156127,0.192263,0.740692,-0.819113,0.229658,-0.040165
-1.801125,-0.105103,0.767364,0.000722,-0.015309,-0.989141,-0.14617,0.175794,-0.050697,0.254003,0.193909,-0.402909,0.017134,-0.450481,0.069484,0.073628,0.401312,-0.104844,-0.011431,-0.049719,-0.08206,0.053731,-0.018765,0.098436,-0.277454,0.878493,0.702554,0.127146,-0.003996,0.164511,-0.148752,0.181109,0.754545,-0.821331,0.235368,-0.038024
-1.813085,-0.102066,0.764858,0.00188,-0.013674,-0.989403,-0.144541,0.195698,-0.047729,0.249887,0.18911,-0.405453,0.010699,-0.439912,0.07441,0.073368,0.404406,-0.067811,-0.018796,-0.053918,-0.074634,0.05132,-0.018286,0.092197,-0.28929,0.873122,0.69831,0.128775,0.007669,0.168671,-0.144127,0.169449,0.768731,-0.823616,0.241617,-0.037627
-1.825478,-0.098494,0.764224,0.001468,-0.011689,-0.989491,-0.14411,0.215599,-0.042412,0.248046,0.192036,-0.404288,0.002783,-0.437419,0.079839,0.070153,0.439282,-0.091886,-0.026154,-0.057343,-0.066678,0.050013,-0.018662,0.085598,-0.294156,0.873754,0.691141,0.132331,0.027275,0.171555,-0.141022,0.161765,0.7858,-0.829388,0.24713,-0.03909
-1.838149,-0.094518,0.7652,0.001391,-0.008749,-0.98952,-0.144126,0.234115,-0.033657,0.249103,0.196064,-0.389296,-0.007032,-0.426352,0.087118,0.065691,0.45954,-0.10724,-0.042105,-0.060877,-0.05806,0.048272,-0.019921,0.078594,-0.293413,0.882178,0.684198,0.144283,0.050691,0.173005,-0.137215,0.155442,0.804816,-0.838523,0.258788,-0.038688
-1.851223,-0.090226,0.769136,0.001915,-0.005655,-0.989597,-0.143747,0.250981,-0.023523,0.251013,0.204649,-0.360115,-0.019986,-0.405529,0.094489,0.062323,0.462221,-0.11924,-0.056862,-0.06482,-0.049506,0.045283,-0.022413,0.07282,-0.294807,0.896113,0.68301,0.161394,0.072631,0.173962,-0.131206,0.147242,0.81841,-0.846126,0.267472,-0.035239
-1.863867,-0.085861,0.772641,0.003481,-0.002908,-0.989584,-0.143888,0.256954,-0.011351,0.252853,0.222484,-0.323009,-0.033845,-0.378771,0.101473,0.060785,0.446758,-0.127284,-0.064445,-0.068687,-0.041346,0.041421,-0.028119,0.070623,-0.302942,0.912448,0.687159,0.173817,0.086262,0.174805,-0.125967,0.137811,0.823349,-0.852566,0.270918,-0.032326
-1.876217,-0.08159,0.776017,0.004998,-0.000311,-0.989374,-0.145304,0.256554,0.001527,0.254263,0.250324,-0.283175,-0.048022,-0.348043,0.108704,0.06193,0.421657,-0.132054,-0.067218,-0.072044,-0.033721,0.03735,-0.035761,0.07491,-0.319632,0.930169,0.696817,0.176513,0.080376,0.175863,-0.121621,0.128757,0.821609,-0.85544,0.264237,-0.03335
-1.888291,-0.077474,0.77899,0.006215,0.001964,-0.988835,-0.148869,0.250835,0.014694,0.257083,0.289415,-0.244185,-0.066021,-0.316796,0.116949,0.067301,0.394658,-0.135802,-0.068502,-0.074427,-0.026847,0.034263,-0.041646,0.086777,-0.340448,0.942645,0.710201,0.170002,0.063786,0.173843,-0.118921,0.123998,0.817251,-0.85764,0.254029,-0.034692
-1.900057,-0.073557,0.781396,0.006783,0.004119,-0.987942,-0.15462,0.238968,0.028768,0.259704,0.342978,-0.206111,-0.090609,-0.28551,0.126515,0.077204,0.368495,-0.139147,-0.070464,-0.075408,-0.020705,0.032335,-0.043812,0.103368,-0.355559,0.945812,0.721474,0.160026,0.052816,0.167413,-0.117697,0.126326,0.811552,-0.862805,0.243195,-0.034248
-1.9114,-0.069906,0.783115,0.006546,0.005645,-0.9867,-0.162321,0.218716,0.042972,0.26087,0.413719,-0.165041,-0.120901,-0.255985,0.135913,0.09144,0.347023,-0.144151,-0.072469,-0.074649,-0.015226,0.031752,-0.043405,0.120909,-0.363541,0.943749,0.727368,0.152408,0.043859,0.157483,-0.117301,0.131755,0.803616,-0.867929,0.231552,-0.032959
-1.922231,-0.066604,0.783824,0.005388,0.006581,-0.985142,-0.171531,0.18554,0.057584,0.258712,0.509813,-0.122259,-0.150988,-0.232185,0.14491,0.108792,0.339096,-0.154992,-0.073893,-0.072539,-0.010722,0.033242,-0.041051,0.137749,-0.36206,0.936982,0.72722,0.148932,0.042988,0.144492,-0.117295,0.137721,0.793813,-0.871716,0.221436,-0.034706
-1.932323,-0.063665,0.783833,0.003772,0.006693,-0.983324,-0.181698,0.136637,0.071125,0.248873,0.629534,-0.072392,-0.184423,-0.214017,0.152778,0.128284,0.341703,-0.169224,-0.074807,-0.069574,-0.007531,0.036386,-0.034123,0.151795,-0.348635,0.922341,0.723397,0.152999,0.052818,0.124507,-0.113043,0.14325,0.78413,-0.873327,0.219872,-0.039325
-1.942157,-0.061132,0.785148,0.002119,0.006347,-0.981634,-0.190656,0.075263,0.081784,0.226157,0.762268,-0.014188,-0.218446,-0.19783,0.158343,0.146699,0.347488,-0.183676,-0.075101,-0.066685,-0.00556,0.040537,-0.034677,0.163147,-0.331789,0.916518,0.715492,0.158431,0.067032,0.115444,-0.114229,0.143984,0.766236,-0.869357,0.209893,-0.04973
-1.951486,-0.05901,0.785333,0.000235,0.005877,-0.980273,-0.197558,0.007949,0.085493,0.194617,0.88926,0.036555,-0.242002,-0.18203,0.16127,0.161843,0.352771,-0.197899,-0.075121,-0.065207,-0.004577,0.045603,-0.036071,0.171499,-0.314735,0.913246,0.709976,0.167485,0.081213,0.106484,-0.113865,0.142562,0.747223,-0.861495,0.200848,-0.060169
-1.960476,-0.05734,0.78545,-0.001569,0.004805,-0.979288,-0.20241,-0.057534,0.080328,0.165216,0.996632,0.059634,-0.247393,-0.165545,0.16053,0.17422,0.353887,-0.209673,-0.075028,-0.066388,-0.004709,0.050891,-0.035201,0.177106,-0.295719,0.907889,0.703907,0.175921,0.097916,0.102292,-0.117746,0.139128,0.733562,-0.854112,0.185687,-0.074469
-1.969293,-0.056293,0.785523,-0.003256,0.004204,-0.978411,-0.206602,-0.116707,0.068502,0.126959,1.071863,0.03359,-0.247645,-0.152002,0.159044,0.18462,0.358767,-0.222053,-0.07395,-0.068377,-0.005704,0.055974,-0.035134,0.17961,-0.274444,0.9039,0.695927,0.183326,0.116484,0.095857,-0.117818,0.135381,0.721302,-0.84672,0.177969,-0.089769
-1.978132,-0.055731,0.785699,-0.005002,0.003215,-0.9775950000000002,-0.210413,-0.166327,0.066947,0.102488,1.108312,-0.00877,-0.247687,-0.138819,0.155427,0.194632,0.363644,-0.234203,-0.071858,-0.071233,-0.007035,0.06023,-0.034171,0.174838,-0.257441,0.902398,0.689721,0.192246,0.131319,0.086496,-0.116437,0.133441,0.71759,-0.841233,0.174443,-0.100468
-1.987079,-0.055547,0.785747,-0.0062,0.002668,-0.976332,-0.21617,-0.208547,0.082825,0.081976,1.110767,-0.060479,-0.247287,-0.127427,0.153316,0.207247,0.370225,-0.246857,-0.069288,-0.072008,-0.007641,0.063421,-0.029831,0.171491,-0.237947,0.896087,0.681563,0.196039,0.138776,0.078427,-0.118106,0.136585,0.719003,-0.839382,0.172712,-0.103596
-1.996203,-0.055664,0.785433,-0.006493,0.003247,-0.974632,-0.223694,-0.243489,0.118079,0.071767,1.078459,-0.133229,-0.239521,-0.118861,0.154465,0.221975,0.380554,-0.261702,-0.066527,-0.070276,-0.006881,0.065785,-0.021308,0.168861,-0.217395,0.884305,0.671839,0.1929,0.141902,0.070872,-0.121666,0.143501,0.724134,-0.839777,0.169521,-0.10457
-2.005538,-0.056063,0.784784,-0.00571,0.004904,-0.972787,-0.231578,-0.271503,0.161314,0.076314,1.015597,-0.202113,-0.206229,-0.112149,0.15785,0.23708,0.392015,-0.278099,-0.063465,-0.067033,-0.004708,0.067393,-0.010581,0.166672,-0.198761,0.870365,0.664724,0.187477,0.142723,0.064516,-0.125434,0.152029,0.732852,-0.84085,0.167589,-0.101945
-2.015207,-0.056713,0.783987,-0.004148,0.007027,-0.970735,-0.240014,-0.294312,0.200065,0.076475,0.92525,-0.244434,-0.168116,-0.104877,0.161677,0.253646,0.40085,-0.29504,-0.059819,-0.062432,-0.001714,0.06807,0.001221,0.163861,-0.183231,0.85584,0.661018,0.178853,0.141779,0.058898,-0.129198,0.162453,0.744733,-0.844167,0.172143,-0.095172
-2.025298,-0.057505,0.783178,-0.001718,0.009138,-0.968398,-0.249235,-0.305564,0.223306,0.057397,0.803368,-0.269915,-0.136601,-0.095394,0.164786,0.272575,0.40317,-0.311099,-0.055644,-0.056818,0.001768,0.067424,0.013024,0.160719,-0.169446,0.843825,0.660794,0.172582,0.140192,0.054964,-0.132693,0.172765,0.756687,-0.847859,0.173735,-0.092633
-2.035843,-0.05839,0.782336,0.000717,0.01181,-0.965682,-0.259457,-0.30529,0.229742,0.005315,0.663199,-0.276879,-0.123237,-0.082554,0.167452,0.292317,0.400071,-0.324771,-0.051153,-0.050749,0.005245,0.066045,0.027804,0.160947,-0.158643,0.834505,0.665804,0.169659,0.143314,0.052505,-0.135594,0.179785,0.775232,-0.855155,0.172797,-0.092616
-2.046788,-0.05931,0.781624,0.003015,0.014965,-0.9627270000000001,-0.270044,-0.293755,0.234763,-0.058432,0.51868,-0.252411,-0.124865,-0.064527,0.169083,0.314135,0.387802,-0.333337,-0.046273,-0.045728,0.008766,0.0642,0.042157,0.163375,-0.152429,0.830299,0.678608,0.169201,0.151378,0.054992,-0.137018,0.185808,0.791263,-0.860527,0.174741,-0.087485
-2.057925,-0.060318,0.780994,0.005422,0.018002,-0.959636,-0.280615,-0.274551,0.248843,-0.096201,0.381399,-0.206982,-0.126327,-0.042903,0.168412,0.33744,0.36658,-0.337361,-0.040635,-0.043182,0.012659,0.061614,0.055081,0.159576,-0.152681,0.830728,0.699274,0.172956,0.174556,0.055443,-0.138933,0.19246,0.806971,-0.867915,0.179401,-0.081138
-2.069138,-0.061703,0.780077,0.008019,0.021147,-0.956466,-0.290967,-0.256426,0.273735,-0.082604,0.274211,-0.167059,-0.145885,-0.021758,0.165923,0.360418,0.343248,-0.338928,-0.033416,-0.043911,0.017383,0.05892,0.066359,0.149323,-0.157424,0.836087,0.723161,0.181449,0.213068,0.052082,-0.139676,0.196176,0.823453,-0.874582,0.184411,-0.077951
-2.080441,-0.06366,0.778363,0.010977,0.024456,-0.953191,-0.30118,-0.242214,0.294755,-0.044109,0.217131,-0.127808,-0.191364,-0.004642,0.162545,0.382239,0.324644,-0.340465,-0.024296,-0.046097,0.022213,0.05624,0.076737,0.140309,-0.158486,0.846352,0.740623,0.189452,0.24676,0.052356,-0.140502,0.193332,0.836467,-0.876869,0.189812,-0.078075
-2.091335,-0.066164,0.778134,0.014205,0.026545,-0.949513,-0.312279,-0.228369,0.302405,-0.019306,0.206494,-0.102332,-0.206738,0.006816,0.156931,0.403801,0.311651,-0.340126,-0.013668,-0.047096,0.026045,0.053694,0.084226,0.129186,-0.154765,0.860741,0.745757,0.193322,0.263027,0.056388,-0.1401,0.18162,0.84459,-0.872775,0.19415,-0.08208
-2.102786,-0.068944,0.777361,0.01642,0.027087,-0.945836,-0.323095,-0.215636,0.30159,0.008979,0.2183,-0.112434,-0.191456,0.0173,0.146576,0.422958,0.300491,-0.335321,-0.003429,-0.047294,0.027943,0.05187,0.087625,0.119183,-0.153019,0.879675,0.746731,0.196622,0.258723,0.064229,-0.138345,0.162765,0.849077,-0.865883,0.203127,-0.092769
-2.114439,-0.072048,0.77854,0.017257,0.026109,-0.942072,-0.333948,-0.199075,0.29632,0.039949,0.224326,-0.126014,-0.17782,0.026202,0.131166,0.437919,0.293709,-0.325765,0.007053,-0.046792,0.027176,0.050161,0.088537,0.112604,-0.155975,0.900883,0.746766,0.199258,0.226577,0.075665,-0.134491,0.143082,0.851449,-0.858721,0.213186,-0.103406
-2.126269,-0.075334,0.780137,0.017572,0.02419,-0.938369,-0.34434,-0.182271,0.287741,0.071482,0.22961,-0.137532,-0.168925,0.030561,0.113954,0.449512,0.295334,-0.314911,0.01771,-0.045629,0.02404,0.048804,0.087887,0.115547,-0.160162,0.91867,0.744302,0.191562,0.166204,0.09159,-0.128899,0.122864,0.850167,-0.848026,0.217089,-0.110431
-2.138087,-0.078647,0.782009,0.017136,0.022285,-0.934896,-0.353806,-0.164576,0.277246,0.101002,0.234086,-0.150616,-0.160972,0.034274,0.096627,0.460936,0.300143,-0.302559,0.029995,-0.043875,0.019603,0.048002,0.083946,0.121061,-0.173663,0.931916,0.750912,0.181668,0.100488,0.1075,-0.123922,0.11661,0.849028,-0.84395,0.223574,-0.108269
-2.150067,-0.08199,0.78568,0.016427,0.020283,-0.931487,-0.362837,-0.144576,0.264254,0.129161,0.233895,-0.161939,-0.150829,0.038718,0.078903,0.47537,0.306895,-0.287707,0.043497,-0.04156,0.01479,0.0475,0.078932,0.13089,-0.187973,0.937667,0.759514,0.167679,0.040583,0.119976,-0.121857,0.122974,0.846601,-0.844379,0.220029,-0.096315
-2.16171,-0.08521,0.787772,0.015427,0.018403,-0.9281950000000002,-0.371318,-0.124384,0.250522,0.155527,0.231163,-0.172624,-0.13964,0.041831,0.062535,0.490392,0.313987,-0.272991,0.057259,-0.038966,0.009542,0.047285,0.070802,0.140626,-0.200535,0.938321,0.771118,0.152266,0.005755,0.127159,-0.121897,0.142717,0.841433,-0.852262,0.215538,-0.076602
-2.173059,-0.088287,0.789146,0.013954,0.016607,-0.9250100000000001,-0.379324,-0.105318,0.23625,0.180296,0.229954,-0.184127,-0.128607,0.043754,0.047362,0.505886,0.324779,-0.260319,0.070497,-0.03622,0.003778,0.046978,0.065279,0.149892,-0.208073,0.933268,0.784902,0.144367,0.005967,0.134018,-0.125924,0.163925,0.838428,-0.862141,0.208819,-0.056651
-2.184048,-0.091187,0.790091,0.012228,0.014808,-0.921941,-0.386853,-0.086905,0.221613,0.203712,0.22858,-0.195403,-0.118161,0.044786,0.033193,0.521176,0.337843,-0.249385,0.081957,-0.03324,-0.002408,0.046209,0.062944,0.153386,-0.202373,0.924378,0.791375,0.146897,0.034252,0.139884,-0.130078,0.183195,0.836707,-0.872988,0.205473,-0.040216
-2.194654,-0.093973,0.790725,0.010303,0.012949,-0.918927,-0.394081,-0.069311,0.206543,0.225989,0.227208,-0.206365,-0.108039,0.043481,0.020729,0.536499,0.355964,-0.239475,0.091268,-0.030022,-0.008845,0.045281,0.061273,0.151436,-0.187347,0.916007,0.788987,0.154285,0.073397,0.144647,-0.132514,0.196004,0.834825,-0.881681,0.205046,-0.029566
-2.204844,-0.09670500000000001,0.791101,0.008406,0.010972,-0.916026,-0.400881,-0.053579,0.19113,0.24679,0.22654,-0.216961,-0.098041,0.037193,0.011716,0.552166,0.384182,-0.229944,0.098716,-0.026697,-0.01553,0.044554,0.05791,0.14591,-0.167495,0.9108750000000002,0.777441,0.160909,0.105204,0.149129,-0.131986,0.19887,0.831214,-0.88364,0.20816,-0.025786
-2.214637,-0.09945300000000001,0.791219,0.006654,0.008858,-0.913182,-0.407401,-0.040377,0.175591,0.266295,0.22754,-0.227526,-0.087949,0.026722,0.005404,0.5677,0.419666,-0.220011,0.10547,-0.023276,-0.02215,0.04405,0.050608,0.135587,-0.147132,0.911294,0.761107,0.166474,0.132077,0.156746,-0.130034,0.19647,0.820722,-0.881377,0.212027,-0.023879
-2.224095,-0.102273,0.791041,0.005031,0.00666,-0.910468,-0.413496,-0.03042,0.160093,0.284196,0.231744,-0.23902,-0.077502,0.0123,0.002005,0.583559,0.46249,-0.209114,0.112254,-0.019902,-0.028527,0.043937,0.042743,0.129985,-0.129937,0.911083,0.746267,0.17003,0.148516,0.157986,-0.129862,0.196922,0.813304,-0.879713,0.213296,-0.024306
-2.233327,-0.105166,0.790534,0.003399,0.004282,-0.90786,-0.419237,-0.022711,0.144253,0.301075,0.238172,-0.251581,-0.06669,-0.007022,0.001545,0.598127,0.514976,-0.196059,0.119003,-0.016629,-0.034647,0.044332,0.03458,0.127413,-0.122772,0.911851,0.740167,0.170913,0.155294,0.154634,-0.132841,0.202504,0.807974,-0.882284,0.212832,-0.024158
-2.242479,-0.108096,0.789721,0.001552,0.001998,-0.905214,-0.424949,-0.014126,0.127636,0.317593,0.242513,-0.263952,-0.055594,-0.032579,0.003416,0.605224,0.578762,-0.176386,0.130542,-0.01325,-0.040463,0.045376,0.027235,0.125882,-0.122551,0.912898,0.7399,0.170677,0.160335,0.148422,-0.137365,0.20961,0.803201,-0.885548,0.212163,-0.021702
-2.251493,-0.110946,0.788411,-0.000602,-0.000137,-0.902204,-0.43131,-0.004875,0.111176,0.33447,0.246515,-0.276941,-0.04495,-0.06951,0.008586,0.600126,0.661527,-0.148116,0.150094,-0.009629,-0.046047,0.047263,0.021361,0.124085,-0.125805,0.91388,0.74065,0.169269,0.164228,0.139301,-0.142935,0.218186,0.798965,-0.888744,0.21092,-0.017582
-2.260287,-0.113594,0.786428,-0.003346,-0.002416,-0.89883,-0.438278,0.004017,0.094872,0.351961,0.253025,-0.291633,-0.03501,-0.121665,0.014929,0.576968,0.766448,-0.110542,0.169971,-0.005173,-0.051861,0.050359,0.016551,0.123117,-0.135726,0.9161840000000001,0.744812,0.163707,0.161829,0.12822,-0.149521,0.226357,0.793839,-0.891381,0.208893,-0.017033
-2.268972,-0.115974,0.784335,-0.006818,-0.004273,-0.89514,-0.445713,0.015225,0.078386,0.369914,0.257988,-0.306175,-0.025303,-0.187575,0.017441,0.533952,0.884919,-0.055854,0.18585,0.000203,-0.057689,0.054511,0.01574,0.126714,-0.147435,0.918654,0.748813,0.154324,0.154175,0.11356,-0.154688,0.232901,0.792262,-0.889181,0.205511,-0.019229
-2.278019,-0.118321,0.784658,-0.010606,-0.005414,-0.891621,-0.452626,0.030383,0.060768,0.386702,0.256413,-0.318115,-0.015687,-0.265401,0.005087,0.468627,1.006338,0.013824,0.19373,0.006063,-0.063535,0.059667,0.012301,0.127046,-0.158851,0.923659,0.750591,0.150683,0.149415,0.104065,-0.157437,0.23614,0.785443,-0.884623,0.202338,-0.02475
-2.287113,-0.120318,0.783502,-0.014373,-0.005943,-0.889003,-0.457637,0.048689,0.041763,0.399357,0.247381,-0.3269,-0.006283,-0.347968,-0.030887,0.383021,1.112181,0.080333,0.17677,0.010286,-0.069746,0.06524,0.007764,0.126529,-0.171519,0.929647,0.750772,0.149694,0.141679,0.099156,-0.157236,0.23592,0.773034,-0.877604,0.199201,-0.034995
-2.296065,-0.121826,0.78184,-0.017922,-0.006522,-0.887915,-0.459613,0.06607,0.021971,0.405308,0.237409,-0.33377,0.002388,-0.42146,-0.09323600000000001,0.288352,1.195261,0.104122,0.122859,0.009606000000000002,-0.07642,0.070011,0.004216,0.125603,-0.180497,0.933842,0.744757,0.148959,0.130629,0.098542,-0.154807,0.233289,0.757703,-0.866921,0.195536,-0.046663
