hanqing-shi/Humanoids-Motion-Generation/dataset/data_joint/walk/walk2_subject1_seg2.csv
root_x,root_y,root_z,root_qx,root_qy,root_qz,root_qw,left_hip_pitch_joint,left_hip_roll_joint,left_hip_yaw_joint,left_knee_joint,left_ankle_pitch_joint,left_ankle_roll_joint,right_hip_pitch_joint,right_hip_roll_joint,right_hip_yaw_joint,right_knee_joint,right_ankle_pitch_joint,right_ankle_roll_joint,waist_yaw_joint,waist_roll_joint,waist_pitch_joint,left_shoulder_pitch_joint,left_shoulder_roll_joint,left_shoulder_yaw_joint,left_elbow_joint,left_wrist_roll_joint,left_wrist_pitch_joint,left_wrist_yaw_joint,right_shoulder_pitch_joint,right_shoulder_roll_joint,right_shoulder_yaw_joint,right_elbow_joint,right_wrist_roll_joint,right_wrist_pitch_joint,right_wrist_yaw_joint
0.651529,3.742186,0.777259,-0.030398,0.056751,0.9061,-0.418137,-0.236044,-0.36247,-0.112605,0.426,-0.1044,0.153249,0.165436,-0.281419,-0.552632,0.625299,-0.230012,0.000233,0.146092,-0.088141,0.046671,0.098032,0.109209,-0.030326,0.979428,1.567072,0.101899,-0.436262,0.253347,-0.196477,0.145095,0.574993,-1.207045,0.14486,0.358775
0.641253,3.733553,0.774279,-0.029788,0.06474,0.901153,-0.427603,-0.196566,-0.38171,-0.133679,0.410132,-0.114295,0.15214,0.084043,-0.327118,-0.482486,0.816452,-0.169616,-0.066991,0.135052,-0.105837,0.053054,0.079073,0.113398,-0.050891,0.975617,1.635526,0.1129,-0.411366,0.265564,-0.166868,0.109533,0.538807,-1.187537,0.1802,0.199191
0.631281,3.724817,0.770782,-0.028587,0.072563,0.896324,-0.436486,-0.158217,-0.399849,-0.155381,0.398739,-0.12452,0.153032,-0.027693,-0.34898,-0.365273,1.015094,-0.12073,-0.11455,0.117458,-0.120817,0.057542,0.059329,0.10822,-0.056534,0.964098,1.67848,0.120558,-0.371715,0.279685,-0.132202,0.076993,0.513331,-1.12409,0.181899,0.049738
0.621353,3.715957,0.767994,-0.026174,0.076876,0.89176,-0.445161,-0.125881,-0.411605,-0.178236,0.400548,-0.139764,0.155553,-0.13973,-0.345737,-0.250802,1.182244,-0.135668,-0.131431,0.097237,-0.129891,0.060644,0.036776,0.095102,-0.04268,0.948423,1.685691,0.124974,-0.331591,0.292044,-0.112269,0.064026,0.493127,-1.05453,0.156459,-0.055168
0.611469,3.70746,0.765416,-0.022096,0.07899,0.887383,-0.453677,-0.108835,-0.42086,-0.199629,0.434009,-0.16601,0.158264,-0.239161,-0.340774,-0.164159,1.31101,-0.171062,-0.15559,0.074449,-0.132082,0.065022,0.011215,0.074914,-0.018139,0.929564,1.661349,0.122858,-0.285108,0.302877,-0.11066,0.065539,0.472102,-1.008419,0.118153,-0.111893
0.601678,3.699362,0.763022,-0.017095,0.078536,0.882371,-0.463639,-0.099466,-0.425563,-0.219486,0.481585,-0.201217,0.161298,-0.328988,-0.326945,-0.092654,1.392499,-0.19723,-0.167407,0.047725,-0.128126,0.07157,-0.020641,0.050497,-0.000607,0.913636,1.623989,0.110215,-0.233289,0.31224,-0.111322,0.061639,0.449374,-0.99753,0.084017,-0.171586
0.5919,3.6913,0.761638,-0.01264,0.076276,0.878469,-0.471502,-0.085519,-0.424006,-0.238682,0.514845,-0.232833,0.164348,-0.412194,-0.282518,-0.018851,1.423953,-0.197195,-0.176338,0.019325,-0.119685,0.078586,-0.050596,0.027481,-0.004762,0.897168,1.593395,0.092813,-0.182223,0.318455,-0.093562,0.039558,0.436438,-0.998118,0.077077,-0.236972
0.582004,3.683097,0.761916,-0.010851,0.071232,0.876926,-0.475194,-0.069629,-0.413747,-0.254032,0.526953,-0.256619,0.166242,-0.482413,-0.215328,0.047503,1.392827,-0.18424,-0.149833,-0.006787,-0.108225,0.081876,-0.073545,0.011079,-0.038403,0.870384,1.577583,0.063798,-0.131993,0.319781,-0.052904,-0.000634,0.431525,-0.982457,0.091049,-0.292177
0.571846,3.674328,0.764365,-0.010582,0.063555,0.877867,-0.474551,-0.04418,-0.39335,-0.267867,0.507973,-0.267799,0.167599,-0.52441,-0.138083,0.101982,1.290382,-0.183864,-0.123695,-0.027498,-0.095305,0.079295,-0.082859,-0.00074,-0.081979,0.831897,1.559594,0.039482,-0.082487,0.32256,0.000367,-0.045338,0.434483,-0.9493140000000002,0.114957,-0.312062
0.561235,3.664675,0.768523,-0.011572,0.053528,0.880492,-0.470887,-0.009705,-0.364803,-0.281221,0.462437,-0.266987,0.169161,-0.529275,-0.051962,0.161468,1.120177,-0.179506,-0.098463,-0.043163,-0.080059,0.071916,-0.084689,-0.00869,-0.131276,0.792869,1.534287,0.014622,-0.05205,0.326053,0.043453,-0.076886,0.439619,-0.925191,0.135458,-0.28868
0.550209,3.654067,0.773113,-0.012788,0.041316,0.883856,-0.465756,0.029347,-0.330024,-0.291835,0.403893,-0.260344,0.171492,-0.499349,0.046255,0.252551,0.907953,-0.164637,-0.051075,-0.055444,-0.061859,0.060689,-0.081974,-0.016641,-0.177685,0.757724,1.493389,-0.008554,-0.044099,0.33153,0.068938,-0.093164,0.447362,-0.931146,0.165685,-0.206334
0.538818,3.642523,0.776732,-0.013561,0.02808,0.886817,-0.461068,0.071855,-0.292354,-0.300477,0.339883,-0.251072,0.17394,-0.441696,0.134199,0.369381,0.690194,-0.141351,-0.014593,-0.066445,-0.042132,0.047116,-0.08088,-0.015562,-0.234608,0.725767,1.454625,-0.034987,-0.064293,0.334522,0.080512,-0.100501,0.452498,-0.964686,0.195969,-0.06345
0.527113,3.630306,0.778117,-0.012802,0.018464,0.889043,-0.457271,0.113324,-0.262288,-0.305236,0.292118,-0.24916,0.176326,-0.389771,0.1821,0.43474,0.545181,-0.111074,0.016872,-0.075309,-0.024457,0.035358,-0.085521,-0.006487,-0.304818,0.691926,1.420708,-0.066959,-0.09932,0.336306,0.081443,-0.111754,0.448245,-1.01556,0.208781,0.1053
0.515548,3.617729,0.776991,-0.011183,0.012129,0.890476,-0.454731,0.145073,-0.242735,-0.305757,0.27361,-0.252025,0.179016,-0.364176,0.187142,0.397575,0.501739,-0.088351,0.033767,-0.079925,-0.011185,0.027285,-0.101673,0.013597,-0.388287,0.652981,1.400288,-0.100045,-0.137405,0.338178,0.080142,-0.131835,0.437057,-1.071399,0.202945,0.257647
0.504483,3.604943,0.776147,-0.006253,0.00693,0.887629,-0.460465,0.165987,-0.228804,-0.313383,0.293795,-0.260553,0.181147,-0.347751,0.197249,0.365644,0.526002,-0.122781,0.00314,-0.084572,0.000204,0.023406,-0.126951,0.036399,-0.469418,0.618682,1.378347,-0.136924,-0.171062,0.345739,0.083827,-0.1637,0.424976,-1.11943,0.190494,0.345394
0.494098,3.591961,0.7761,-0.001211,0.002564,0.883256,-0.468883,0.166741,-0.222389,-0.316892,0.355709,-0.251583,0.173753,-0.329241,0.203589,0.337299,0.550971,-0.160032,-0.011531,-0.087184,0.011277,0.022842,-0.149926,0.053069,-0.523914,0.595474,1.359648,-0.144737,-0.186141,0.352187,0.093675,-0.199525,0.425128,-1.147975,0.18929,0.357008
0.48407,3.578718,0.780469,0.003168,-0.00255,0.877236,-0.480042,0.141119,-0.222698,-0.315599,0.466445,-0.203262,0.142742,-0.298733,0.202411,0.308918,0.545452,-0.180602,-0.020109,-0.088122,0.022929,0.02285,-0.154165,0.054164,-0.537094,0.594618,1.33418,-0.120068,-0.18119,0.355855,0.10675,-0.233759,0.443252,-1.155728,0.20321,0.294117
0.474609,3.566042,0.782372,0.005682,-0.007039,0.868028,-0.496432,0.088043,-0.23356,-0.332399,0.610276,-0.144013,0.046767,-0.266705,0.194221,0.276339,0.527529,-0.19617,-0.027846,-0.087041,0.031313,0.021616,-0.146547,0.043946,-0.521237,0.611162,1.312444,-0.063619,-0.157982,0.361461,0.124071,-0.266247,0.470303,-1.143015,0.226674,0.211061
0.465225,3.55367,0.782941,0.006933,-0.009851,0.856748,-0.515594,0.02069,-0.249635,-0.34865,0.771987,-0.096984,-0.129653,-0.236918,0.181955,0.238018,0.511341,-0.212261,-0.036816,-0.084684,0.034881,0.01938,-0.131413,0.03822,-0.4989,0.628371,1.303119,0.001032,-0.138487,0.368072,0.132871,-0.277854,0.497779,-1.135033,0.249396,0.165006
0.455946,3.541381,0.781722,0.00759,-0.011054,0.84585,-0.533252,-0.055041,-0.259283,-0.348564,0.924989,-0.062173,-0.233619,-0.216962,0.17169,0.199283,0.515039,-0.234773,-0.045262,-0.079268,0.033636,0.019587,-0.112956,0.04425,-0.471786,0.630832,1.30486,0.053907,-0.134931,0.372794,0.121353,-0.252059,0.518561,-1.16469,0.251345,0.175937
0.446692,3.529111,0.779605,0.008225,-0.010733,0.83778,-0.54584,-0.147262,-0.230437,-0.306684,1.057692,-0.072564,-0.197307,-0.203351,0.166788,0.168952,0.534866,-0.264993,-0.054054,-0.071284,0.029911,0.023496,-0.087394,0.062622,-0.431567,0.613799,1.312154,0.089958,-0.135499,0.369873,0.093039,-0.203514,0.532601,-1.222776,0.225418,0.231787
0.437751,3.516565,0.777696,0.009813,-0.009207000000000002,0.832382,-0.554039,-0.24611,-0.147521,-0.224967,1.145401,-0.093296,-0.113426,-0.183424,0.164465,0.148507,0.549447,-0.294995,-0.062486,-0.058056,0.026147,0.029985,-0.05027,0.076739,-0.367762,0.583935,1.30573,0.118203,-0.118011,0.353827,0.064821,-0.164974,0.538323,-1.266443,0.188757,0.306375
0.429046,3.503484,0.776699,0.010012,-0.008526,0.829494,-0.558361,-0.331565,-0.05234,-0.145209,1.163875,-0.12171,-0.00484,-0.156893,0.164508,0.138626,0.547586,-0.320764,-0.070532,-0.036112,0.023511,0.035484,-0.011344,0.080741,-0.290727,0.563863,1.291832,0.144195,-0.074913,0.32645,0.041872,-0.144642,0.543538,-1.286349,0.178328,0.381184
0.420566,3.489682,0.776967,0.009887000000000002,-0.009392,0.827912,-0.560692,-0.393607,0.012748,-0.087264,1.11158,-0.137545,0.076655,-0.121955,0.167081,0.13531,0.526299,-0.335485,-0.079039,-0.007865,0.021366,0.037827,0.02716,0.070704,-0.19997,0.567832,1.258773,0.177162,-0.011439,0.298292,0.018766,-0.119168,0.553446,-1.300703,0.176961,0.471574
0.412241,3.474986,0.778542,0.007503,-0.00995,0.826702,-0.562502,-0.432722,0.025582,-0.057376,0.998632,-0.136047,0.098784,-0.081246,0.165761,0.136783,0.488632,-0.340038,-0.087366,0.022686,0.017526,0.036305,0.058666,0.050737,-0.105568,0.595879,1.210226,0.217528,0.050107,0.2758,-0.010014,-0.079208,0.55341,-1.322155,0.154796,0.548455
0.403942,3.459345,0.780777,0.002601,-0.007991,0.825894,-0.563763,-0.453033,-0.02377,-0.076177,0.843778,-0.114955,0.09616400000000001,-0.033666,0.15655,0.143155,0.436641,-0.337926,-0.095545,0.052772,0.009619,0.031742,0.082691,0.030253,-0.026272,0.642234,1.167696,0.269728,0.083544,0.268828,-0.041812,-0.034084,0.53363,-1.351254,0.137451,0.602337
0.395586,3.442739,0.782688,-0.006406,-0.003182,0.82487,-0.565277,-0.453898,-0.117889,-0.15296,0.663778,-0.072044,0.068808,0.018209,0.135867,0.150441,0.371151,-0.331804,-0.103031,0.081625,-0.004266,0.02487,0.109829,0.028144,0.034333,0.682614,1.138589,0.308084,0.07407,0.256631,-0.078676,0.011523,0.514904,-1.372176,0.116845,0.632902
0.387082,3.425086,0.7834,-0.016387,0.004003,0.824358,-0.565817,-0.426858,-0.224839,-0.279798,0.475604,-0.019914,0.024257,0.070712,0.109216,0.15591,0.310055,-0.326026,-0.110592,0.109285,-0.023882,0.01713,0.137797,0.043876,0.06381,0.723379,1.14636,0.332706,0.031504,0.252188,-0.113372,0.054595,0.487337,-1.379457,0.09569,0.652304
0.378266,3.40676,0.782531,-0.023823,0.011599,0.824418,-0.565361,-0.378977,-0.305325,-0.405013,0.310187,0.040667,-0.042088,0.119194,0.085948,0.155875,0.268811,-0.326097,-0.119578,0.134499,-0.045433,0.010221,0.176707,0.077267,0.074943,0.753089,1.178425,0.331001,-0.025227,0.243906,-0.146262,0.089331,0.451397,-1.368482,0.073472,0.671596
0.369334,3.38834,0.780054,-0.027382,0.019449,0.825061,-0.564045,-0.3351,-0.355611,-0.469956,0.220725,0.115468,-0.100364,0.158505,0.06939,0.153956,0.260155,-0.335037,-0.128739,0.155374,-0.064141,0.005285,0.215291,0.115412,0.078226,0.78419,1.224015,0.311365,-0.091466,0.236098,-0.171493,0.121438,0.421397,-1.35091,0.061342,0.679351
0.360263,3.370293,0.775515,-0.028124,0.02644,0.826574,-0.561503,-0.304448,-0.385308,-0.483699,0.227405,0.174222,-0.03651,0.190297,0.059775,0.152171,0.272629,-0.337517,-0.139954,0.171607,-0.077748,0.001337,0.246852,0.153304,0.077637,0.822973,1.271379,0.279852,-0.150699,0.226267,-0.19425,0.146425,0.393797,-1.332959,0.056811,0.682293
0.351463,3.352994,0.776086,-0.028559,0.033837,0.82771,-0.559407,-0.278134,-0.404125,-0.473325,0.246247,0.162369,0.040671,0.217811,0.050683,0.154099,0.288306,-0.31603,-0.144125,0.18298,-0.090008,-0.00336,0.249636,0.195769,0.058984,0.900098,1.332502,0.235257,-0.216267,0.226459,-0.209033,0.148083,0.362335,-1.309651,0.06461,0.653134
0.342014,3.335359,0.78078,-0.029833,0.037766,0.828582,-0.557795,-0.24871,-0.409789,-0.465561,0.254434,0.134605,0.064094,0.219647,0.04852,0.147363,0.348639,-0.261349,-0.132423,0.191034,-0.105071,-0.007919,0.226244,0.242198,0.0123,0.960658,1.420284,0.185716,-0.323515,0.22416,-0.204575,0.132157,0.341312,-1.292064,0.081599,0.576426
0.33266,3.318519,0.784174,-0.030867,0.040251,0.830641,-0.554493,-0.211179,-0.404836,-0.463801,0.239644,0.113048,0.073801,0.18778,0.052946,0.149429,0.453996,-0.185891,-0.082523,0.196184,-0.118295,-0.011975,0.225638,0.282427,-0.034283,1.004341,1.511903,0.135534,-0.390504,0.23032,-0.179952,0.108932,0.330918,-1.271271,0.10468,0.441733
0.324315,3.301999,0.785531,-0.032523,0.042134,0.837668,-0.54358,-0.173396,-0.393087,-0.449193,0.212394,0.095848,0.085566,0.115413,0.061204,0.177854,0.62189,-0.110572,0.055163,0.198763,-0.122917,-0.016093,0.223671,0.292999,-0.040789,1.007619,1.561956,0.108126,-0.419671,0.231772,-0.164101,0.105529,0.339174,-1.251077,0.110311,0.292804
0.316787,3.285487,0.785749,-0.032462,0.043872,0.848901,-0.525727,-0.14199,-0.380439,-0.416102,0.196771,0.073752,0.102259,0.016939,0.072727,0.21387,0.828517,-0.052264,0.179945,0.199022,-0.118503,-0.021065,0.232187,0.279162,-0.015717,0.988527,1.57378,0.09676100000000001,-0.422127,0.226246,-0.166183,0.123263,0.354714,-1.22728,0.098488,0.147523
0.3098,3.269254,0.78509,-0.029405,0.046889,0.85917,-0.508689,-0.110905,-0.373164,-0.38257,0.192497,0.048425,0.117934,-0.095812,0.050235,0.212803,1.03213,-0.071712,0.171939,0.195645,-0.108517,-0.02228,0.219068,0.251508,0.016409,0.957172,1.562753,0.092624,-0.419902,0.225545,-0.175824,0.144718,0.368222,-1.202935,0.069988,0.002484
0.303106,3.25334,0.784648,-0.024775,0.049844,0.865678,-0.497496,-0.071594,-0.369384,-0.36539,0.179979,0.030538,0.131644,-0.21635,-0.013623,0.184458,1.205492,-0.122095,0.080176,0.184265,-0.098722,-0.01896,0.205997,0.226465,0.030179,0.940087,1.551239,0.078974,-0.389042,0.237646,-0.173397,0.149587,0.374783,-1.18419,0.037987,-0.156301
0.296374,3.238094,0.784436,-0.021465,0.051027,0.868666,-0.492295,-0.03616,-0.368018,-0.360323,0.171251,0.013494,0.143785,-0.341214,-0.074023,0.172106,1.33113,-0.166341,-0.028748,0.161587,-0.09083,-0.013934,0.204616,0.218014,0.014354,0.9129100000000001,1.558187,0.050448,-0.331956,0.254088,-0.146497,0.13453,0.390919,-1.181687,0.029087,-0.323573
0.289427,3.223335,0.784475,-0.017933,0.049447,0.869476,-0.491167,-0.00748,-0.365257,-0.36119,0.175882,-0.009641,0.156056,-0.453907,-0.086813,0.185497,1.392401,-0.202573,-0.109137,0.130158,-0.081909,-0.010637,0.168473,0.220529,-0.024625,0.894988,1.593404,0.037765,-0.301868,0.275946,-0.101338,0.109534,0.429558,-1.186982,0.044424,-0.459973
0.282314,3.208906,0.784923,-0.014322,0.044457,0.869092,-0.492441,0.015939,-0.358372,-0.368685,0.185516,-0.03341,0.167426,-0.541625,-0.043739,0.214868,1.382584,-0.223262,-0.134833,0.09567,-0.068955,-0.009631,0.112312,0.224021,-0.06912,0.885408,1.638527,0.038381,-0.292273,0.302105,-0.04578,0.080682,0.484789,-1.171245,0.063297,-0.523827
0.274861,3.194621,0.78578,-0.011911,0.035821,0.86731,-0.496335,0.033696,-0.346429,-0.382861,0.195959,-0.056001,0.177372,-0.594628,0.039589,0.254569,1.297619,-0.221179,-0.131894,0.062486,-0.051284,-0.011273,0.050906,0.220483,-0.107915,0.87256,1.669644,0.03646,-0.286787,0.325123,-0.003376,0.047766,0.540501,-1.152421,0.078192,-0.525628
0.267156,3.180118,0.786733,-0.010235,0.024946,0.864043,-0.502695,0.048166,-0.331718,-0.402928,0.207552,-0.078902,0.186459,-0.60394,0.131033,0.30966,1.135315,-0.199189,-0.095047,0.032091,-0.029448,-0.014773,-0.011553,0.207266,-0.131973,0.858919,1.669468,0.029422,-0.280519,0.352287,0.028457,0.009088,0.58836,-1.129979,0.102889,-0.445275
0.25929,3.164876,0.787332,-0.009039,0.013605,0.859473,-0.51092,0.063727,-0.316893,-0.42765,0.217918,-0.1023,0.196451,-0.571514,0.202053,0.375564,0.913117,-0.158021,-0.040165,0.004256,-0.006067,-0.018744,-0.069356,0.185843,-0.15115,0.854621,1.64822,0.024099,-0.251962,0.388466,0.048734,-0.025669,0.611135,-1.114985,0.140765,-0.281553
0.251473,3.148587,0.787066,-0.00814,0.003608,0.854229,-0.519821,0.081618,-0.305204,-0.452762,0.228865,-0.126485,0.207323,-0.516095,0.236605,0.422701,0.683989,-0.111964,0.005781,-0.020523,0.015558,-0.022102,-0.131652,0.171102,-0.164722,0.825355,1.598685,0.00075,-0.243864,0.406146,0.056908,-0.057528,0.634902,-1.115023,0.190534,-0.059438
0.243784,3.131182,0.785576,-0.007518,-0.00385,0.849839,-0.526975,0.101706,-0.298294,-0.471458,0.24238,-0.152676,0.218219,-0.463481,0.25297,0.429026,0.52235,-0.091058,0.049041,-0.040855,0.03263,-0.024596,-0.18089,0.163834,-0.183817,0.782545,1.539215,-0.020307,-0.227689,0.426831,0.056061,-0.076018,0.644666,-1.138457,0.216597,0.157433
0.235993,3.112572,0.782982,-0.005591,-0.00663,0.847864,-0.530143,0.132981,-0.295852,-0.482553,0.250871,-0.178201,0.228172,-0.42224,0.257833,0.380002,0.456133,-0.07656,0.11141,-0.053805,0.044323,-0.026585,-0.217139,0.16442,-0.206085,0.728203,1.469658,-0.040347,-0.208406,0.455747,0.047312,-0.080788,0.649814,-1.186184,0.206744,0.318803
0.228338,3.092919,0.780042,-0.003367,-0.007978,0.846208,-0.532783,0.171632,-0.294101,-0.495357,0.251052,-0.196094,0.232675,-0.372161,0.264909,0.355706,0.426528,-0.060768,0.093525,-0.064687,0.05455,-0.030316,-0.235894,0.174347,-0.231478,0.659899,1.406384,-0.046923,-0.178612,0.490838,0.046002,-0.097444,0.647635,-1.222271,0.184195,0.40413
0.221106,3.07265,0.777168,-0.000339,-0.012573,0.842663,-0.538295,0.213601,-0.282937,-0.517349,0.238917,-0.193301,0.20588,-0.326703,0.276093,0.356336,0.411478,-0.055856,-0.012276,-0.073141,0.06409,-0.036415,-0.239049,0.185919,-0.252276,0.583887,1.351765,-0.044496,-0.145035,0.525999,0.058188,-0.124979,0.640402,-1.235719,0.163818,0.423128
0.213983,3.052017,0.780373,0.001343,-0.014835,0.839689,-0.542863,0.2446,-0.274874,-0.530399,0.244775,-0.182251,0.086416,-0.291998,0.274884,0.344529,0.410184,-0.077532,-0.04462,-0.077919,0.074337,-0.042985,-0.225491,0.179092,-0.253265,0.514724,1.302154,-0.020987,-0.099808,0.556323,0.070825,-0.160345,0.632008,-1.2302,0.162621,0.39231
0.207577,3.03134,0.785251,0.002417,-0.015942,0.831786,-0.554862,0.247783,-0.266331,-0.523535,0.287491,-0.181101,-0.203348,-0.242477,0.255956,0.326486,0.378999,-0.094747,-0.050848,-0.083627,0.081685,-0.050725,-0.20129,0.149138,-0.248697,0.469684,1.260511,0.007023,-0.055663,0.578788,0.085652,-0.199576,0.627358,-1.217673,0.173488,0.33635
0.201353,3.011636,0.788702,-0.00079,-0.015169,0.815608,-0.578406,0.238493,-0.320694,-0.492782,0.391955,-0.163085,-0.245897,-0.199171,0.222055,0.288984,0.344281,-0.111004,-0.057051,-0.091192,0.076129,-0.060456,-0.183581,0.114638,-0.259298,0.449339,1.243412,0.036288,-0.02811,0.599086,0.116164,-0.247405,0.615177,-1.195795,0.205032,0.293474
0.195219,2.993272,0.79089,-0.003541,-0.011462,0.794307,-0.607398,0.14553,-0.282932,-0.418671,0.548488,-0.177252,-0.247629,-0.166257,0.188137,0.23589,0.333688,-0.136097,-0.065894,-0.098517,0.060605,-0.065211,-0.172803,0.09637200000000001,-0.289744,0.440021,1.237776,0.05024,-0.037112,0.610207,0.141471,-0.265407,0.602181,-1.188607,0.211159,0.31093
0.189697,2.975988,0.790774,-0.004428,-0.007836,0.776319,-0.630276,0.015235,-0.173879,-0.295762,0.710602,-0.228318,-0.245829,-0.151683,0.16657,0.185375,0.362566,-0.176317,-0.069952,-0.101063,0.046058,-0.062278,-0.153734,0.10673,-0.326061,0.417748,1.253486,0.04474,-0.066858,0.598493,0.140613,-0.253006,0.597731,-1.196628,0.190462,0.384616
0.184512,2.95915,0.78905,-0.004261,-0.006559,0.768237,-0.640118,-0.108077,-0.041171,-0.200175,0.838054,-0.262159,-0.202251,-0.139666,0.16154,0.158351,0.39523,-0.21655,-0.081421,-0.090525,0.037621,-0.053676,-0.114848,0.130777,-0.344495,0.37974,1.284595,0.033058,-0.094281,0.555174,0.113279,-0.222361,0.604455,-1.210983,0.176042,0.484645
0.1798,2.942749,0.7871,-0.005684,-0.007092,0.763729,-0.645473,-0.216234,0.038845,-0.139943,0.910148,-0.265475,-0.037676,-0.123859,0.160272,0.144639,0.4117,-0.253523,-0.091354,-0.069382,0.032371,-0.043981,-0.059063,0.137136,-0.330814,0.346897,1.288911,0.019963,-0.09686,0.492809,0.06462,-0.174678,0.612796,-1.244811,0.163279,0.583966
0.175474,2.926687,0.785909,-0.009127,-0.009146,0.760738,-0.648931,-0.311435,0.069115,-0.118595,0.913035,-0.283055,0.056009,-0.105431,0.158971,0.137911,0.410834,-0.276199,-0.100136,-0.039882,0.026983,-0.034199,-0.006443,0.121956,-0.287702,0.354509,1.272838,0.032485,-0.074589,0.425872,0.009718,-0.118788,0.605128,-1.305386,0.152577,0.636537
0.171235,2.910755,0.785767,-0.013916,-0.009214000000000002,0.76086,-0.648702,-0.382905,0.054452,-0.115216,0.851094,-0.274336,0.082858,-0.082623,0.155264,0.143074,0.400188,-0.287687,-0.107743,-0.005691,0.019687,-0.024173,0.040872,0.083762,-0.216216,0.407518,1.234302,0.079478,-0.034836,0.36262,-0.046795,-0.059264,0.587367,-1.382514,0.135931,0.657123
0.166798,2.89493,0.786375,-0.021566,-0.007009,0.764737,-0.643943,-0.430409,0.00527,-0.124506,0.734832,-0.233743,0.051874,-0.062129,0.147013,0.159213,0.389098,-0.292864,-0.114778,0.029431,0.008891,-0.012794,0.080911,0.038636,-0.125212,0.484768,1.19607,0.154129,0.00509,0.302391,-0.094441,-0.012767,0.55686,-1.448063,0.115113,0.671751
0.161874,2.878976,0.787051,-0.031931,-0.004446,0.769776,-0.6375,-0.460638,-0.066677,-0.159872,0.586494,-0.142272,0.024078,-0.046393,0.135193,0.176798,0.379614,-0.294577,-0.121963,0.062923,-0.006701,0.001233,0.103997,-0.006626,-0.025235,0.565672,1.165534,0.246101,0.017462,0.256265,-0.123649,0.010694,0.493035,-1.473705,0.09617800000000001,0.67241
0.15639,2.862452,0.786824,-0.042156,-0.00128,0.773082,-0.632902,-0.466652,-0.139995,-0.20433,0.413842,-0.025434,-0.031074,-0.029387,0.121637,0.189199,0.373269,-0.3031,-0.131004,0.092377,-0.025258,0.016842,0.127906,-0.037728,0.074448,0.631669,1.144433,0.345521,0.022329,0.217159,-0.151529,0.028575,0.420083,-1.475178,0.075977,0.665357
0.150122,2.845053,0.785232,-0.049314,0.003045,0.775667,-0.629206,-0.451783,-0.202472,-0.256667,0.256254,0.049956,-0.146726,-0.008102,0.1113,0.197614,0.376967,-0.319247,-0.142222,0.117772,-0.044807,0.033681,0.154763,-0.060212,0.166235,0.672056,1.115855,0.418252,0.019052,0.191941,-0.178537,0.040693,0.322947,-1.457118,0.050536,0.644908
0.143025,2.827112,0.78289,-0.052781,0.006872,0.779424,-0.624232,-0.43435,-0.249409,-0.306644,0.170557,0.062182,-0.218109,0.012822,0.109044,0.204835,0.394517,-0.334134,-0.154448,0.138897,-0.062275,0.049932,0.172506,-0.066893,0.232648,0.698808,1.108923,0.475103,-0.021557,0.178017,-0.193763,0.055112,0.226979,-1.430738,0.03395,0.584313
0.1355,2.808759,0.78139,-0.051222,0.010608,0.786006,-0.616002,-0.413551,-0.276077,-0.326677,0.168077,0.09115500000000001,-0.224422,0.036008,0.114561,0.216146,0.423773,-0.332699,-0.163839,0.155142,-0.074777,0.062948,0.209253,-0.064065,0.277489,0.72072,1.116486,0.483065,-0.063796,0.168683,-0.193015,0.067277,0.150363,-1.394137,0.027002,0.469918
0.127709,2.789979,0.78385,-0.048704,0.015109,0.795444,-0.603878,-0.384938,-0.292011,-0.346763,0.196077,0.139348,-0.134159,0.056376,0.121925,0.23174,0.470119,-0.312373,-0.164285,0.169259,-0.083995,0.072744,0.251839,-0.064931,0.296818,0.731543,1.125393,0.478382,-0.106762,0.167092,-0.175584,0.070071,0.103721,-1.34483,0.03573,0.310573
0.120307,2.771624,0.78046,-0.046959,0.020654,0.807081,-0.588207,-0.355719,-0.291594,-0.317354,0.222503,0.153378,-0.011451,0.044147,0.13076,0.25047,0.567653,-0.258735,-0.125404,0.17827,-0.091611,0.082576,0.292394,-0.067493,0.297124,0.740009,1.13856,0.455615,-0.154493,0.164132,-0.144479,0.070206,0.087894,-1.265458,0.032727,0.14137
0.113351,2.75418,0.78037,-0.046192,0.026592,0.820054,-0.569799,-0.342072,-0.284731,-0.27078,0.262862,0.109964,0.019187,-0.014009,0.147969,0.272707,0.737273,-0.165629,-0.009002,0.184692,-0.100285,0.093979,0.304614,-0.064108,0.287192,0.771534,1.169716,0.420831,-0.186206,0.162464,-0.115461,0.068195,0.096156,-1.180355,0.013664,-0.014224
0.106556,2.737056,0.780647,-0.045752,0.029856,0.833731,-0.549462,-0.325319,-0.269558,-0.224447,0.289711,0.063409,0.031898,-0.104661,0.165465,0.27918,0.9340020000000001,-0.069166,0.199972,0.190124,-0.107348,0.103923,0.308739,-0.059594,0.250978,0.799453,1.220748,0.374463,-0.204698,0.163938,-0.095564,0.079409,0.128806,-1.149199,-0.005229,-0.136979
0.100127,2.720364,0.781313,-0.044181,0.030347,0.846527,-0.52964,-0.303421,-0.250788,-0.184641,0.303045,0.024874,0.041392,-0.211645,0.165343,0.26416,1.102366,-0.027474,0.216744,0.191931,-0.110366,0.11152,0.300561,-0.045022,0.188543,0.822496,1.297975,0.323355,-0.23381,0.169073,-0.085615,0.103242,0.173239,-1.168003,-0.01545,-0.249576
0.094023,2.704311,0.782238,-0.041969,0.03053,0.855721,-0.514829,-0.279773,-0.238269,-0.15589,0.311453,-0.006034,0.052421,-0.328993,0.121489,0.219281,1.230375,-0.059779,0.154864,0.185802,-0.110164,0.118625,0.277163,-0.025699,0.120822,0.83283,1.380751,0.257643,-0.26407,0.177574,-0.076267,0.123186,0.219936,-1.191815,-0.019535,-0.353027
0.087862,2.688791,0.783157,-0.040709,0.029828,0.859089,-0.509331,-0.257023,-0.234829,-0.145458,0.31637,-0.031879,0.062547,-0.4439,0.052236,0.164292,1.309349,-0.090051,0.062222,0.168352,-0.109269,0.125976,0.237276,-0.007651,0.069176,0.83296,1.453202,0.209628,-0.283501,0.195949,-0.066775,0.126719,0.264704,-1.213412,-0.022276,-0.461573
0.081353,2.673546,0.783902,-0.041503,0.028814,0.858356,-0.510561,-0.235612,-0.238937,-0.149548,0.31896,-0.055755,0.071764,-0.545012,-0.006525,0.123905,1.333767,-0.111407,-0.014963,0.141194,-0.107923,0.132402,0.191282,0.001179,0.030272,0.818291,1.506725,0.189473,-0.293629,0.219559,-0.056783,0.114724,0.314996,-1.241036,-0.012202,-0.552209
0.074478,2.658396,0.784663,-0.044065,0.027226,0.856215,-0.514016,-0.213821,-0.245196,-0.160917,0.315227,-0.076367,0.080246,-0.626744,-0.028081,0.106185,1.301123,-0.130813,-0.064024,0.108289,-0.105848,0.13488,0.13141,0.009192,-0.004764,0.810781,1.558418,0.188365,-0.283523,0.247444,-0.039097,0.085167,0.372935,-1.250197,0.000298,-0.620488
0.067033,2.643085,0.785777,-0.047461,0.023294,0.852739,-0.519655,-0.191282,-0.247719,-0.178659,0.303515,-0.092621,0.087173,-0.679684,-0.012083,0.104097,1.207493,-0.143428,-0.072862,0.07376,-0.10163,0.132116,0.067568,0.020064,-0.043472,0.813159,1.614035,0.189394,-0.244598,0.274068,-0.011158,0.045531,0.443946,-1.232421,0.020085,-0.648889
0.05907,2.627016,0.787303,-0.050989,0.017031,0.849233,-0.525274,-0.162843,-0.244268,-0.200021,0.277485,-0.102918,0.093596,-0.697957,0.027688,0.119408,1.052015,-0.142068,-0.063434,0.040737,-0.094228,0.123993,0.008371,0.02574,-0.083379,0.805801,1.659005,0.193167,-0.198305,0.292323,0.01246,-0.000477,0.528311,-1.206029,0.043248,-0.6202
0.050515,2.609643,0.788662,-0.055587,0.009041,0.845961,-0.530262,-0.12928,-0.236489,-0.222372,0.239353,-0.10981,0.100416,-0.680647,0.089294,0.177626,0.840709,-0.121624,-0.034026,0.011156,-0.083744,0.111085,-0.041767,0.028724,-0.119011,0.784994,1.679558,0.187564,-0.156394,0.306499,0.032624,-0.046834,0.617182,-1.162561,0.076308,-0.506782
0.041337,2.590602,0.788925,-0.059355,0.002493,0.842769,-0.534987,-0.087364,-0.229278,-0.244672,0.198539,-0.120305,0.108945,-0.623079,0.148062,0.285018,0.597933,-0.09344,0.012578,-0.014612,-0.070923,0.095842,-0.07813,0.02716,-0.144387,0.750079,1.662712,0.163446,-0.11617,0.318607,0.043068,-0.087204,0.692468,-1.116064,0.137221,-0.311629
0.031716,2.570422,0.787648,-0.061383,-0.001426,0.838895,-0.54082,-0.043454,-0.225785,-0.267768,0.170643,-0.139016,0.118305,-0.546699,0.168461,0.376447,0.382598,-0.055221,0.043858,-0.035552,-0.058702,0.082383,-0.10604,0.02271,-0.158027,0.705324,1.606083,0.125877,-0.083722,0.331004,0.034481,-0.100323,0.74864,-1.102809,0.2012,-0.057456
0.021874,2.550127,0.784749,-0.060127,0.000495,0.83414,-0.548265,-0.007219,-0.232509,-0.289008,0.182869,-0.173119,0.128277,-0.487906,0.153095,0.36538,0.281612,-0.018756,0.060226,-0.049504,-0.051638,0.075022,-0.129208,0.021876,-0.175164,0.658274,1.531975,0.069613,-0.073177,0.349656,0.01209,-0.083782,0.78348,-1.128194,0.223312,0.189969
0.012378,2.53034,0.780701,-0.054724,0.002607,0.827481,-0.558815,0.011254,-0.242058,-0.311035,0.244318,-0.220326,0.128105,-0.461786,0.142027,0.322716,0.299803,0.036046,0.036424,-0.059852,-0.046781,0.074592,-0.14978,0.02727,-0.190376,0.607901,1.459331,0.027198,-0.063507,0.373234,-0.003775,-0.060658,0.799934,-1.167406,0.192888,0.366358
0.003269,2.511385,0.778407,-0.047285,0.001229,0.820779,-0.569284,-0.009856,-0.252799,-0.31436,0.381939,-0.251116,0.118746,-0.455183,0.147135,0.281151,0.362879,0.029643,-0.004557,-0.066407,-0.038869,0.078891,-0.162217,0.031966,-0.196563,0.5544,1.399027,0.005856,-0.055981,0.396516,-0.001597,-0.063665,0.809302,-1.1878,0.171321,0.440224
-0.006172,2.491978,0.78163,-0.039088,-5.9e-05,0.813641,-0.580052,-0.059167,-0.268717,-0.308306,0.570771,-0.202314,0.05621,-0.435863,0.151997,0.247949,0.4129,-0.01743,-0.024995,-0.068461,-0.029293,0.082941,-0.161126,0.025256,-0.192793,0.50951,1.36611,0.015822,-0.047045,0.418513,0.016508,-0.089353,0.81234,-1.18721,0.185879,0.425384
-0.015932,2.472827,0.783809,-0.030105,-0.001639,0.803015,-0.595196,-0.125524,-0.282463,-0.313713,0.771028,-0.133088,-0.140134,-0.396433,0.149485,0.209362,0.424602,-0.057581,-0.040548,-0.067974,-0.023237,0.084519,-0.152306,0.009093,-0.189151,0.480375,1.366141,0.05535,-0.032144,0.437992,0.043079,-0.109827,0.809768,-1.184059,0.21254,0.383174
-0.026009,2.45369,0.785194,-0.022852,-0.001494,0.789937,-0.61276,-0.194545,-0.299849,-0.30738,0.950185,-0.076791,-0.242748,-0.347014,0.140932,0.169027,0.413742,-0.088966,-0.051058,-0.066169,-0.0216,0.084077,-0.136736,-0.002822,-0.196603,0.460604,1.393241,0.0911,-0.013719,0.4475,0.063353,-0.118623,0.801755,-1.175812,0.222248,0.374187
-0.03594,2.434456,0.786432,-0.015916,-0.000173,0.78203,-0.623038,-0.270363,-0.278187,-0.3013,1.085014,-0.087958,-0.244607,-0.294238,0.139844,0.141641,0.39592,-0.114908,-0.055656,-0.05789,-0.02241,0.083756,-0.10895,-0.007114,-0.198336,0.437657,1.41601,0.121868,0.01072,0.439274,0.062743,-0.110614,0.793052,-1.16752,0.20925,0.404988
-0.04582,2.415176,0.787446,-0.009951,0.00206,0.780011,-0.625683,-0.354064,-0.202203,-0.237122,1.17668,-0.089189,-0.193308,-0.241323,0.147393,0.131859,0.376997,-0.136487,-0.065038,-0.045812,-0.022891,0.084682,-0.066163,-0.007685,-0.187561,0.414394,1.4102,0.139831,0.035738,0.403909,0.041369,-0.096266,0.79056,-1.157779,0.195882,0.458923
-0.055451,2.395886,0.787843,-0.004882,0.003082,0.782417,-0.622728,-0.436886,-0.107097,-0.16551,1.223146,-0.104029,-0.08238,-0.192386,0.163069,0.13647,0.363226,-0.15764,-0.08435,-0.027403,-0.022387,0.086248,-0.017251,-0.000782,-0.170203,0.398026,1.388094,0.146312,0.062918,0.34764,0.007455,-0.072513,0.786905,-1.160487,0.192955,0.492018
-0.064775,2.376658,0.787576,-0.00106,0.002213,0.786136,-0.618048,-0.512486,-0.024407,-0.106859,1.224679,-0.114043,0.019847,-0.147305,0.181745,0.147594,0.351287,-0.179943,-0.103894,-0.00433,-0.02085,0.087478,0.029244,0.011852,-0.151035,0.400466,1.361459,0.154352,0.082794,0.281252,-0.031171,-0.039201,0.784069,-1.18046,0.191516,0.484159
-0.073759,2.357514,0.786958,0.000362,0.000631,0.790553,-0.612393,-0.571059,0.029585,-0.054229,1.17321,-0.124442,0.087468,-0.107028,0.198017,0.162734,0.338663,-0.200309,-0.121964,0.021483,-0.018689,0.088073,0.066618,0.034931,-0.141637,0.431741,1.360611,0.163976,0.08921,0.211939,-0.07003,-0.001671,0.781251,-1.214439,0.194223,0.432285
-0.08255,2.3381,0.786164,2.9e-05,-0.000656,0.795475,-0.605986,-0.606492,0.046898,-0.008384,1.073015,-0.124115,0.121832,-0.069066,0.21067,0.181496,0.325425,-0.219008,-0.138607,0.048617,-0.017362,0.087659,0.09712100000000001,0.057924,-0.130238,0.491394,1.366184,0.174113,0.077632,0.148704,-0.105412,0.032892,0.779141,-1.24777,0.200496,0.377289
-0.091422,2.317954,0.785363,-0.001781,-0.000236,0.800327,-0.599561,-0.616567,0.015054,0.013255,0.933548,-0.105146,0.117625,-0.027184,0.216828,0.203337,0.305896,-0.234967,-0.153752,0.076052,-0.019076,0.08549,0.122149,0.078082,-0.11295,0.576088,1.37409,0.183974,0.034605,0.097602,-0.137227,0.067605,0.76829,-1.270864,0.190536,0.35315
-0.10064,2.296749,0.784289,-0.004746,0.001273,0.803983,-0.594632,-0.600785,-0.048044,0.010696,0.76667,-0.057906,0.084436,0.020085,0.216781,0.223963,0.278521,-0.24801,-0.166213,0.101714,-0.024903,0.080712,0.138841,0.097167,-0.090714,0.673875,1.382296,0.192169,-0.036106,0.05902,-0.164662,0.096923,0.739903,-1.264879,0.162378,0.361431
-0.110325,2.274425,0.782349,-0.007188,0.004145,0.805541,-0.592482,-0.557849,-0.116551,0.000527,0.592308,0.000917,-0.002234,0.073779,0.212751,0.239739,0.248492,-0.261362,-0.177073,0.122657,-0.034031,0.072506,0.148142,0.119456,-0.076873,0.766648,1.403543,0.208874,-0.12773,0.024279,-0.199241,0.126915,0.694058,-1.241686,0.126192,0.393113
-0.120396,2.251321,0.778933,-0.007289,0.007893,0.806674,-0.590899,-0.499112,-0.172995,-0.00672,0.448493,0.030377,-0.09135,0.125347,0.211485,0.251437,0.237657,-0.282702,-0.188871,0.138233,-0.043402,0.061761,0.163941,0.14979,-0.083803,0.863458,1.441793,0.201169,-0.222731,0.002242,-0.230097,0.162315,0.641064,-1.196564,0.087166,0.435553
-0.130665,2.228094,0.774431,-0.006126,0.01208,0.807664,-0.589488,-0.437409,-0.210641,-0.002481,0.359441,0.049398,-0.148377,0.171455,0.21274,0.259887,0.244358,-0.305025,-0.201694,0.148951,-0.052363,0.050763,0.180942,0.192271,-0.126443,0.948892,1.512735,0.153445,-0.339687,-0.013351,-0.264803,0.20128,0.580083,-1.147291,0.058395,0.472875
-0.141044,2.205367,0.769281,-0.006215,0.017507,0.809639,-0.586634,-0.376774,-0.240352,-0.013144,0.318379,0.120401,0.085446,0.212672,0.209251,0.262778,0.256173,-0.30947,-0.199997,0.156485,-0.06162,0.041,0.182525,0.227895,-0.170167,1.017891,1.580117,0.079942,-0.443734,-0.026404,-0.300694,0.234023,0.512043,-1.101455,0.043239,0.483127
-0.150776,2.183261,0.771414,-0.007407,0.024043,0.809014,-0.587251,-0.3378,-0.258524,-0.012319,0.322435,0.088892,0.15489,0.239106,0.204499,0.261947,0.292102,-0.288017,-0.171986,0.159387,-0.072797,0.034544,0.188382,0.247985,-0.197038,1.04953,1.62981,0.021579,-0.507644,-0.030972,-0.322538,0.2469,0.452475,-1.069366,0.050493,0.449821
-0.16095,2.161961,0.774022,-0.006108,0.028921,0.804982,-0.592563,-0.304986,-0.269759,-0.023865,0.347753,0.044924,0.157718,0.229162,0.210204,0.239955,0.385644,-0.228745,-0.092622,0.16185,-0.085499,0.033015,0.210261,0.259593,-0.194033,1.032189,1.660204,0.021552,-0.514924,-0.013612,-0.308465,0.222995,0.415007,-1.043107,0.078841,0.366581
-0.170221,2.141837,0.776929,-0.004853,0.030059,0.804025,-0.593816,-0.264146,-0.269239,-0.035704,0.344429,0.013395,0.153925,0.177226,0.212164,0.202701,0.526439,-0.147237,0.125889,0.164517,-0.092735,0.031692,0.221274,0.262725,-0.188463,1.002283,1.683897,0.03179,-0.481058,0.012451,-0.267741,0.184508,0.406939,-1.028333,0.111934,0.209019
-0.17824,2.122464,0.779729,-0.006687,0.031759,0.80998,-0.585559,-0.220632,-0.265633,-0.029457,0.317082,-0.005065,0.152878,0.095773,0.210271,0.158715,0.707306,-0.074799,0.242078,0.168397,-0.089717,0.028437,0.225825,0.246835,-0.18089,0.967718,1.693371,0.04038,-0.422652,0.030785,-0.228151,0.160042,0.426104,-1.011469,0.124022,0.032715
-0.185398,2.103544,0.780839,-0.007288,0.034828,0.815332,-0.577899,-0.17854,-0.265772,-0.019971,0.296127,-0.025233,0.155957,-0.007662,0.150418,0.117212,0.910844,-0.076648,0.244242,0.166533,-0.081939,0.027318,0.206306,0.222367,-0.167834,0.9547040000000001,1.679204,0.029775,-0.365099,0.051076,-0.212363,0.160472,0.457541,-1.006243,0.113073,-0.13567
-0.192229,2.085,0.781014,-0.00643,0.037944,0.815664,-0.577244,-0.13792,-0.27158,-0.024165,0.284665,-0.048567,0.160402,-0.114809,0.033741,0.047454,1.106861,-0.096496,0.173751,0.15701,-0.075746,0.030204,0.17318,0.195487,-0.148927,0.942137,1.64435,0.014454,-0.327165,0.08,-0.210239,0.174933,0.490548,-1.033385,0.096191,-0.290489
-0.19888,2.066896,0.780642,-0.006084,0.041928,0.811171,-0.583273,-0.096882,-0.284424,-0.043238,0.275703,-0.070935,0.165642,-0.21208,-0.107234,-0.015038,1.260557,-0.129296,0.007863,0.135808,-0.073767,0.036117,0.128087,0.171125,-0.128476,0.929292,1.595916,0.004069,-0.297185,0.117176,-0.197981,0.17391,0.534174,-1.060012,0.084584,-0.418779
-0.205383,2.049205,0.780028,-0.0079,0.045508,0.803472,-0.593548,-0.057434,-0.300887,-0.073209,0.265205,-0.090686,0.171452,-0.302996,-0.222944,-0.038412,1.353202,-0.172317,-0.123436,0.102968,-0.075151,0.041953,0.084317,0.164447,-0.125893,0.910556,1.5564,-0.002238,-0.263168,0.154191,-0.168929,0.15593,0.590885,-1.070949,0.090628,-0.493887
-0.211882,2.031754,0.77961,-0.009399,0.047429,0.795009,-0.604667,-0.017522,-0.312866,-0.1084,0.253174,-0.108702,0.176657,-0.389559,-0.268721,-0.02885,1.383488,-0.219918,-0.209353,0.063867,-0.075098,0.045927,0.022056,0.16144,-0.147822,0.898814,1.539639,-0.001557,-0.221308,0.188844,-0.129398,0.13079,0.661351,-1.064468,0.106533,-0.519007
-0.218401,2.014344,0.77974,-0.009417,0.045639,0.787349,-0.614744,0.021396,-0.314277,-0.14446,0.239137,-0.124985,0.180422,-0.471509,-0.229895,0.013572,1.367302,-0.22198,-0.193244,0.025434,-0.069278,0.047654,-0.043003,0.167754,-0.199207,0.888912,1.55118,-0.004819,-0.178343,0.218316,-0.092773,0.101051,0.734235,-1.044658,0.126027,-0.495819
-0.224918,1.996774,0.780262,-0.009239,0.039258,0.781582,-0.622497,0.053199,-0.305103,-0.17561,0.226605,-0.141473,0.182936,-0.538779,-0.128205,0.07447,1.299085,-0.206089,-0.150839,-0.006287,-0.057071,0.048024,-0.113018,0.179621,-0.264263,0.879415,1.568605,-0.028699,-0.150486,0.244078,-0.066759,0.075323,0.801637,-1.020625,0.155852,-0.408931
-0.231433,1.978725,0.780641,-0.009186,0.030713,0.778583,-0.626722,0.078427,-0.290277,-0.197432,0.219197,-0.161071,0.184959,-0.575997,-0.009283,0.144376,1.17324,-0.19322,-0.081631,-0.030105,-0.040731,0.046976,-0.183756,0.194623,-0.32766,0.867773,1.57281,-0.067563,-0.132603,0.266765,-0.053012,0.055995,0.85446,-0.994697,0.186257,-0.247465
-0.237775,1.95993,0.780602,-0.009064,0.020748,0.776578,-0.629615,0.0996,-0.272551,-0.213926,0.215739,-0.182073,0.18683,-0.576334,0.097639,0.222595,0.984462,-0.177335,-0.015934,-0.048326,-0.022298,0.043951,-0.252641,0.208794,-0.381237,0.850419,1.559539,-0.097243,-0.119222,0.285224,-0.052551,0.048072,0.896483,-0.98058,0.214378,-0.028912
-0.243896,1.93988,0.779735,-0.007882,0.011158,0.774744,-0.632128,0.124027,-0.254279,-0.22819,0.213829,-0.205,0.189123,-0.538531,0.178897,0.316763,0.752156,-0.138771,0.0739,-0.064028,-0.003302,0.038431,-0.313655,0.219154,-0.421549,0.828207,1.527003,-0.116391,-0.108035,0.30741,-0.062792,0.050524,0.92331,-0.984545,0.223441,0.17734
-0.249682,1.918467,0.777696,-0.005657,0.003772,0.772726,-0.634704,0.156677,-0.238839,-0.24241,0.209029,-0.22536,0.19473,-0.484259,0.217343,0.38164,0.538516,-0.099313,0.105219,-0.076336,0.013123,0.031787,-0.362404,0.225108,-0.448775,0.7995,1.484315,-0.117023,-0.09506,0.340659,-0.077294,0.05812,0.935124,-1.005602,0.207559,0.317149
-0.255462,1.895911,0.774202,-0.003382,0.00151,0.770271,-0.637706,0.192319,-0.231718,-0.252419,0.21731,-0.24676,0.200739,-0.440912,0.223334,0.371068,0.424431,-0.073298,0.097313,-0.082781,0.024575,0.025083,-0.396241,0.221688,-0.456368,0.767514,1.432976,-0.094711,-0.087018,0.385576,-0.086118,0.056364,0.937699,-1.028287,0.198996,0.387329
-0.260776,1.873063,0.769974,0.002411,0.000861,0.766069,-0.642753,0.225473,-0.224965,-0.261931,0.245822,-0.253808,0.193182,-0.403682,0.238172,0.359359,0.425426,-0.010811,0.032639,-0.086883,0.033158,0.019148,-0.413187,0.209767,-0.447638,0.728447,1.378059,-0.061511,-0.091394,0.439514,-0.087869,0.057145,0.94414,-1.055146,0.191055,0.405512
-0.266171,1.850409,0.772946,0.009267,0.001643,0.760624,-0.649125,0.237339,-0.223046,-0.268598,0.323246,-0.22462,0.160773,-0.381576,0.247689,0.330944,0.471788,-0.039717,-0.008161,-0.087781,0.040784,0.014639,-0.407069,0.189372,-0.423257,0.679068,1.332108,-0.012738,-0.074503,0.475997,-0.084912,0.064581,0.953887,-1.082833,0.182868,0.4569
-0.27136,1.828143,0.775346,0.016524,0.00285,0.75358,-0.657143,0.211667,-0.22658,-0.280903,0.460842,-0.173846,0.049326,-0.34269,0.248445,0.304378,0.490108,-0.080984,-0.032225,-0.090403,0.047364,0.010558,-0.375058,0.154697,-0.388136,0.632468,1.299345,0.045786,-0.032585,0.494646,-0.078999,0.057881,0.96903,-1.098592,0.187991,0.542882
-0.27645,1.806779,0.777319,0.023818,0.002411,0.737643,-0.674767,0.155653,-0.231509,-0.314466,0.640003,-0.132129,-0.166944,-0.294603,0.236955,0.263343,0.479862,-0.11518,-0.046704,-0.092849,0.047783,0.006664,-0.340783,0.112002,-0.372817,0.601838,1.277946,0.085181,0.022145,0.509753,-0.061189,0.047017,0.968343,-1.117375,0.192199,0.604277
-0.281682,1.786427,0.778267,0.029076,0.004125,0.71723,-0.696218,0.080751,-0.236132,-0.325574,0.824227,-0.099593,-0.24402,-0.248055,0.21956,0.214359,0.465478,-0.143557,-0.064524,-0.09362,0.040922,0.0038,-0.309559,0.086724,-0.386222,0.584062,1.272053,0.099958,0.040484,0.515803,-0.041047,0.048289,0.956612,-1.14378,0.184686,0.637203
-0.286583,1.767125,0.778215,0.03201,0.006576,0.701505,-0.711915,-0.016674,-0.206407,-0.309362,0.987741,-0.110715,-0.244838,-0.215563,0.208559,0.173416,0.469144,-0.174029,-0.081591,-0.089021,0.030524,0.00611,-0.280468,0.099653,-0.42115,0.556935,1.299225,0.098591,0.031628,0.496215,-0.030447,0.054654,0.943157,-1.161746,0.169744,0.671622
-0.291345,1.748497,0.777574,0.035373,0.009062,0.692624,-0.720374,-0.125394,-0.139212,-0.258055,1.114739,-0.112909,-0.203793,-0.184548,0.208923,0.14795,0.47544,-0.20384,-0.099256,-0.079038,0.019931,0.011773,-0.235966,0.129773,-0.4433,0.519981,1.327193,0.084222,0.021518,0.446649,-0.031985,0.077746,0.92695,-1.181839,0.156704,0.719785
-0.295893,1.730322,0.776798,0.036896,0.009491,0.6893,-0.723474,-0.236887,-0.069367,-0.213253,1.190011,-0.11243,-0.109638,-0.156662,0.216922,0.13761,0.478882,-0.233464,-0.116382,-0.062534,0.011525,0.017797,-0.186167,0.159908,-0.444013,0.493932,1.358786,0.095245,0.041089,0.379345,-0.051126,0.112765,0.90746,-1.213068,0.143219,0.742804
-0.299997,1.712527,0.776441,0.035936,0.007883,0.688721,-0.724092,-0.339612,-0.019537,-0.188771,1.197443,-0.123019,-0.021072,-0.132655,0.226256,0.136208,0.4782,-0.25863,-0.131331,-0.038943,0.004217,0.021336,-0.133399,0.171276,-0.420763,0.503159,1.375317,0.117433,0.078142,0.300833,-0.08164,0.153763,0.88341,-1.254746,0.118516,0.740765
-0.303739,1.694774,0.777203,0.032308,0.005298,0.68916,-0.723869,-0.421116,0.003838,-0.172829,1.13019,-0.136233,0.049193,-0.10447,0.232228,0.141411,0.459408,-0.27303,-0.144486,-0.0099,-0.004448,0.021062,-0.083371,0.160169,-0.370332,0.558874,1.369139,0.160238,0.102813,0.226985,-0.114138,0.174471,0.848279,-1.298144,0.116533,0.717021
-0.307138,1.676839,0.779018,0.026507,0.003888,0.692118,-0.721287,-0.466888,0.002413,-0.152598,0.991111,-0.143264,0.088151,-0.069173,0.233002,0.156272,0.424026,-0.27737,-0.155539,0.022548,-0.015842,0.018278,-0.039383,0.139118,-0.29678,0.648079,1.347895,0.215176,0.086479,0.165977,-0.140171,0.173011,0.798227,-1.326918,0.120409,0.67113
-0.310363,1.658522,0.781233,0.018513,0.003203,0.697531,-0.716309,-0.477845,-0.023008,-0.139209,0.79721,-0.109175,0.101875,-0.029687,0.228928,0.179846,0.377776,-0.275645,-0.164857,0.056435,-0.030743,0.014664,0.000276,0.112249,-0.196691,0.742175,1.306177,0.283228,0.039706,0.115654,-0.160492,0.159458,0.736979,-1.34193,0.139071,0.594287
-0.313747,1.63969,0.783025,0.007988,0.0034,0.704864,-0.709289,-0.467781,-0.083462,-0.168916,0.590313,-0.019724,0.082727,0.009919,0.219762,0.209438,0.3288,-0.270906,-0.173394,0.089793,-0.049096,0.011417,0.035911,0.093748,-0.089573,0.823404,1.255753,0.355612,-0.022995,0.071294,-0.177771,0.145768,0.668635,-1.337748,0.159382,0.482819
-0.317309,1.620074,0.783182,-0.001022,0.005042,0.711862,-0.702301,-0.443684,-0.149936,-0.216211,0.412156,0.068194,0.003441,0.049563,0.210829,0.237959,0.292421,-0.274178,-0.182326,0.117908,-0.068462,0.009581,0.083325,0.101548,-0.021515,0.883,1.240224,0.402669,-0.089918,0.030459,-0.198978,0.134313,0.595939,-1.314292,0.163943,0.348899
-0.320915,1.599585,0.781309,-0.006547,0.008204,0.718617,-0.695327,-0.420643,-0.201716,-0.242091,0.307082,0.092583,-0.125174,0.088108,0.205969,0.264035,0.27863,-0.290542,-0.191879,0.136614,-0.085263,0.009638,0.12181,0.129376,-0.000517,0.9317820000000001,1.26605,0.407641,-0.173126,0.000206,-0.214408,0.120642,0.535963,-1.258588,0.149282,0.199861
-0.324354,1.578492,0.777753,-0.006684,0.012178,0.723664,-0.690013,-0.405244,-0.223908,-0.202442,0.288269,0.106063,-0.179735,0.12657,0.207952,0.281972,0.28593,-0.312659,-0.202103,0.14567,-0.095447,0.00948,0.210947,0.155031,-0.012656,0.934347,1.320126,0.36396,-0.229191,-0.021801,-0.216735,0.101468,0.485101,-1.171546,0.1202,0.071785
-0.327567,1.55718,0.772818,-0.007377,0.016814,0.730271,-0.682911,-0.37849,-0.236627,-0.174743,0.302392,0.149693,-0.02387,0.164021,0.205588,0.297866,0.29376,-0.321805,-0.20372,0.153352,-0.102024,0.006411,0.295969,0.168953,-0.008443,0.933165,1.353589,0.302103,-0.261603,-0.028927,-0.21739,0.080755,0.432233,-1.073441,0.088752,-0.026952
-0.32986,1.536209,0.773961,-0.009802000000000002,0.023792,0.738641,-0.673607,-0.343397,-0.24109,-0.140507,0.303116,0.128846,0.07317,0.197396,0.191342,0.309169,0.303688,-0.306024,-0.193262,0.159501,-0.10699,0.000676,0.364211,0.163192,0.018595,0.94387,1.359062,0.254068,-0.302478,-0.026991,-0.227604,0.081098,0.381006,-1.01772,0.064846,-0.118465
-0.332211,1.514543,0.778815,-0.010074,0.031113,0.746325,-0.664777,-0.299677,-0.243138,-0.118979,0.303518,0.093263,0.095719,0.214412,0.184996,0.321948,0.35629,-0.259402,-0.149855,0.165927,-0.113562,-0.004848,0.408319,0.160344,0.028534,0.965146,1.379575,0.212883,-0.377337,-0.015061,-0.231388,0.090812,0.343767,-1.01771,0.057457,-0.241029
-0.334384,1.493555,0.782347,-0.009964,0.036044,0.754014,-0.655793,-0.257776,-0.24065,-0.100168,0.299928,0.058691,0.101868,0.183326,0.190269,0.327609,0.484372,-0.196381,-0.021331,0.172896,-0.119733,-0.010113,0.420261,0.168462,0.011782,0.980238,1.433718,0.170549,-0.470234,0.002842,-0.213667,0.097612,0.341153,-1.041984,0.06408,-0.368071
-0.33607,1.473502,0.784442,-0.011274,0.040842,0.764804,-0.642868,-0.215661,-0.237277,-0.073989,0.284801,0.02882,0.106896,0.115102,0.196567,0.335459,0.660617,-0.125948,0.199716,0.181039,-0.120089,-0.015603,0.412194,0.170931,-0.011204,0.971849,1.49782,0.123623,-0.541877,0.019602,-0.179919,0.103083,0.37379,-1.05328,0.076791,-0.464092
-0.337002,1.454171,0.784595,-0.012988,0.044178,0.778307,-0.626193,-0.178215,-0.23339,-0.039912,0.26696,0.003095,0.114523,0.021523,0.193852,0.305822,0.856215,-0.070357,0.244263,0.188637,-0.113311,-0.020806,0.388282,0.160657,-0.019398,0.945832,1.548322,0.093062,-0.566939,0.025385,-0.152684,0.119392,0.429091,-1.035982,0.086171,-0.504151
-0.337674,1.435497,0.783801,-0.012219,0.049542,0.787788,-0.613829,-0.140732,-0.236415,-0.011552,0.258105,-0.023481,0.123497,-0.090569,0.126846,0.257796,1.040261,-0.091652,0.215861,0.187828,-0.104146,-0.02137,0.35062,0.145211,-0.02218,0.916556,1.585141,0.078867,-0.544704,0.028257,-0.150077,0.151445,0.491955,-1.034906,0.089474,-0.513267
-0.338396,1.4175,0.782857,-0.010078,0.055133,0.791086,-0.609132,-0.100968,-0.245831,-0.000379,0.248238,-0.045604,0.132396,-0.199931,0.018128,0.17941,1.185596,-0.115859,0.089657,0.175798,-0.096604,-0.0179,0.293696,0.133906,-0.031348,0.892178,1.612287,0.06985,-0.471608,0.040244,-0.155968,0.180876,0.551235,-1.047685,0.085382,-0.520718
-0.339385,1.399964,0.78202,-0.009904,0.059377,0.789728,-0.610497,-0.062973,-0.260442,-0.006719,0.235175,-0.063959,0.140566,-0.297804,-0.095357,0.120359,1.272764,-0.137679,-0.04641,0.149901,-0.090521,-0.013517,0.221765,0.129176,-0.053937,0.876988,1.639694,0.07176,-0.370344,0.05972,-0.157005,0.19523,0.611146,-1.069124,0.086847,-0.532038
-0.340601,1.38275,0.781497,-0.010291,0.06165,0.786193,-0.614812,-0.023682,-0.274078,-0.023059,0.215842,-0.078313,0.14842,-0.381921,-0.168745,0.090413,1.303107,-0.170981,-0.130024,0.114252,-0.08382,-0.010785,0.145771,0.131961,-0.08431,0.864951,1.662748,0.071031,-0.270199,0.086648,-0.140739,0.183744,0.678395,-1.069151,0.095791,-0.52451
-0.342188,1.365729,0.781367,-0.009745,0.061576,0.782465,-0.619566,0.016618,-0.281452,-0.043009,0.193263,-0.090744,0.155177,-0.450779,-0.174179,0.093428,1.285611,-0.185353,-0.155323,0.074788,-0.073263,-0.010401,0.069988,0.147176,-0.112454,0.860158,1.677859,0.065998,-0.204572,0.121788,-0.109097,0.150471,0.748153,-1.039047,0.12729,-0.48501
-0.344168,1.348752,0.781489,-0.008757,0.058348,0.77993,-0.62308,0.051353,-0.281077,-0.0611,0.175409,-0.105742,0.160521,-0.501456,-0.120952,0.121333,1.224893,-0.188389,-0.145569,0.036575,-0.057658,-0.011511,-0.009221,0.166306,-0.143648,0.84932,1.671246,0.035134,-0.180509,0.150725,-0.075918,0.098372,0.811573,-0.983979,0.178882,-0.382698
-0.34643,1.331661,0.781684,-0.00756,0.051907,0.778088,-0.625961,0.076781,-0.274065,-0.076226,0.167856,-0.125892,0.164524,-0.529022,-0.031737,0.171206,1.118334,-0.181565,-0.10508,0.002146,-0.038176,-0.014047,-0.091511,0.197635,-0.18851,0.831192,1.652231,-0.022184,-0.178184,0.173005,-0.051885,0.044129,0.855892,-0.922428,0.242389,-0.213438
-0.348908,1.314136,0.781708,-0.006679,0.042784,0.7769,-0.628133,0.0934,-0.262239,-0.087368,0.170096,-0.15092,0.167013,-0.526312,0.070852,0.247292,0.962928,-0.166628,-0.046513,-0.029099,-0.016769,-0.017828,-0.173953,0.24099,-0.250558,0.806214,1.626541,-0.090906,-0.177859,0.192428,-0.050033,0.015817,0.882861,-0.899348,0.308085,-0.008649
-0.351522,1.295658,0.781096,-0.006064,0.033616,0.776549,-0.62913,0.111006,-0.250155,-0.095432,0.173223,-0.177965,0.169631,-0.491971,0.158966,0.34204,0.772295,-0.129863,0.019749,-0.058251,0.00465,-0.023129,-0.249649,0.289103,-0.313977,0.778666,1.582574,-0.150038,-0.183427,0.216095,-0.069526,0.035089,0.902113,-0.933493,0.311167,0.209411
-0.354109,1.276249,0.77942,-0.004442,0.025733,0.776058,-0.63012,0.135708,-0.239144,-0.103748,0.172637,-0.204879,0.1733,-0.446578,0.208231,0.407099,0.596466,-0.096203,0.055047,-0.083965,0.023106,-0.028246,-0.31537,0.339045,-0.381305,0.74831,1.525495,-0.197025,-0.203644,0.248097,-0.09076600000000001,0.047224,0.906453,-0.977123,0.276743,0.388613
-0.356781,1.256094,0.776011,-0.003038,0.021952,0.777478,-0.628519,0.164819,-0.235193,-0.108124,0.17737,-0.237357,0.178352,-0.413832,0.215594,0.381844,0.49193,-0.089769,0.058873,-0.103398,0.035136,-0.032531,-0.366537,0.389276,-0.448586,0.70654,1.464359,-0.217884,-0.232761,0.28693,-0.102033,0.020424,0.896736,-1.002496,0.271965,0.520418
-0.359143,1.235809,0.771148,3.5e-05,0.018408,0.776851,-0.629415,0.194624,-0.230712,-0.115541,0.186942,-0.263183,0.18228,-0.384768,0.216482,0.336518,0.461231,-0.047934,0.006351,-0.119802,0.043719,-0.036065,-0.391593,0.427184,-0.500941,0.643842,1.412027,-0.216868,-0.266251,0.332141,-0.106132,-0.017891,0.873767,-1.02831,0.266263,0.596521
-0.361404,1.216257,0.770956,0.004748,0.013159,0.774117,-0.632887,0.212435,-0.22184,-0.127585,0.218657,-0.275823,0.181853,-0.372333,0.229529,0.316243,0.488221,-0.05076,-0.027499,-0.133432,0.051674,-0.03729,-0.408546,0.452208,-0.522169,0.578587,1.355244,-0.19083,-0.288285,0.367088,-0.098196,-0.05905,0.84828,-1.058035,0.268173,0.632181
-0.363269,1.196398,0.774356,0.010275,0.009616,0.771073,-0.636591,0.212178,-0.216223,-0.133436,0.294833,-0.255766,0.153367,-0.349105,0.235176,0.297605,0.510134,-0.08489,-0.037136,-0.142993,0.061827,-0.034523,-0.409597,0.452116,-0.504304,0.528928,1.297859,-0.13465,-0.279815,0.382156,-0.085294,-0.094104,0.830324,-1.089024,0.275292,0.658185
-0.364707,1.177555,0.777472,0.016085,0.004177,0.765228,-0.643545,0.175323,-0.209125,-0.146077,0.421847,-0.21074,0.079844,-0.311648,0.233682,0.277593,0.494925,-0.108598,-0.040624,-0.149126,0.071686,-0.031024,-0.372355,0.402529,-0.437776,0.492556,1.2472,-0.041597,-0.219749,0.384507,-0.065483,-0.120727,0.812129,-1.122085,0.278056,0.673331
-0.366267,1.160019,0.778988,0.021538,-0.002695,0.752687,-0.658021,0.104319,-0.205835,-0.182632,0.602124,-0.163173,-0.07385,-0.274871,0.227309,0.244671,0.469077,-0.126842,-0.04825,-0.151231,0.076031,-0.028014,-0.331664,0.321814,-0.37204,0.467041,1.217603,0.046446,-0.140244,0.383505,-0.035042,-0.141171,0.785482,-1.156504,0.276994,0.666498
-0.367517,1.143396,0.779174,0.02559,-0.007469,0.737462,-0.674863,0.021184,-0.209441,-0.217539,0.790566,-0.117008,-0.238196,-0.250704,0.2181,0.204313,0.465082,-0.151912,-0.056147,-0.148955,0.072506,-0.023505,-0.293863,0.243076,-0.330233,0.44577,1.199102,0.101628,-0.060123,0.375721,0.00233,-0.160343,0.75113,-1.180461,0.274289,0.638525
-0.36845,1.127405,0.77731,0.027258,-0.010973,0.724874,-0.688254,-0.075727,-0.195138,-0.22362,0.960749,-0.109697,-0.242736,-0.244262,0.211457,0.167534,0.490595,-0.187169,-0.062837,-0.141983,0.062968,-0.014753,-0.258225,0.199434,-0.319761,0.421872,1.206085,0.124754,0.00199,0.348878,0.032472,-0.163945,0.723246,-1.195609,0.265247,0.595299
-0.369167,1.111636,0.775035,0.030145,-0.010424,0.715824,-0.697552,-0.177972,-0.134708,-0.18798,1.099573,-0.106738,-0.196603,-0.232556,0.206876,0.140965,0.521952,-0.22558,-0.06944,-0.130835,0.052022,-0.000868,-0.214651,0.1836,-0.325877,0.40024,1.237482,0.133149,0.042542,0.310087,0.046896,-0.151784,0.702716,-1.207428,0.252579,0.532954
-0.369437,1.09586,0.773364,0.031938,-0.009378,0.711029,-0.702374,-0.279679,-0.048313,-0.14006,1.182478,-0.103547,-0.099401,-0.216446,0.204328,0.126386,0.545794,-0.260097,-0.075012,-0.112505,0.043057,0.016234,-0.167248,0.17567,-0.323688,0.390346,1.270637,0.135837,0.070785,0.261746,0.044872,-0.131806,0.685097,-1.214938,0.231871,0.443741
-0.369072,1.080037,0.772984,0.032497,-0.009032,0.708569,-0.704835,-0.366734,0.032964,-0.101469,1.193135,-0.112768,-0.007144,-0.193372,0.202403,0.121856,0.552186,-0.285184,-0.07883,-0.085042,0.037016,0.030828,-0.115499,0.149752,-0.29452,0.408837,1.27027,0.156463,0.097708,0.218172,0.035173,-0.119636,0.666563,-1.217799,0.21696,0.326136
-0.367949,1.063978,0.774028,0.031578,-0.0101,0.708465,-0.704967,-0.432478,0.086333,-0.067485,1.131384,-0.128945,0.064702,-0.165767,0.201077,0.126968,0.542915,-0.300772,-0.080996,-0.051823,0.03303,0.040162,-0.067148,0.111657,-0.240704,0.468866,1.248772,0.198795,0.106178,0.187327,0.028899,-0.121747,0.641495,-1.209623,0.213247,0.181545
-0.366331,1.047552,0.776655,0.027005,-0.011327,0.710795,-0.702789,-0.468298,0.098057,-0.041998,0.99808,-0.12823,0.088952,-0.134592,0.195297,0.141618,0.515858,-0.30477,-0.082744,-0.015869,0.028346,0.043307,-0.021315,0.062618,-0.156984,0.556797,1.203283,0.258957,0.087869,0.166926,0.027803,-0.134538,0.609179,-1.183435,0.213947,0.046181
-0.364373,1.030719,0.779836,0.019241,-0.01236,0.715516,-0.698222,-0.481908,0.063052,-0.054389,0.819174,-0.090051,0.073202,-0.104937,0.18483,0.162902,0.483071,-0.303777,-0.084431,0.020445,0.020206,0.042004,0.016181,0.01475,-0.056582,0.65655,1.153109,0.338456,0.056849,0.155709,0.031098,-0.146237,0.564118,-1.147684,0.218811,-0.05339
-0.362314,1.013267,0.782448,0.008322,-0.01258,0.723233,-0.69044,-0.470928,-0.008525,-0.128647,0.614502,-0.020447,0.040399,-0.07981,0.169815,0.190828,0.45394,-0.304245,-0.086745,0.054954,0.006917,0.037955,0.060754,-0.017675,0.06514,0.731117,1.092257,0.427593,0.03276,0.131245,0.028911,-0.149267,0.526379,-1.088979,0.214111,-0.100184
-0.360249,0.995057,0.783559,-0.002631,-0.011028,0.732966,-0.680171,-0.437479,-0.070055,-0.222628,0.423532,0.043689,-0.011463,-0.056204,0.153003,0.222705,0.435386,-0.31303,-0.089883,0.084675,-0.009713,0.032973,0.110448,-0.030281,0.149972,0.78495,1.05977,0.476305,0.002287,0.106379,0.011878,-0.133118,0.48705,-1.03168,0.199525,-0.08305
-0.358004,0.9761010000000001,0.782739,-0.008579,-0.008104,0.742606,-0.669624,-0.402957,-0.086334,-0.234047,0.302403,0.079275,-0.053927,-0.032161,0.140691,0.252028,0.439035,-0.334955,-0.091957,0.104412,-0.024659,0.030127,0.179169,-0.015072,0.156773,0.841813,1.101814,0.481544,-0.062439,0.088018,-0.015778,-0.087604,0.450219,-0.996585,0.178848,-0.041451
-0.355718,0.957011,0.780653,-0.009869,-0.003539,0.751056,-0.660156,-0.377501,-0.069393,-0.139467,0.276393,0.122764,-0.062474,-0.008187,0.131388,0.27512,0.461786,-0.351666,-0.092388,0.115222,-0.033964,0.028464,0.25712,0.008367,0.09632,0.874662,1.177557,0.436074,-0.142874,0.067938,-0.054982,-0.029797,0.418492,-0.976559,0.146926,-0.00043
-0.353863,0.938827,0.784271,-0.011245,0.004207,0.758659,-0.651378,-0.35693,-0.071352,-0.085981,0.300542,0.119841,-0.019384,0.015667,0.118489,0.295522,0.492367,-0.343618,-0.095892,0.125965,-0.041059,0.026931,0.330804,0.037792,0.019911,0.897872,1.267069,0.344223,-0.20423,0.058591,-0.09783,0.025081,0.389642,-0.968803,0.112154,0.036581
-0.352367,0.920974,0.786567,-0.010724,0.011602,0.762183,-0.647169,-0.331522,-0.081702,-0.063312,0.324894,0.083998,-0.005717,0.020698,0.111851,0.300605,0.555834,-0.301663,-0.091791,0.13513,-0.047673,0.025646,0.383107,0.06548,-0.04387,0.920531,1.343963,0.237805,-0.254721,0.066544,-0.129032,0.057404,0.362619,-0.958141,0.082541,0.052955
-0.351344,0.903935,0.788329,-0.010832,0.018213,0.763082,-0.645954,-0.303993,-0.095337,-0.052916,0.338733,0.052774,-0.001795,-0.010077,0.113355,0.293473,0.675235,-0.22891,-0.060314,0.141792,-0.055965,0.025495,0.413558,0.088069,-0.078109,0.938846,1.402655,0.161849,-0.314105,0.085809,-0.139772,0.067543,0.350165,-0.941036,0.069728,0.052359
-0.350298,0.887875,0.79027,-0.011414,0.022124,0.763041,-0.645871,-0.269214,-0.107406,-0.049236,0.327001,0.03382,0.005245,-0.070016,0.11969,0.282407,0.826363,-0.152681,0.041024,0.148965,-0.063336,0.024619,0.428729,0.098922,-0.071157,0.939458,1.432042,0.123635,-0.368405,0.109,-0.13104,0.0642,0.36223,-0.92869,0.07984,0.029802
-0.349371,0.873399,0.791315,-0.012513,0.023299,0.763386,-0.645401,-0.239368,-0.115933,-0.048507,0.308671,0.022232,0.013583,-0.14404,0.129925,0.275507,0.969142,-0.0859,0.121814,0.154947,-0.066859,0.023836,0.429435,0.101067,-0.036599,0.927693,1.442823,0.115528,-0.424354,0.128441,-0.11786,0.066387,0.389518,-0.929454,0.09923,0.009619
-0.348614,0.860238,0.792079,-0.013885,0.023163,0.760847,-0.648369,-0.215345,-0.125929,-0.054942,0.291261,0.014125,0.021396,-0.224342,0.117505,0.250864,1.074044,-0.098505,0.112257,0.158971,-0.067422,0.024271,0.408749,0.100059,0.003219,0.907102,1.448056,0.124283,-0.451919,0.146549,-0.116712,0.078467,0.420715,-0.952501,0.125508,0.015153
-0.348246,0.848252,0.792612,-0.015891,0.022038,0.7523,-0.65826,-0.201605,-0.14097,-0.076304,0.283987,0.006412,0.027286,-0.29891,0.077042,0.210643,1.12605,-0.127796,0.078771,0.158436,-0.066892,0.026193,0.364995,0.104407,0.023775,0.884167,1.466474,0.123975,-0.442694,0.170897,-0.129814,0.097859,0.437655,-0.9973050000000001,0.149611,0.057847
-0.348239,0.83696,0.793009,-0.018855,0.021103,0.738342,-0.673833,-0.191567,-0.162278,-0.111996,0.280896,-0.000666,0.031903,-0.356365,0.021974,0.17091,1.118847,-0.149817,0.029237,0.152426,-0.066017,0.028651,0.299406,0.110691,0.034501,0.867146,1.494752,0.119949,-0.387912,0.21486,-0.167444,0.13625,0.421425,-1.078931,0.143955,0.152128
-0.348414,0.826181,0.793573,-0.021878,0.019465,0.720879,-0.692442,-0.182918,-0.185193,-0.157093,0.279601,-0.006623,0.03578,-0.3897,-0.024575,0.145682,1.051911,-0.160935,-0.006277,0.140697,-0.064224,0.030158,0.255989,0.110581,0.039262,0.803351,1.509525,0.118048,-0.304364,0.271719,-0.220172,0.183507,0.357584,-1.179618,0.075028,0.264744
-0.348866,0.815683,0.794502,-0.024431,0.016979,0.701646,-0.711905,-0.173272,-0.205771,-0.207283,0.278364,-0.012073,0.038592,-0.39777,-0.042404,0.153482,0.934281,-0.164128,-0.020465,0.124974,-0.060962,0.029789,0.229625,0.110364,0.048706,0.723443,1.494149,0.10621,-0.19003,0.355856,-0.264386,0.191522,0.243475,-1.223769,-0.023106,0.33801
-0.349424,0.80539,0.795727,-0.025546,0.013662,0.682207,-0.730585,-0.162165,-0.22163,-0.258868,0.278593,-0.018395,0.041041,-0.382527,-0.02935,0.207081,0.784483,-0.15528,-0.005261,0.106608,-0.055323,0.027821,0.206223,0.10517,0.055151,0.631786,1.437676,0.081275,-0.079287,0.453052,-0.297184,0.171146,0.112638,-1.213721,-0.098084,0.358137
-0.349888,0.795323,0.796791,-0.025351,0.010721,0.663456,-0.747709,-0.149027,-0.23431,-0.30857,0.280977,-0.026217,0.044623,-0.349346,-0.007358,0.294162,0.62425,-0.135065,0.012105,0.088173,-0.047388,0.025237,0.186931,0.09968900000000001,0.056605,0.548138,1.34161,0.046925,0.005027,0.548474,-0.347634,0.164478,-0.020875,-1.222493,-0.155257,0.329533
-0.350133,0.785592,0.797113,-0.025101,0.009128,0.646737,-0.762246,-0.135607,-0.24643,-0.351546,0.286623,-0.036261,0.04993,-0.316926,0.003558,0.385228,0.489104,-0.110624,0.035492,0.071448,-0.039005,0.023305,0.166136,0.102197,0.043819,0.482136,1.229783,0.010289,0.049275,0.633934,-0.41687,0.180141,-0.142971,-1.252413,-0.20476,0.279668
-0.350268,0.776242,0.79637,-0.02618,0.009514,0.634114,-0.772738,-0.124219,-0.259694,-0.382537,0.297705,-0.050538,0.056147,-0.295316,-0.000881,0.447729,0.393299,-0.080812,0.056656,0.058356,-0.032946,0.022537,0.132222,0.114225,0.012617,0.439411,1.145221,0.00415,0.056582,0.703974,-0.487339,0.213186,-0.249833,-1.271039,-0.24531,0.210137
-0.350322,0.767259,0.793975,-0.028987,0.013298,0.626592,-0.778695,-0.115207,-0.277295,-0.39914,0.318556,-0.071783,0.061808,-0.288208,-0.01358,0.477868,0.353327,-0.035127,0.109924,0.049238,-0.030265,0.022698,0.099971,0.138633,-0.028205,0.404484,1.096134,0.010061,0.04185,0.758767,-0.55869,0.255643,-0.322887,-1.257928,-0.282125,0.133401
-0.350536,0.759247,0.790953,-0.032762,0.018722,0.621943,-0.782152,-0.102678,-0.294055,-0.408307,0.331219,-0.091635,0.066674,-0.285835,-0.019006,0.503655,0.378426,-0.067389,0.163748,0.041796,-0.031908,0.022741,0.069097,0.166776,-0.069527,0.377861,1.086367,0.028525,0.024948,0.796934,-0.620581,0.299512,-0.360682,-1.224536,-0.309739,0.087327
-0.350591,0.752044,0.789737,-0.03775,0.023388,0.619943,-0.783389,-0.082991,-0.304384,-0.414078,0.317152,-0.095939,0.070985,-0.292865,-0.027882,0.494916,0.417172,-0.102897,0.161927,0.038856,-0.038215,0.022592,0.028449,0.185818,-0.101713,0.376419,1.09695,0.049198,0.013863,0.811173,-0.642004,0.352052,-0.365854,-1.151535,-0.29846,0.106814
-0.350688,0.745588,0.789447,-0.043512,0.026911,0.619508,-0.783321,-0.061883,-0.311079,-0.417648,0.289935,-0.091458,0.074641,-0.299448,-0.034052,0.494468,0.44631,-0.124093,0.153146,0.037904,-0.045714,0.020353,-0.018712,0.186321,-0.114615,0.413912,1.106813,0.084334,0.006817,0.800867,-0.638672,0.387352,-0.361492,-1.114869,-0.258131,0.156153
-0.351103,0.739676,0.789646,-0.048441,0.029096,0.622507,-0.780572,-0.046097,-0.313258,-0.413449,0.26826,-0.090009,0.077204,-0.302326,-0.035429,0.500066,0.461082,-0.133935,0.142662,0.036753,-0.050442,0.01634,-0.06341,0.169674,-0.107621,0.484723,1.116148,0.128663,-0.0009230000000000002,0.773534,-0.632218,0.400307,-0.372364,-1.150941,-0.227755,0.177166
-0.351822,0.734336,0.79028,-0.051469,0.028688,0.627387,-0.776475,-0.036508,-0.309016,-0.40481,0.252768,-0.091969,0.078436,-0.300069,-0.032236,0.507394,0.458376,-0.134608,0.133977,0.034029,-0.051159,0.011038,-0.09419400000000001,0.136988,-0.081778,0.566181,1.117595,0.187731,-0.005236,0.755089,-0.619198,0.417464,-0.377162,-1.162511,-0.218041,0.205404
-0.353001,0.729459,0.791048,-0.052568,0.026449,0.631919,-0.772797,-0.030181,-0.299631,-0.397345,0.241501,-0.096104,0.077834,-0.293919,-0.025324,0.513193,0.44694,-0.133909,0.126233,0.02882,-0.048917,0.006651,-0.114693,0.103766,-0.065118,0.647934,1.130459,0.248814,-0.017343,0.746265,-0.606443,0.431361,-0.380512,-1.143627,-0.211639,0.242275
-0.354461,0.725081,0.791684,-0.052139,0.023314,0.636588,-0.769087,-0.025235,-0.287078,-0.390252,0.233447,-0.101807,0.07616,-0.288043,-0.014651,0.51771,0.435849,-0.132383,0.119112,0.021881,-0.045153,0.004354,-0.128582,0.081196,-0.074464,0.721433,1.151151,0.297605,-0.042938,0.733802,-0.602914,0.43629,-0.388749,-1.141332,-0.208988,0.268203
-0.356087,0.721236,0.791976,-0.05078,0.019994,0.641115,-0.765502,-0.023416,-0.274404,-0.382807,0.233272,-0.110733,0.074312,-0.28444,-0.001165,0.521411,0.429929,-0.131679,0.11255,0.01416,-0.040577,0.004077,-0.136844,0.076573,-0.119725,0.790588,1.185572,0.29143,-0.094009,0.727137,-0.598534,0.432549,-0.401744,-1.156943,-0.210029,0.284079
-0.357764,0.717884,0.791744,-0.049047,0.016736,0.645858,-0.761696,-0.026779,-0.26345,-0.373644,0.244617,-0.124994,0.072624,-0.284786,0.015236,0.525892,0.43272,-0.133987,0.10644,0.005702,-0.035761,0.00527,-0.134303,0.091436,-0.184887,0.83899,1.234721,0.227165,-0.150828,0.724473,-0.591839,0.425663,-0.411867,-1.169274,-0.211716,0.299245
-0.359438,0.714902,0.790938,-0.047842,0.013564,0.650714,-0.757693,-0.03312,-0.254351,-0.363422,0.260628,-0.141876,0.07132,-0.290673,0.03358,0.531553,0.446005,-0.140538,0.100474,-0.003004,-0.03156,0.0069,-0.120204,0.113281,-0.243255,0.862495,1.282917,0.143853,-0.197591,0.71962,-0.587903,0.420987,-0.418924,-1.176325,-0.216293,0.316824
-0.361143,0.712145,0.789323,-0.048285,0.011106,0.655954,-0.753173,-0.042882,-0.249326,-0.351196,0.28135,-0.161768,0.070693,-0.30546,0.053545,0.538995,0.476976,-0.154958,0.094426,-0.011466,-0.028598,0.008447,-0.093538,0.125918,-0.274977,0.863796,1.311064,0.083824,-0.223193,0.709677,-0.591366,0.417843,-0.425683,-1.183979,-0.225037,0.33827
-0.362799,0.709544,0.786947,-0.050595,0.00978,0.660631,-0.74894,-0.055999,-0.250161,-0.338842,0.307071,-0.182588,0.069313,-0.327585,0.071626,0.545192,0.522763,-0.175936,0.08876,-0.017984,-0.027883,0.009705,-0.058794,0.127941,-0.289076,0.853462,1.32349,0.059895,-0.230418,0.697609,-0.602394,0.416613,-0.432582,-1.200071,-0.231098,0.359911
-0.364624,0.706906,0.784044,-0.054371,0.009666,0.662656,-0.746885,-0.070909,-0.257052,-0.331926,0.337151,-0.204346,0.067142,-0.352672,0.083758,0.544459,0.575519,-0.201245,0.082636,-0.020369,-0.029443,0.010764,-0.023719,0.124382,-0.298696,0.840186,1.325733,0.048419,-0.222137,0.693229,-0.613051,0.418599,-0.440736,-1.217192,-0.234637,0.374051
-0.366902,0.704201,0.781144,-0.059274,0.01002,0.661196,-0.747801,-0.085834,-0.26784,-0.334328,0.365916,-0.22377,0.063281,-0.377161,0.088116,0.535963,0.625316,-0.226656,0.076133,-0.018504,-0.033232,0.011748,0.001806,0.12322,-0.312519,0.833589,1.330137,0.038395,-0.206936,0.697769,-0.61903,0.421836,-0.44505,-1.224584,-0.235471,0.374669
-0.369855,0.701395,0.778942,-0.065542,0.010006,0.653329,-0.754165,-0.098916,-0.281742,-0.35205,0.386153,-0.236182,0.057067,-0.398896,0.080522,0.516954,0.664258,-0.250004,0.070971,-0.011487,-0.039118,0.012814,0.010107,0.123811,-0.321652,0.841671,1.338572,0.03177,-0.192117,0.717309,-0.62074,0.421251,-0.445982,-1.222228,-0.229799,0.360308
-0.373566,0.698201,0.778472,-0.070874,0.009072,0.638623,-0.766196,-0.101977,-0.29253,-0.388063,0.386984,-0.236821,0.049076,-0.407913,0.060088,0.483261,0.676962,-0.266605,0.064824,0.000198,-0.04586,0.013798,0.005398,0.122869,-0.320749,0.860541,1.346947,0.04404,-0.191473,0.734395,-0.614775,0.42636,-0.438033,-1.20887,-0.225705,0.332591
-0.378129,0.6945,0.780207,-0.074286,0.007465,0.617084,-0.783348,-0.089998,-0.295593,-0.44574,0.360165,-0.225162,0.026204,-0.398031,0.027543,0.432794,0.656194,-0.273285,0.056227,0.014476,-0.051662,0.014421,-0.009127,0.117495,-0.304602,0.886569,1.354587,0.077477,-0.201314,0.752281,-0.609288,0.431965,-0.424162,-1.197302,-0.219604,0.294922
-0.38343,0.690432,0.783446,-0.075117,0.004351,0.587347,-0.80583,-0.073373,-0.288042,-0.519197,0.322611,-0.214899,-0.03118,-0.372244,-0.011688,0.362881,0.609659,-0.268852,0.046353,0.030116,-0.055391,0.014391,-0.03088,0.109365,-0.28482,0.907583,1.369717,0.124573,-0.201887,0.768498,-0.604104,0.441832,-0.4068,-1.174546,-0.213494,0.243336
-0.38932,0.68606,0.787741,-0.073432,0.001509,0.549628,-0.832174,-0.066667,-0.267206,-0.566138,0.296866,-0.212981,-0.121238,-0.331568,-0.053423,0.275885,0.548762,-0.258097,0.037291,0.042738,-0.05622,0.01415,-0.054994,0.099815,-0.273405,0.9168750000000001,1.389406,0.15997,-0.202335,0.782092,-0.607769,0.449015,-0.392345,-1.165103,-0.208294,0.191481
-0.395131,0.681977,0.796553,-0.070436,0.000189,0.502064,-0.861958,-0.097253,-0.200087,-0.41685,0.314941,-0.225238,-0.138225,-0.281391,-0.097165,0.169503,0.485991,-0.241579,0.030297,0.042713,-0.054171,0.015768,-0.077275,0.092091,-0.271125,0.9061030000000002,1.405992,0.166404,-0.202548,0.788995,-0.620817,0.455861,-0.38151,-1.161479,-0.206752,0.147288
-0.400959,0.678068,0.801138,-0.067736,-0.000662,0.449606,-0.890655,-0.143598,-0.076554,-0.09739,0.373314,-0.25575,-0.06103,-0.230723,-0.137109,0.052867,0.428754,-0.227459,0.025643,0.03576,-0.05073,0.01664,-0.094121,0.087415,-0.26829,0.873389,1.400903,0.140644,-0.198638,0.788476,-0.636758,0.461985,-0.372053,-1.156419,-0.205381,0.121067
-0.406531,0.674001,0.803511,-0.064606,-0.003828,0.398171,-0.915025,-0.150811,0.076283,0.265697,0.428376,-0.257973,0.035436,-0.186258,-0.164509,-0.06293,0.381348,-0.218352,0.022308,0.031091,-0.046384,0.013137,-0.108783,0.089866,-0.265177,0.830573,1.378786,0.099844,-0.192097,0.787838,-0.648008,0.463611,-0.367545,-1.154132,-0.206377,0.106879
-0.411732,0.669753,0.804296,-0.060751,-0.009033,0.348878,-0.935153,-0.116374,0.196982,0.565435,0.454659,-0.232024,0.091345,-0.149951,-0.180435,-0.173817,0.346444,-0.215793,0.019889,0.031636,-0.040742,0.005649,-0.114111,0.09556,-0.259271,0.780365,1.329538,0.053452,-0.177493,0.780622,-0.655497,0.463676,-0.361707,-1.152115,-0.208219,0.101406
-0.416465,0.665627,0.8035,-0.055166,-0.015033,0.30158,-0.951725,-0.089773,0.263881,0.745994,0.470206,-0.192561,0.074137,-0.124138,-0.188625,-0.278055,0.332335,-0.223479,0.019127,0.037324,-0.03428,-0.002111,-0.117777,0.108536,-0.261228,0.730759,1.268925,0.014668,-0.162923,0.772015,-0.65594,0.462754,-0.357407,-1.150204,-0.207786,0.101412
-0.420799,0.661745,0.801104,-0.048482,-0.020596,0.252758,-0.966095,-0.088159,0.293171,0.814651,0.474683,-0.140587,0.065383,-0.102143,-0.194621,-0.381486,0.331042,-0.238227,0.02035,0.045986,-0.027091,-0.008658,-0.125637,0.125921,-0.277233,0.687719,1.211983,-0.014807,-0.147567,0.76633,-0.646202,0.45887,-0.355299,-1.149691,-0.205393,0.101096
-0.424728,0.658436,0.795611,-0.041261,-0.025964,0.20091,-0.978396,-0.097487,0.289471,0.810196,0.431748,-0.074974,-0.024333,-0.079968,-0.200819,-0.487619,0.332432,-0.254175,0.024153,0.055756,-0.018395,-0.014297,-0.137524,0.141197,-0.299006,0.655433,1.166172,-0.024124,-0.126425,0.76375,-0.632324,0.454113,-0.355611,-1.153149,-0.204473,0.09642800000000001
-0.427465,0.655445,0.794759,-0.037063,-0.030006,0.148715,-0.9877300000000001,-0.117915,0.249865,0.727516,0.353792,-0.076112,-0.040063,-0.050588,-0.209133,-0.594342,0.320592,-0.26109,0.030209,0.068014,-0.009902,-0.018816,-0.15058,0.1462,-0.320601,0.63646,1.134907,-0.016509,-0.10262,0.764938,-0.621952,0.44821,-0.357579,-1.155709,-0.207594,0.090135
-0.429929,0.652943,0.795207,-0.035999,-0.034595,0.0943,-0.994291,-0.142997,0.200791,0.629177,0.283985,-0.048751,-0.028926,-0.021059,-0.221065,-0.704632,0.303475,-0.258922,0.037588,0.079218,-0.00463,-0.02284,-0.162305,0.143944,-0.334476,0.629379,1.12146,0.011291,-0.075834,0.766613,-0.61603,0.440859,-0.359821,-1.156036,-0.208493,0.082793
-0.432173,0.650885,0.795755,-0.036493,-0.0388,0.037437,-0.997878,-0.172665,0.152742,0.529343,0.237404,-0.013806,-0.015479,0.009475,-0.235305,-0.819384,0.287771,-0.255015,0.046643,0.089023,-0.003533,-0.026616,-0.171122,0.139052,-0.338639,0.632765,1.118588,0.05157,-0.053827,0.771091,-0.615229,0.436453,-0.358273,-1.156314,-0.210301,0.069027
-0.433911,0.649116,0.795685,-0.036965,-0.042433,-0.020366,-0.998208,-0.212778,0.110163,0.423999,0.230607,0.003398,-0.006136,0.04339,-0.246481,-0.9379630000000002,0.271528,-0.253869,0.057585,0.099725,-0.0038,-0.029138,-0.176874,0.137616,-0.333038,0.640485,1.117478,0.094029,-0.036514,0.774386,-0.621855,0.443117,-0.351546,-1.155723,-0.214105,0.053258
-0.435239,0.647697,0.795254,-0.037271,-0.045084,-0.075706,-0.9954130000000002,-0.254069,0.068358,0.322813,0.245118,0.009025,-0.000312,0.07556,-0.256511,-1.050601,0.263365,-0.254539,0.068485,0.111789,-0.002365,-0.029992,-0.176362,0.144368,-0.318792,0.64548,1.116289,0.130863,-0.027629,0.772218,-0.639626,0.46265,-0.344989,-1.152552,-0.213095,0.032437
-0.436254,0.646605,0.794875,-0.036904,-0.046079,-0.127371,-0.990097,-0.287099,0.025772,0.229103,0.261501,0.011742,0.003719,0.106054,-0.266042,-1.153483,0.26552,-0.253974,0.078365,0.125525,0.001558,-0.029898,-0.167506,0.156526,-0.291014,0.646077,1.108671,0.160259,-0.016584,0.763361,-0.659594,0.492665,-0.335243,-1.136482,-0.211499,0.016876
-0.436845,0.64562,0.79479,-0.036178,-0.046046,-0.172867,-0.983203,-0.309606,-0.014408,0.146844,0.272686,0.017316,0.007354,0.13344,-0.275436,-1.239812,0.276844,-0.250411,0.086418,0.139145,0.007939,-0.029535,-0.150389,0.175027,-0.250113,0.645638,1.099063,0.18632,-0.007337,0.745109,-0.676397,0.520344,-0.321416,-1.120953,-0.206344,-0.004735
-0.437118,0.644759,0.794816,-0.035518,-0.044517,-0.21313,-0.975363,-0.322733,-0.051432,0.074472,0.2794,0.026957,0.012789,0.15523,-0.284591,-1.288481,0.295805,-0.247641,0.093961,0.149995,0.016296,-0.029536,-0.122107,0.192982,-0.187531,0.646591,1.074534,0.216759,0.011405,0.72507,-0.689467,0.541638,-0.309385,-1.116639,-0.205616,-0.027073
-0.437096,0.644254,0.794863,-0.035178,-0.041728,-0.247582,-0.967328,-0.326785,-0.084189,0.012673,0.280857,0.039156,0.019506,0.16879,-0.295769,-1.291286,0.323462,-0.245202,0.101787,0.156505,0.025952,-0.029782,-0.082069,0.210917,-0.109955,0.646239,1.034421,0.246836,0.026349,0.713299,-0.694093,0.556467,-0.302269,-1.118155,-0.200356,-0.05621
-0.436899,0.644172,0.794802,-0.035944,-0.038516,-0.274994,-0.960002,-0.323734,-0.112262,-0.035796,0.277917,0.05086,0.02406,0.182567,-0.304829,-1.287191,0.342739,-0.24392,0.110291,0.161392,0.035459,-0.031014,-0.031733,0.233148,-0.027873,0.644808,0.992599,0.276835,0.043831,0.711387,-0.696261,0.570553,-0.30013,-1.12214,-0.191037,-0.079785
-0.436783,0.644272,0.794527,-0.037852,-0.036519,-0.294604,-0.9541710000000002,-0.31834,-0.135344,-0.069509,0.270901,0.062472,0.027534,0.198752,-0.309549,-1.303978,0.346762,-0.247555,0.11789,0.166184,0.043449,-0.033134,0.028249,0.252347,0.061219,0.644277,0.942211,0.307614,0.060354,0.712855,-0.696229,0.585371,-0.297815,-1.119129,-0.174877,-0.090133
-0.436753,0.644593,0.794006,-0.04117,-0.036911,-0.307044,-0.950088,-0.313231,-0.155302,-0.089474,0.260081,0.073331,0.03079,0.212163,-0.314301,-1.331984,0.342449,-0.259477,0.123129,0.170579,0.048917,-0.035531,0.094684,0.270203,0.149442,0.646133,0.894792,0.334617,0.075199,0.70696,-0.698678,0.600742,-0.29569,-1.110873,-0.160671,-0.102409
-0.436754,0.645153,0.793833,-0.044724,-0.038353,-0.314615,-0.947389,-0.307345,-0.171093,-0.100129,0.246032,0.084146,0.033686,0.220444,-0.320154,-1.352527,0.337357,-0.266932,0.126165,0.173376,0.052546,-0.038199,0.173203,0.282124,0.241291,0.651744,0.847147,0.359189,0.097838,0.686264,-0.704019,0.621359,-0.285497,-1.099508,-0.150066,-0.110582
-0.436803,0.645784,0.794076,-0.048125,-0.040074,-0.319424,-0.94554,-0.302201,-0.183588,-0.104973,0.233053,0.094635,0.036585,0.225244,-0.327747,-1.36682,0.33485,-0.268875,0.12764,0.175638,0.055905,-0.041762,0.244811,0.28097,0.324089,0.668574,0.805444,0.384482,0.115029,0.672442,-0.706286,0.639219,-0.278427,-1.089297,-0.138264,-0.121689
-0.436916,0.646379,0.794616,-0.049933,-0.041371,-0.322587,-0.944316,-0.29871,-0.191147,-0.107498,0.223358,0.104344,0.039317,0.227463,-0.334242,-1.37572,0.33614,-0.265142,0.128254,0.177823,0.059122,-0.045604,0.297953,0.271725,0.392535,0.71167,0.792532,0.417998,0.12624,0.668097,-0.709326,0.652011,-0.278332,-1.085429,-0.134862,-0.143123
-0.437077,0.646773,0.795207,-0.050771,-0.042666,-0.323608,-0.943864,-0.297139,-0.194689,-0.107056,0.215905,0.113156,0.041519,0.227179,-0.338088,-1.379442,0.336092,-0.259797,0.128431,0.178791,0.062279,-0.048268,0.353015,0.250237,0.438546,0.745082,0.792075,0.451484,0.125247,0.664304,-0.711379,0.6576,-0.278553,-1.086426,-0.12742,-0.154289
-0.437406,0.646805,0.795668,-0.050505,-0.043744,-0.323801,-0.943763,-0.297993,-0.194939,-0.105743,0.211417,0.120276,0.042864,0.224924,-0.33887,-1.380135,0.335568,-0.254668,0.127794,0.178399,0.065109,-0.049527,0.413462,0.220606,0.451131,0.765101,0.812234,0.471492,0.102624,0.664695,-0.710644,0.658822,-0.280622,-1.087672,-0.116936,-0.153836
-0.43794,0.646469,0.795851,-0.048964,-0.044745,-0.324157,-0.943675,-0.30139,-0.192905,-0.106675,0.209721,0.124778,0.043148,0.221062,-0.335803,-1.380043,0.333967,-0.251294,0.126773,0.177498,0.067295,-0.049138,0.485522,0.187812,0.419754,0.763414,0.84322,0.468319,0.060484,0.665867,-0.701321,0.657608,-0.282277,-1.092923,-0.106776,-0.148358
-0.438723,0.645848,0.795674,-0.046861,-0.046017,-0.324335,-0.943659,-0.306781,-0.189837,-0.107992,0.209687,0.125461,0.043203,0.215031,-0.332256,-1.37933,0.334319,-0.252165,0.124985,0.176504,0.069061,-0.047401,0.53936,0.154294,0.374123,0.763468,0.877289,0.446562,0.014535,0.672414,-0.692833,0.652859,-0.287223,-1.099781,-0.099882,-0.141736
-0.439777,0.645077,0.795197,-0.044684,-0.047199,-0.324712,-0.9435770000000001,-0.312818,-0.186838,-0.10932,0.21048,0.123474,0.04331,0.20815,-0.330208,-1.378753,0.338353,-0.257135,0.122543,0.176004,0.070331,-0.044997,0.565353,0.12142,0.300679,0.771993,0.932011,0.420066,-0.048315,0.679939,-0.684751,0.647557,-0.291451,-1.107496,-0.096078,-0.132608
-0.44097,0.644231,0.794613,-0.042856,-0.047761,-0.325102,-0.943499,-0.318653,-0.184142,-0.110118,0.212969,0.121841,0.043543,0.202771,-0.327884,-1.378915,0.341443,-0.263678,0.120126,0.17602,0.07085,-0.042389,0.581421,0.099995,0.213679,0.793429,1.005917,0.372084,-0.136831,0.686374,-0.682337,0.643684,-0.296757,-1.112567,-0.095598,-0.121676
-0.442182,0.643476,0.794093,-0.04125,-0.047535,-0.325874,-0.943316,-0.32282,-0.182007,-0.11174,0.215612,0.120996,0.044033,0.199863,-0.325089,-1.380283,0.343312,-0.26904,0.118166,0.176861,0.070362,-0.039905,0.579398,0.094824,0.114469,0.818396,1.103246,0.277536,-0.245296,0.689047,-0.684967,0.643257,-0.300857,-1.113629,-0.096259,-0.113755
-0.443333,0.642866,0.793719,-0.039577,-0.046892,-0.326907,-0.943062,-0.325598,-0.18017,-0.11484,0.21768,0.120713,0.04452,0.198358,-0.321499,-1.382136,0.343891,-0.271883,0.116435,0.178533,0.068858,-0.037638,0.564884,0.095466,0.043285,0.842293,1.191165,0.168338,-0.331682,0.689691,-0.689909,0.646328,-0.306576,-1.114296,-0.096786,-0.110387
-0.444371,0.642361,0.793445,-0.037915,-0.046192,-0.327599,-0.942925,-0.327393,-0.177741,-0.117194,0.218332,0.121038,0.044978,0.196999,-0.317604,-1.383089,0.343771,-0.273516,0.114794,0.180356,0.066519,-0.035663,0.527841,0.083196,0.009401,0.850782,1.255317,0.093249,-0.400771,0.687002,-0.696533,0.652704,-0.308002,-1.114575,-0.095087,-0.11141
-0.445261,0.642018,0.793269,-0.036301,-0.045711,-0.327751,-0.9429590000000002,-0.328298,-0.174908,-0.118722,0.217094,0.121847,0.04539,0.195362,-0.313366,-1.38297,0.342216,-0.273912,0.113373,0.182001,0.063473,-0.034163,0.488534,0.05621,0.013152,0.836276,1.29069,0.063338,-0.420292,0.682105,-0.703968,0.660647,-0.307054,-1.112772,-0.092405,-0.114244
-0.445972,0.641914,0.793169,-0.034653,-0.045626,-0.327121,-0.943244,-0.329688,-0.171693,-0.118964,0.216449,0.121668,0.045783,0.193229,-0.308461,-1.381594,0.338413,-0.272927,0.112406,0.183103,0.060009,-0.033055,0.453423,0.027219,0.027084,0.801287,1.319951,0.06186,-0.38416,0.676385,-0.710912,0.668711,-0.305349,-1.111905,-0.090348,-0.117475
-0.446524,0.642041,0.793114,-0.033045,-0.045793,-0.325588,-0.9438240000000001,-0.331438,-0.167857,-0.117343,0.216726,0.120157,0.046137,0.190634,-0.303117,-1.378547,0.332824,-0.27114,0.111972,0.183543,0.056396,-0.032184,0.418373,0.005145,0.039882,0.754458,1.34606,0.062743,-0.301368,0.677895,-0.717304,0.687033,-0.30861,-1.120079,-0.078399,-0.12492
-0.446964,0.642419,0.793097,-0.031733,-0.046238,-0.322709,-0.944835,-0.333444,-0.16351,-0.112799,0.217851,0.118013,0.046595,0.187107,-0.298678,-1.372913,0.326887,-0.269261,0.111723,0.18346,0.052937,-0.031582,0.392496,-0.004481,0.043184,0.700508,1.376658,0.072936,-0.187846,0.673801,-0.72418,0.698839,-0.308847,-1.122276,-0.070758,-0.130459
-0.44733,0.643042,0.793082,-0.030799,-0.046773,-0.318588,-0.946238,-0.336085,-0.158946,-0.105617,0.220966,0.115362,0.046852,0.182824,-0.296257,-1.364342,0.322848,-0.26805,0.111581,0.182917,0.049792,-0.030888,0.371415,-0.003793,0.042655,0.6531,1.407778,0.08565,-0.07262,0.669954,-0.730325,0.706571,-0.307791,-1.120702,-0.065163,-0.137584
-0.447648,0.643871,0.793052,-0.030129,-0.047308,-0.313205,-0.948028,-0.339038,-0.153604,-0.095375,0.225503,0.111058,0.047082,0.177478,-0.29643,-1.352432,0.322644,-0.267398,0.111212,0.181207,0.047121,-0.029788,0.354594,0.006394,0.045981,0.616132,1.435006,0.098519,0.003253,0.666785,-0.73484,0.711588,-0.304764,-1.119867,-0.062079,-0.145317
-0.447946,0.644863,0.792976,-0.029662,-0.047766,-0.306515,-0.950204,-0.343251,-0.147339,-0.082322,0.233501,0.104637,0.047642,0.17104,-0.298384,-1.337247,0.325307,-0.26734,0.110428,0.177834,0.045154,-0.028019,0.340663,0.023816,0.057008,0.581341,1.450962,0.105993,0.020849,0.663933,-0.737976,0.713546,-0.299889,-1.121271,-0.062713,-0.153596
-0.448297,0.64606,0.792781,-0.029139,-0.048109,-0.298631,-0.95271,-0.351094,-0.139959,-0.066581,0.249394,0.09526200000000001,0.047464,0.163158,-0.301829,-1.319134,0.331165,-0.268283,0.108976,0.17322,0.044213,-0.025473,0.321816,0.044411,0.07576,0.547212,1.448712,0.102838,-0.003629,0.670202,-0.739346,0.70669,-0.299067,-1.131408,-0.069042,-0.160919
-0.448715,0.647552,0.792367,-0.02815,-0.048249,-0.290365,-0.955284,-0.364826,-0.13186,-0.05114,0.277579,0.081518,0.045728,0.154299,-0.30593,-1.299593,0.340097,-0.270464,0.10713,0.168021,0.044255,-0.022456,0.304783,0.070998,0.090774,0.522496,1.431035,0.090044,-0.026368,0.675356,-0.738033,0.698387,-0.296071,-1.139765,-0.075861,-0.1665
-0.449136,0.649522,0.791721,-0.02622,-0.047799,-0.281185,-0.958104,-0.385541,-0.122388,-0.037263,0.322677,0.061368,0.042157,0.144777,-0.309491,-1.277846,0.35197,-0.274267,0.105194,0.162861,0.045116,-0.019512,0.290063,0.108439,0.092529,0.513452,1.412658,0.076916,-0.045315,0.672853,-0.735396,0.682388,-0.287426,-1.138615,-0.090398,-0.168174
-0.449226,0.65216,0.791524,-0.024134,-0.047188,-0.269623,-0.961506,-0.409229,-0.11255,-0.030886,0.381708,0.025359,-0.003539,0.134581,-0.312354,-1.252225,0.362227,-0.277376,0.103549,0.158339,0.045921,-0.01687,0.266288,0.156089,0.083476,0.532983,1.394835,0.057387,-0.070797,0.676075,-0.731553,0.672552,-0.278328,-1.142121,-0.102066,-0.174675
-0.448964,0.655555,0.796464,-0.022558,-0.045881,-0.254444,-0.965735,-0.436012,-0.115858,-0.055793,0.458096,-0.048689,-0.08836,0.124768,-0.314019,-1.220635,0.367099,-0.277042,0.103584,0.155399,0.044793,-0.014854,0.237673,0.207243,0.070823,0.576358,1.384515,0.038519,-0.104439,0.677049,-0.728719,0.667384,-0.266897,-1.140771,-0.113693,-0.18151
-0.448313,0.659546,0.797682,-0.022932,-0.044564,-0.233539,-0.971055,-0.443587,-0.139931,-0.113647,0.543647,-0.117138,-0.097963,0.114454,-0.316422,-1.178403,0.365693,-0.274535,0.104566,0.152772,0.040889,-0.01423,0.208568,0.251994,0.061363,0.639949,1.382759,0.032177,-0.155894,0.669849,-0.731588,0.666265,-0.253915,-1.139023,-0.127372,-0.186232
-0.44739,0.663971,0.797374,-0.023147,-0.042503,-0.209125,-0.976691,-0.43558,-0.154996,-0.14333,0.627965,-0.144649,-0.096319,0.10177,-0.320019,-1.127286,0.36943,-0.273249,0.105807,0.146475,0.036363,-0.015608,0.180859,0.290119,0.053354,0.717185,1.395528,0.043023,-0.220761,0.659036,-0.737436,0.667321,-0.241362,-1.138885,-0.138491,-0.188493
-0.446317,0.668596,0.795313,-0.021539,-0.040034,-0.181499,-0.9823400000000002,-0.412123,-0.154748,-0.148929,0.694363,-0.143457,-0.092389,0.080825,-0.327214,-1.0663,0.393066,-0.280144,0.106579,0.137462,0.032059,-0.018406,0.159636,0.323946,0.042014,0.795301,1.42043,0.060018,-0.282565,0.643837,-0.741028,0.672887,-0.226777,-1.135658,-0.143275,-0.19366
-0.445187,0.673143,0.790188,-0.017684,-0.038045,-0.150433,-0.9877300000000001,-0.376793,-0.14119,-0.141478,0.721482,-0.153022,-0.065859,0.045018,-0.339373,-0.992756,0.445973,-0.294976,0.107073,0.125673,0.028964,-0.019374,0.137184,0.357855,0.004078,0.863891,1.477388,0.06967,-0.346204,0.634334,-0.742529,0.67616,-0.218544,-1.133919,-0.142298,-0.199237
-0.444041,0.677365,0.785826,-0.015657,-0.037473,-0.115953,-0.992424,-0.333191,-0.117828,-0.114116,0.680415,-0.221296,-0.021538,-0.007057,-0.359612,-0.909373,0.521162,-0.307887,0.10038,0.110206,0.026693,-0.017775,0.120957,0.382721,-0.063508,0.912282,1.560905,0.054146,-0.40293,0.629975,-0.749231,0.672404,-0.220612,-1.138516,-0.13799,-0.211421
-0.443704,0.681113,0.779796,-0.015642,-0.036722,-0.081455,-0.995877,-0.292255,-0.090528,-0.059794,0.627725,-0.287315,0.010976,-0.077503,-0.393518,-0.822999,0.631392,-0.29889,0.080875,0.091152,0.024396,-0.011971,0.106692,0.390627,-0.126151,0.937861,1.633345,0.028733,-0.430548,0.632697,-0.754945,0.661363,-0.224514,-1.145191,-0.134881,-0.226233
-0.443471,0.684101,0.778491,-0.018778,-0.036316,-0.051666,-0.997827,-0.268247,-0.072824,-0.002631,0.599915,-0.323346,0.021562,-0.166707,-0.434973,-0.728616,0.765512,-0.25995,0.04902,0.068455,0.019833,-0.001872,0.088721,0.382362,-0.175795,0.951327,1.691725,0.019155,-0.422977,0.648038,-0.750555,0.635627,-0.226811,-1.146928,-0.13022,-0.231314
-0.443503,0.686509,0.776898,-0.021605,-0.034504,-0.027446,-0.998794,-0.25313,-0.058545,0.046533,0.588594,-0.332768,0.021381,-0.258618,-0.466937,-0.639301,0.89093,-0.2058,-0.003522,0.044198,0.013136,0.008975,0.065374,0.366201,-0.205785,0.957702,1.726401,0.031155,-0.380046,0.671013,-0.732078,0.599884,-0.230912,-1.153211,-0.133345,-0.253321
-0.442853,0.688575,0.778112,-0.021138,-0.03249,-0.006318,-0.999229,-0.22847,-0.041928,0.087677,0.559002,-0.324605,0.028226,-0.333843,-0.475584,-0.568957,0.971478,-0.158773,-0.025307,0.022896,0.006326,0.016764,0.036657,0.349245,-0.227296,0.958143,1.745809,0.049922,-0.31185,0.691497,-0.703482,0.567085,-0.229542,-1.174823,-0.142362,-0.275232
-0.441548,0.69035,0.780849,-0.020183,-0.02988,0.016077,-0.9992200000000001,-0.190218,-0.027636,0.128052,0.506655,-0.305842,0.030047,-0.39256,-0.454166,-0.500843,0.99415,-0.145895,1.3e-05,0.00576,0.002236,0.020086,0.010252,0.328959,-0.236064,0.954604,1.741667,0.066591,-0.247881,0.707379,-0.677786,0.540519,-0.225441,-1.189751,-0.157778,-0.288655
-0.439564,0.691703,0.784664,-0.017604,-0.028032,0.041011,-0.9986100000000001,-0.14625,-0.012056,0.17141,0.442865,-0.281592,0.026845,-0.423576,-0.420993,-0.455259,0.9618580000000002,-0.140344,0.019198,-0.006295,1.5e-05,0.0185,-0.012273,0.304794,-0.223968,0.940265,1.704946,0.082116,-0.192612,0.709146,-0.662318,0.52343,-0.217216,-1.200195,-0.179831,-0.285826
-0.437026,0.692368,0.788528,-0.013853,-0.027424,0.066489,-0.997314,-0.105164,0.005328,0.21754,0.383012,-0.258038,0.020821,-0.420778,-0.392887,-0.450468,0.882331,-0.134921,0.013346,-0.014899,-0.001977,0.012616,-0.03382,0.28045,-0.200657,0.916511,1.640011,0.086605,-0.156715,0.699998,-0.653001,0.509588,-0.208037,-1.2086,-0.202039,-0.28021
-0.434026,0.692491,0.791701,-0.010846,-0.027132,0.091989,-0.995331,-0.065295,0.019277,0.265929,0.326861,-0.236577,0.015264,-0.39567,-0.365669,-0.466636,0.773454,-0.129705,0.003759,-0.022841,-0.004735,0.004104,-0.054147,0.257916,-0.176143,0.885653,1.553804,0.081752,-0.138552,0.682814,-0.648906,0.497544,-0.195201,-1.212605,-0.218314,-0.272876
-0.430567,0.692163,0.793602,-0.009791,-0.027419,0.11675,-0.992734,-0.026271,0.026168,0.314736,0.272189,-0.218702,0.010179,-0.365288,-0.327945,-0.468809,0.654284,-0.108848,0.011548,-0.030897,-0.009087,-0.00674,-0.07452,0.240121,-0.159618,0.848357,1.455969,0.068196,-0.126157,0.658768,-0.646524,0.487019,-0.180011,-1.209768,-0.236047,-0.265468
-0.426748,0.691485,0.793204,-0.011115,-0.026676,0.141064,-0.989579,0.014368,0.02459,0.36341,0.219863,-0.206596,0.004867,-0.339788,-0.274927,-0.425937,0.548338,-0.069096,0.02925,-0.039204,-0.016125,-0.018426,-0.09574,0.227705,-0.160201,0.812037,1.366293,0.053958,-0.11627,0.637095,-0.648523,0.473321,-0.168732,-1.209193,-0.252987,-0.250719
-0.422983,0.690268,0.790936,-0.014375,-0.025167,0.167263,-0.985486,0.053603,0.017523,0.414449,0.17353,-0.196728,-0.00222,-0.316878,-0.235831,-0.382469,0.482627,-0.101111,0.015644,-0.045905,-0.026001,-0.030928,-0.114319,0.223427,-0.16262,0.774968,1.287336,0.048811,-0.09576,0.610258,-0.647673,0.459561,-0.157659,-1.21375,-0.271086,-0.239486
-0.419256,0.688763,0.790553,-0.016592,-0.024121,0.194265,-0.980512,0.092546,0.00874,0.466049,0.123779,-0.179439,-0.01098,-0.303007,-0.20594,-0.345898,0.439388,-0.119598,0.008367,-0.051272,-0.036531,-0.042332,-0.133008,0.21826,-0.157783,0.74981,1.219961,0.060785,-0.059097,0.585295,-0.639541,0.450342,-0.148319,-1.220554,-0.286018,-0.236008
-0.416164,0.687304,0.790593,-0.018316,-0.022456,0.219685,-0.97514,0.121962,0.002056,0.514524,0.094106,-0.166113,-0.01927,-0.301273,-0.18116,-0.303589,0.421377,-0.115999,-0.00209,-0.056158,-0.043346,-0.050804,-0.154531,0.206093,-0.148501,0.751216,1.182106,0.102607,-0.01234,0.569519,-0.628701,0.44782,-0.138643,-1.218862,-0.29891,-0.246611
-0.413587,0.685828,0.790857,-0.019284,-0.021752,0.242233,-0.969782,0.139181,0.000814,0.558439,0.084723,-0.159001,-0.027539,-0.301719,-0.157532,-0.263173,0.40727,-0.106581,-0.007811,-0.05969,-0.046053,-0.056708,-0.179561,0.176043,-0.131413,0.783186,1.161992,0.167638,0.028186,0.558098,-0.620296,0.44609,-0.133788,-1.229419,-0.304702,-0.27298
-0.411536,0.684579,0.791335,-0.018711,-0.021342,0.262196,-0.964597,0.151415,0.00367,0.599577,0.08181,-0.152824,-0.035058,-0.297006,-0.133268,-0.228308,0.386476,-0.093862,-0.011202,-0.063786,-0.045625,-0.060887,-0.209286,0.137665,-0.120322,0.835,1.155272,0.243601,0.035814,0.549288,-0.612342,0.449382,-0.136483,-1.243148,-0.300578,-0.277273
-0.409907,0.683564,0.79148,-0.018073,-0.021578,0.281275,-0.959214,0.161998,0.00573,0.639585,0.078553,-0.151277,-0.041454,-0.293178,-0.11054,-0.19567,0.366442,-0.084666,-0.012992,-0.069199,-0.042533,-0.063777,-0.237238,0.105652,-0.136309,0.883324,1.168452,0.301671,-0.001158,0.546007,-0.612277,0.450749,-0.142062,-1.249,-0.298996,-0.268665
-0.408719,0.68275,0.791116,-0.017105,-0.023224,0.299032,-0.953807,0.168449,0.008678,0.674209,0.076774,-0.158065,-0.047073,-0.293922,-0.08881,-0.165983,0.352102,-0.080426,-0.014304,-0.074602,-0.037626,-0.06642,-0.262338,0.08756,-0.184706,0.913599,1.196293,0.315655,-0.056799,0.540982,-0.613356,0.448619,-0.148209,-1.249815,-0.302517,-0.259846
-0.407983,0.682095,0.790504,-0.016194,-0.02614,0.314803,-0.948659,0.170472,0.012509,0.704431,0.076333,-0.168752,-0.051588,-0.299943,-0.068957,-0.140002,0.344515,-0.077522,-0.016187,-0.07915,-0.031404,-0.068949,-0.284669,0.087931,-0.267129,0.92938,1.245262,0.265606,-0.107886,0.53522,-0.610831,0.441617,-0.152291,-1.250778,-0.307703,-0.25882
-0.407622,0.681425,0.789911,-0.015385,-0.029875,0.328122,-0.944038,0.169624,0.017381,0.731448,0.076205,-0.178827,-0.055616,-0.308376,-0.050662,-0.118421,0.340282,-0.07496,-0.01967,-0.082898,-0.024392,-0.071345,-0.303418,0.09445,-0.349856,0.927094,1.290182,0.180099,-0.123849,0.531682,-0.602379,0.430519,-0.153296,-1.249873,-0.311987,-0.263817
-0.407412,0.680752,0.78957,-0.014487,-0.032982,0.33761,-0.940597,0.168552,0.02229,0.751289,0.076127,-0.182717,-0.059167,-0.31496,-0.036076,-0.102895,0.338272,-0.073371,-0.023097,-0.085554,-0.017942,-0.073219,-0.315112,0.096458,-0.415343,0.915239,1.320933,0.111226,-0.110408,0.533706,-0.587906,0.417173,-0.152942,-1.246776,-0.313485,-0.277581
-0.407278,0.680126,0.789466,-0.013178,-0.035041,0.342929,-0.938615,0.168022,0.027324,0.762934,0.076164,-0.18416,-0.061761,-0.317635,-0.025656,-0.094564,0.336227,-0.071996,-0.025169,-0.08736,-0.012542,-0.074404,-0.318379,0.085613,-0.460179,0.903776,1.328825,0.064001,-0.097671,0.542721,-0.572838,0.401909,-0.151398,-1.248193,-0.30895,-0.282781
-0.407151,0.679534,0.789584,-0.01162,-0.036678,0.344539,-0.937983,0.167138,0.032565,0.767001,0.076324,-0.184354,-0.063508,-0.316164,-0.018823,-0.093008,0.330201,-0.069242,-0.026332,-0.088096,-0.007964,-0.075786,-0.315415,0.066667,-0.487199,0.895546,1.316758,0.041995,-0.097329,0.555346,-0.557537,0.386533,-0.153669,-1.251095,-0.308216,-0.284387
-0.406959,0.679009,0.789795,-0.010118,-0.038111,0.343131,-0.93846,0.165722,0.037241,0.764836,0.076458,-0.184245,-0.06443,-0.311984,-0.015472,-0.096776,0.321422,-0.066534,-0.026601,-0.087634,-0.003677,-0.077381,-0.307241,0.045626,-0.509846,0.887567,1.299096,0.031758,-0.105199,0.566596,-0.544241,0.373646,-0.157751,-1.255472,-0.311072,-0.283027
-0.406709,0.678577,0.789934,-0.009197,-0.039471,0.340213,-0.939475,0.163805,0.040293,0.759324,0.076493,-0.184709,-0.06477,-0.308459,-0.015165,-0.102962,0.314272,-0.066001,-0.026236,-0.085723,0.000801,-0.078421,-0.295638,0.024745,-0.53131,0.878262,1.279628,0.024246,-0.112276,0.573276,-0.534203,0.364713,-0.162084,-1.258613,-0.316684,-0.281527
-0.406512,0.678305,0.790008,-0.008766,-0.041092,0.336428,-0.940771,0.160689,0.0422,0.752412,0.076351,-0.185246,-0.064392,-0.308018,-0.016917,-0.110544,0.31137,-0.066231,-0.025973,-0.082456,0.005235,-0.078906,-0.280568,0.005782,-0.550102,0.871929,1.257589,0.019735,-0.114525,0.572809,-0.532529,0.362578,-0.165543,-1.262176,-0.323641,-0.280078
-0.406433,0.678206,0.790052,-0.008683,-0.043158,0.33144,-0.942449,0.155552,0.043504,0.743172,0.076282,-0.185511,-0.063071,-0.310658,-0.020571,-0.120015,0.312512,-0.067422,-0.025747,-0.077931,0.008999,-0.078914,-0.266082,-0.006237,-0.575011,0.868802,1.24252,0.010583,-0.107727,0.569915,-0.535674,0.36361,-0.167066,-1.265755,-0.331299,-0.27718
-0.406511,0.678239,0.790099,-0.008834,-0.04515,0.325164,-0.944538,0.149323,0.044071,0.730838,0.076246,-0.185211,-0.060887,-0.314595,-0.026253,-0.131443,0.316759,-0.069857,-0.025375,-0.072811,0.011647,-0.078015,-0.251983,-0.01259,-0.601055,0.869056,1.232884,0.010079,-0.095424,0.566605,-0.539454,0.366683,-0.167143,-1.268306,-0.334888,-0.274328
-0.40683,0.678341,0.790203,-0.009095,-0.046561,0.317695,-0.947006,0.143008,0.044016,0.715275,0.076208,-0.183866,-0.058179,-0.318067,-0.033679,-0.14472,0.322544,-0.07279,-0.025042,-0.067841,0.012929,-0.076284,-0.236592,-0.014361,-0.622558,0.86861,1.215438,0.006316,-0.095786,0.557394,-0.545293,0.374222,-0.160646,-1.267191,-0.337027,-0.270658
-0.407388,0.678478,0.790396,-0.009727,-0.047366,0.309187,-0.949771,0.136552,0.042936,0.697005,0.076332,-0.181445,-0.055127,-0.320028,-0.043198,-0.159783,0.327603,-0.075605,-0.024488,-0.063189,0.013347,-0.074099,-0.225672,-0.010957,-0.636892,0.869257,1.195626,0.007497,-0.107265,0.55424,-0.550814,0.37986,-0.157441,-1.266529,-0.337364,-0.265239
-0.408193,0.678643,0.790695,-0.010521,-0.047737,0.299331,-0.952896,0.129464,0.041419,0.675514,0.076791,-0.177893,-0.051682,-0.319616,-0.054659,-0.177936,0.330307,-0.078202,-0.023582,-0.05866,0.01305,-0.071769,-0.219323,-0.006376,-0.637343,0.870156,1.16463,0.014395,-0.126616,0.555092,-0.554728,0.382518,-0.157275,-1.265876,-0.333925,-0.259986
-0.409261,0.678809,0.79101,-0.011525,-0.047674,0.287355,-0.956568,0.121312,0.039562,0.649407,0.078057,-0.173944,-0.04786,-0.318853,-0.068978,-0.19983,0.335325,-0.082455,-0.022223,-0.053966,0.011815,-0.069277,-0.223046,0.002485,-0.641161,0.870275,1.141454,0.025257,-0.145375,0.558647,-0.557339,0.383821,-0.159237,-1.262884,-0.330027,-0.251326
-0.41054,0.679036,0.791258,-0.013011,-0.046856,0.272411,-0.9609510000000001,0.11179,0.036415,0.617101,0.081187,-0.170998,-0.043252,-0.317954,-0.0881,-0.225761,0.344951,-0.089189,-0.019615,-0.049114,0.009878,-0.066446,-0.231737,0.014767,-0.647291,0.867527,1.124382,0.039131,-0.161609,0.565916,-0.559481,0.383239,-0.160301,-1.24951,-0.32653,-0.225833
-0.412024,0.679343,0.791372,-0.015298,-0.045471,0.253572,-0.966126,0.099095,0.031437,0.576861,0.088438,-0.170307,-0.037422,-0.317866,-0.113817,-0.256454,0.36118,-0.098736,-0.015233,-0.044601,0.007461,-0.062818,-0.243004,0.032153,-0.657436,0.859895,1.119477,0.053739,-0.166325,0.578414,-0.563397,0.377809,-0.166487,-1.218784,-0.325371,-0.169918
-0.413702,0.679625,0.791306,-0.018405,-0.043514,0.23036,-0.971958,0.082657,0.02443,0.527707,0.102248,-0.172626,-0.030659,-0.318356,-0.146824,-0.29259,0.38446,-0.110304,-0.009095,-0.040576,0.004515,-0.058036,-0.252946,0.04993,-0.661248,0.848029,1.115164,0.065549,-0.159605,0.597467,-0.568251,0.365103,-0.185321,-1.17608,-0.321184,-0.079148
-0.415468,0.679686,0.790987,-0.022648,-0.040504,0.202549,-0.978172,0.063997,0.013884,0.470211,0.123374,-0.178625,-0.023172,-0.320701,-0.188673,-0.331768,0.419995,-0.122579,-0.000364,-0.037156,0.001331,-0.052264,-0.261552,0.067252,-0.657644,0.835524,1.10855,0.079666,-0.1486,0.618071,-0.572715,0.349486,-0.220626,-1.110883,-0.316846,0.04227
-0.41729,0.679225,0.790539,-0.027032,-0.036246,0.171401,-0.984163,0.045175,0.001927,0.407136,0.151674,-0.18915,-0.01639,-0.32873,-0.234953,-0.363493,0.473615,-0.124662,0.005562,-0.035623,-0.002316,-0.045554,-0.269092,0.086514,-0.646217,0.822122,1.096168,0.091894,-0.137056,0.62934,-0.578671,0.327769,-0.269448,-1.034087,-0.316514,0.168204
-0.419042,0.677834,0.79028,-0.032364,-0.031182,0.137512,-0.98948,0.030947,-0.014463,0.339777,0.175095,-0.197901,-0.010924,-0.342864,-0.281384,-0.376162,0.540493,-0.113275,0.005611,-0.037123,-0.006624,-0.039028,-0.274195,0.107375,-0.628229,0.807822,1.081244,0.105653,-0.117357,0.631638,-0.57952,0.28872,-0.314068,-0.945987,-0.302581,0.285256
-0.420326,0.674822,0.79134,-0.036002,-0.026638,0.099158,-0.994063,0.023035,-0.029738,0.264079,0.185689,-0.197739,-0.008252,-0.366153,-0.298616,-0.32424,0.608319,-0.106067,-0.048244,-0.04315,-0.010541,-0.034244,-0.277794,0.131398,-0.606884,0.796841,1.066573,0.119137,-0.101315,0.624305,-0.559963,0.237057,-0.33759,-0.831197,-0.255306,0.387977
-0.420358,0.670738,0.791627,-0.036048,-0.022482,0.053367,-0.997671,0.020089,-0.040074,0.174891,0.18595,-0.188809,-0.008233,-0.397648,-0.236137,-0.147244,0.666936,-0.130899,-0.052581,-0.053236,-0.011379,-0.032002,-0.280685,0.156372,-0.584321,0.791226,1.056097,0.134629,-0.087346,0.605304,-0.522419,0.180096,-0.334728,-0.706984,-0.177243,0.472505
-0.419864,0.665734,0.79178,-0.034213,-0.019866,0.003677,-0.99921,0.012238,-0.046942,0.077518,0.189562,-0.179864,-0.010315,-0.396234,-0.117388,0.086398,0.686012,-0.17016,0.010171,-0.058715,-0.010467,-0.032614,-0.28864,0.180064,-0.565232,0.792015,1.050715,0.149957,-0.0828,0.576157,-0.484839,0.11748,-0.311422,-0.629393,-0.10185,0.522571
-0.418965,0.659925,0.791747,-0.032068,-0.019838,-0.05206,-0.997932,-0.014877,-0.055777,-0.030076,0.218748,-0.180722,-0.014595,-0.34759,-0.020298,0.287246,0.646561,-0.189447,0.073661,-0.055548,-0.009322,-0.034213,-0.306568,0.201131,-0.550939,0.794595,1.051806,0.161319,-0.092156,0.552954,-0.446481,0.055403,-0.266979,-0.611441,-0.03797,0.514439
-0.417986,0.653615,0.789945,-0.030178,-0.019348,-0.11147,-0.993121,-0.058564,-0.073436,-0.143549,0.281254,-0.195007,-0.02094,-0.283272,0.014713,0.401018,0.583209,-0.204644,0.094578,-0.045037,-0.009459,-0.03306,-0.332154,0.224191,-0.544402,0.793243,1.068989,0.167287,-0.117275,0.535132,-0.423962,0.014386,-0.200657,-0.672893,0.019374,0.435795
-0.417392,0.646763,0.784853,-0.029102,-0.01773,-0.172317,-0.9844520000000001,-0.11891,-0.106693,-0.256564,0.383836,-0.226944,-0.029089,-0.236039,-0.015827,0.359647,0.540681,-0.275184,0.094426,-0.024574,-0.012454,-0.024864,-0.362753,0.248575,-0.533054,0.781269,1.089713,0.168341,-0.14351,0.516034,-0.410922,0.012611,-0.113605,-0.764678,0.095141,0.323244
-0.417019,0.640071,0.780077,-0.025067,-0.014715,-0.230909,-0.972541,-0.180518,-0.146738,-0.364442,0.498782,-0.261246,-0.041279,-0.205969,-0.055392,0.241875,0.524534,-0.335072,0.089414,-0.001582,-0.014074,-0.012642,-0.393568,0.27023,-0.504561,0.761835,1.10373,0.172144,-0.147421,0.487226,-0.409052,0.056342,-0.004849,-0.874658,0.174695,0.207879
-0.416478,0.633142,0.775789,-0.017632,-0.011222,-0.285924,-0.958024,-0.236022,-0.181608,-0.452618,0.602324,-0.281254,-0.059372,-0.196962,-0.075943,0.128624,0.546215,-0.363101,0.08125,0.017429,-0.012327,0.000803,-0.408952,0.292198,-0.439279,0.733654,1.095538,0.189906,-0.116579,0.425058,-0.411562,0.129689,0.153067,-0.96208,0.234224,0.130971
-0.415251,0.627073,0.773855,-0.012902,-0.006973,-0.335678,-0.941862,-0.280673,-0.199438,-0.480736,0.668889,-0.274922,-0.097627,-0.178903,-0.09825,0.022685,0.555511,-0.380809,0.0764,0.031791,-0.007501,0.010201,-0.390007,0.293762,-0.336381,0.6993,1.058333,0.22462,-0.059406,0.34366,-0.408078,0.20166,0.36829,-1.02525,0.26152,0.103792
-0.412833,0.622393,0.778572,-0.009856,-0.003238,-0.388865,-0.921236,-0.332688,-0.178613,-0.406848,0.696932,-0.259032,-0.18122,-0.13312,-0.122628,-0.089034,0.522337,-0.379496,0.075064,0.036952,-0.002361,0.01507,-0.337673,0.271245,-0.208745,0.649428,0.98383,0.26053,0.015376,0.255271,-0.383804,0.246503,0.61239,-1.050451,0.286109,0.140704
-0.409821,0.619469,0.781836,-0.008035,-0.001663,-0.445715,-0.895137,-0.384756,-0.131825,-0.263486,0.701289,-0.265677,-0.199065,-0.068875,-0.145098,-0.212125,0.457968,-0.364402,0.077723,0.039378,0.001781,0.014561,-0.282249,0.231937,-0.091587,0.602355,0.882313,0.273889,0.080784,0.19113,-0.352962,0.286216,0.814689,-1.08206,0.305867,0.242728
-0.406663,0.618318,0.78451,-0.006959,-0.002428,-0.500565,-0.865668,-0.424456,-0.063158,-0.065541,0.697216,-0.270177,-0.16393,0.0002,-0.160346,-0.339307,0.382057,-0.342998,0.084883,0.043528,0.0054,0.008802,-0.23154,0.210152,-0.008009,0.570621,0.782558,0.271277,0.118181,0.153739,-0.327232,0.349135,0.932171,-1.136753,0.279651,0.371527
