hanqing-shi/Humanoids-Motion-Generation/dataset/data_joint/walk/walk3_subject4_seg3.csv
root_x,root_y,root_z,root_qx,root_qy,root_qz,root_qw,left_hip_pitch_joint,left_hip_roll_joint,left_hip_yaw_joint,left_knee_joint,left_ankle_pitch_joint,left_ankle_roll_joint,right_hip_pitch_joint,right_hip_roll_joint,right_hip_yaw_joint,right_knee_joint,right_ankle_pitch_joint,right_ankle_roll_joint,waist_yaw_joint,waist_roll_joint,waist_pitch_joint,left_shoulder_pitch_joint,left_shoulder_roll_joint,left_shoulder_yaw_joint,left_elbow_joint,left_wrist_roll_joint,left_wrist_pitch_joint,left_wrist_yaw_joint,right_shoulder_pitch_joint,right_shoulder_roll_joint,right_shoulder_yaw_joint,right_elbow_joint,right_wrist_roll_joint,right_wrist_pitch_joint,right_wrist_yaw_joint
0.656268,0.300411,0.650475,0.250391,-0.286703,-0.652371,-0.655376,-1.548249,0.167506,-0.104986,0.940128,-0.281654,-0.247716,-1.58153,-0.335673,0.100701,1.044538,-0.319042,0.247295,-0.03825,-0.018408,0.505692,-0.181255,0.165968,-0.571132,-0.306103,1.223772,-0.029455,0.040006,-0.088909,-0.198405,0.589254,-0.384239,-1.285299,0.116485,0.24528
0.656272,0.300202,0.650225,0.250068,-0.286513,-0.652218,-0.655735,-1.548928,0.167894,-0.104654,0.941647,-0.282256,-0.247717,-1.582457,-0.335194,0.10081,1.045667,-0.319473,0.247346,-0.038206,-0.018452,0.505692,-0.181577,0.166516,-0.57098,-0.30474,1.2243,-0.030515,0.050219,-0.089493,-0.198261,0.589086,-0.383187,-1.289403,0.120187,0.240666
0.656299,0.299936,0.650029,0.24992,-0.286566,-0.652002,-0.655983,-1.549924,0.16837,-0.103466,0.942485,-0.282982,-0.247718,-1.5838,-0.334897,0.100647,1.046301,-0.319787,0.247391,-0.038233,-0.018382,0.505692,-0.181926,0.167295,-0.571678,-0.302971,1.226541,-0.03157,0.059295,-0.089595,-0.198075,0.588965,-0.383528,-1.296881,0.1253,0.236846
0.656355,0.29965,0.649895,0.249963,-0.286716,-0.651865,-0.656037,-1.551164,0.168724,-0.101629,0.942807,-0.284006,-0.247719,-1.585221,-0.335043,0.099902,1.046541,-0.320121,0.247432,-0.038305,-0.018179,0.505691,-0.181979,0.167291,-0.572884,-0.301661,1.226746,-0.03242,0.067844,-0.089306,-0.198242,0.589133,-0.38565,-1.307099,0.129596,0.231909
0.656437,0.299396,0.649814,0.25014,-0.28686,-0.651728,-0.656043,-1.552575,0.16918,-0.099495,0.943178,-0.285501,-0.247721,-1.58644,-0.335517,0.098429,1.046455,-0.320548,0.247472,-0.038406,-0.017707,0.505691,-0.181404,0.167178,-0.574065,-0.301108,1.224257,-0.033174,0.075341,-0.088109,-0.198179,0.589979,-0.388917,-1.314269,0.131478,0.226577
0.656543,0.299216,0.64981,0.250491,-0.286894,-0.651558,-0.656063,-1.553931,0.169865,-0.09755,0.943506,-0.287198,-0.247723,-1.587217,-0.336075,0.096134,1.046075,-0.321207,0.24751,-0.038559,-0.017054,0.505691,-0.18059,0.167513,-0.575012,-0.30098,1.219544,-0.034065,0.081982,-0.08671,-0.198626,0.591138,-0.392177,-1.319574,0.131641,0.222179
0.656697,0.299134,0.649943,0.250734,-0.286753,-0.651528,-0.656062,-1.554446,0.170466,-0.095915,0.943405,-0.288755,-0.247724,-1.587005,-0.336869,0.093038,1.045347,-0.322439,0.247561,-0.038515,-0.016336,0.505691,-0.179929,0.1687,-0.576241,-0.300895,1.21319,-0.03524,0.086664,-0.085019,-0.198755,0.592249,-0.39488,-1.320849,0.130606,0.218188
0.656899,0.299177,0.650278,0.251009,-0.286406,-0.651481,-0.656155,-1.553895,0.171391,-0.094983,0.94238,-0.289782,-0.247725,-1.58573,-0.337448,0.089052,1.044066,-0.323736,0.24761,-0.038378,-0.01597,0.505691,-0.180781,0.170866,-0.57724,-0.300106,1.204804,-0.035982,0.087361,-0.084619,-0.198982,0.593242,-0.394858,-1.322456,0.129735,0.216927
0.657098,0.299332,0.650915,0.2512,-0.285761,-0.651381,-0.656461,-1.551824,0.172759,-0.094704,0.940024,-0.289885,-0.247726,-1.582706,-0.337752,0.085384,1.041026,-0.323241,0.247616,-0.038067,-0.015815,0.505691,-0.185081,0.173,-0.577612,-0.29723,1.185504,-0.035041,0.077574,-0.083398,-0.195998,0.593316,-0.391741,-1.326065,0.133952,0.205807
0.657331,0.299603,0.652022,0.251346,-0.284643,-0.651197,-0.657074,-1.547214,0.17512,-0.094614,0.934976,-0.288688,-0.247738,-1.577011,-0.337336,0.080839,1.035291,-0.321301,0.247654,-0.037526,-0.016078,0.505713,-0.1875,0.172462,-0.576057,-0.29165,1.134486,-0.033989,0.048374,-0.074895,-0.189723,0.596638,-0.385282,-1.342769,0.139577,0.183645
0.65761,0.299998,0.653648,0.250778,-0.283325,-0.65115,-0.657907,-1.539206,0.177631,-0.093253,0.927129,-0.286467,-0.247739,-1.568711,-0.336895,0.075467,1.027355,-0.319278,0.247671,-0.036238,-0.016715,0.505713,-0.191383,0.169247,-0.568239,-0.28799,1.067083,-0.021146,0.005817,-0.068534,-0.184727,0.602151,-0.375526,-1.372469,0.143761,0.16119
0.657825,0.300543,0.655764,0.249721,-0.28192,-0.651109,-0.658952,-1.528264,0.180037,-0.090778,0.916528,-0.283695,-0.247739,-1.558295,-0.33639,0.070491,1.017389,-0.316432,0.247681,-0.034538,-0.017821,0.505713,-0.193902,0.164234,-0.552471,-0.292293,0.997441,0.004365,-0.029891,-0.065102,-0.18327,0.611215,-0.364637,-1.407666,0.132874,0.146111
0.657937,0.301184,0.658396,0.248082,-0.279917,-0.651258,-0.660276,-1.513866,0.182139,-0.088088,0.9029,-0.279727,-0.247739,-1.544341,-0.335652,0.066118,1.004544,-0.311816,0.247677,-0.033016,-0.019278,0.505712,-0.194829,0.16161,-0.529746,-0.30163,0.959125,0.030174,-0.038912,-0.065565,-0.183199,0.620288,-0.349904,-1.437236,0.113121,0.15716
0.658079,0.301891,0.661463,0.245837,-0.277055,-0.651625,-0.661959,-1.496354,0.184249,-0.087985,0.88703,-0.273018,-0.247739,-1.526466,-0.334439,0.060565,0.988963,-0.306759,0.247684,-0.031526,-0.021466,0.505711,-0.191873,0.159151,-0.50192,-0.308921,0.959421,0.056433,-0.024003,-0.072884,-0.184343,0.626945,-0.339101,-1.449179,0.087293,0.191495
0.658193,0.302698,0.664896,0.243123,-0.273532,-0.652185,-0.663872,-1.476263,0.185994,-0.088023,0.869304,-0.265507,-0.247739,-1.505539,-0.332637,0.054353,0.971508,-0.301366,0.247698,-0.030228,-0.023935,0.50571,-0.187026,0.155722,-0.474063,-0.313546,0.989181,0.081101,0.00371,-0.092909,-0.198514,0.630153,-0.337634,-1.475507,0.051565,0.240882
0.658156,0.303639,0.668549,0.240184,-0.269151,-0.653033,-0.665896,-1.454456,0.187291,-0.086962,0.851299,-0.259247,-0.247739,-1.481898,-0.330658,0.04868,0.952655,-0.294145,0.247697,-0.029406,-0.026171,0.505708,-0.180061,0.154258,-0.448486,-0.318171,1.039511,0.102805,0.032102,-0.123732,-0.220838,0.634741,-0.346419,-1.488933,-0.001406,0.289339
0.658186,0.304712,0.672248,0.236661,-0.264104,-0.654172,-0.668057,-1.430698,0.188871,-0.088307,0.832946,-0.251235,-0.247728,-1.456048,-0.32845,0.044095,0.933174,-0.285781,0.247646,-0.02883,-0.028285,0.50568,-0.170744,0.149951,-0.428397,-0.322499,1.086338,0.125964,0.050853,-0.167911,-0.250066,0.637148,-0.364061,-1.467303,-0.053458,0.309961
0.658301,0.305956,0.675849,0.232607,-0.258693,-0.655212,-0.670574,-1.405787,0.19154,-0.091509,0.815088,-0.241692,-0.247725,-1.42923,-0.325449,0.040897,0.914317,-0.277425,0.247613,-0.02869,-0.029862,0.505677,-0.151525,0.144154,-0.42057,-0.325693,1.124757,0.150673,0.072897,-0.231378,-0.293228,0.64729,-0.383932,-1.422469,-0.097141,0.301202
0.658343,0.307366,0.67932,0.228465,-0.252724,-0.656072,-0.673427,-1.380968,0.195165,-0.093552,0.799221,-0.23384,-0.247724,-1.40164,-0.321345,0.037686,0.896151,-0.269157,0.247554,-0.029364,-0.030166,0.505675,-0.145326,0.139018,-0.41033,-0.323277,1.13107,0.180982,0.076377,-0.315984,-0.345862,0.660905,-0.406087,-1.367572,-0.130499,0.253085
0.658179,0.308943,0.682588,0.223985,-0.246753,-0.656953,-0.676282,-1.356762,0.1982,-0.092949,0.786189,-0.228984,-0.247725,-1.374354,-0.317639,0.035017,0.879042,-0.261223,0.247464,-0.030591,-0.028506,0.505674,-0.13885,0.139661,-0.401001,-0.317557,1.103607,0.203564,0.083568,-0.414001,-0.404404,0.681363,-0.429513,-1.332438,-0.156164,0.185125
0.657797,0.310686,0.685492,0.218766,-0.241274,-0.657513,-0.679415,-1.332925,0.200892,-0.092777,0.776171,-0.224217,-0.247723,-1.348786,-0.314705,0.034686,0.864051,-0.253872,0.247342,-0.03197,-0.025383,0.505673,-0.133248,0.151721,-0.395345,-0.308982,1.064163,0.211487,0.091857,-0.521511,-0.460725,0.709836,-0.445544,-1.301085,-0.184845,0.121817
0.657202,0.312525,0.687983,0.212306,-0.236315,-0.658008,-0.682721,-1.308773,0.202571,-0.091999,0.768933,-0.219858,-0.24772,-1.325316,-0.313169,0.037489,0.852302,-0.247486,0.24719,-0.032824,-0.021126,0.505672,-0.131415,0.179405,-0.39338,-0.291094,1.054898,0.212052,0.101031,-0.633672,-0.507059,0.743135,-0.451935,-1.260149,-0.207532,0.059247
0.656375,0.314449,0.690101,0.205371,-0.2321,-0.658114,-0.686176,-1.285711,0.203889,-0.087937,0.764537,-0.21832,-0.247718,-1.305023,-0.312145,0.04281,0.843523,-0.24188,0.246985,-0.033057,-0.015862,0.505671,-0.130645,0.209438,-0.396432,-0.265945,1.063927,0.208032,0.11133,-0.74788,-0.546021,0.776413,-0.453305,-1.216942,-0.223793,-0.006935
0.655445,0.316422,0.691922,0.198082,-0.228599,-0.657954,-0.689639,-1.26367,0.204886,-0.082023,0.762259,-0.218559,-0.247715,-1.28734,-0.311538,0.050206,0.836752,-0.236574,0.246625,-0.032026,-0.009792,0.505671,-0.125924,0.233446,-0.395063,-0.234217,1.082408,0.187908,0.111116,-0.852829,-0.576264,0.804133,-0.446145,-1.193677,-0.23281,-0.083386
0.654442,0.318443,0.69356,0.190594,-0.225254,-0.657329,-0.693436,-1.241583,0.206419,-0.075352,0.76102,-0.219682,-0.247712,-1.270885,-0.310408,0.058898,0.831408,-0.231672,0.246106,-0.03001,-0.003619,0.50567,-0.127197,0.256756,-0.401502,-0.19977,1.090315,0.169522,0.104401,-0.943488,-0.597566,0.826797,-0.440758,-1.171197,-0.226125,-0.154056
0.653439,0.320506,0.695121,0.183501,-0.221543,-0.656231,-0.697572,-1.219445,0.209431,-0.068905,0.759953,-0.221284,-0.247708,-1.254659,-0.307726,0.067241,0.826814,-0.22717,0.245512,-0.027492,0.001569,0.505668,-0.129657,0.279134,-0.413223,-0.167452,1.088203,0.150977,0.095361,-1.020142,-0.613304,0.841483,-0.435719,-1.16713,-0.211425,-0.225356
0.6525,0.322621,0.696673,0.177101,-0.217201,-0.654286,-0.702402,-1.197293,0.215138,-0.062675,0.75896,-0.223413,-0.247703,-1.237933,-0.302367,0.074442,0.822314,-0.223273,0.245064,-0.025699,0.005341,0.505666,-0.130542,0.300802,-0.424013,-0.138497,1.08576,0.13053,0.085806,-1.07547,-0.621281,0.850835,-0.427852,-1.1789,-0.193243,-0.287995
0.651711,0.324789,0.698237,0.171312,-0.212491,-0.652058,-0.707333,-1.175475,0.222171,-0.056528,0.757862,-0.226063,-0.2477,-1.220825,-0.295767,0.080265,0.81811,-0.220707,0.244923,-0.024917,0.007683,0.505664,-0.130075,0.319446,-0.432742,-0.112134,1.089378,0.107822,0.076781,-1.105837,-0.620656,0.854585,-0.421159,-1.186734,-0.179155,-0.334944
0.651114,0.327,0.699849,0.165996,-0.207843,-0.650205,-0.711674,-1.154319,0.228632,-0.050422,0.756206,-0.229086,-0.247699,-1.20343,-0.289788,0.084627,0.813883,-0.219625,0.244941,-0.024834,0.009118,0.505663,-0.127106,0.33122,-0.439407,-0.089162,1.095806,0.087638,0.073443,-1.116736,-0.617896,0.848713,-0.420206,-1.188791,-0.171116,-0.374954
0.650633,0.329193,0.701566,0.160958,-0.203313,-0.648844,-0.715372,-1.133292,0.233811,-0.04466,0.752965,-0.231409,-0.247699,-1.185186,-0.28518,0.087695,0.808509,-0.219125,0.245043,-0.02555,0.010296,0.505663,-0.122977,0.337521,-0.445647,-0.068975,1.100605,0.068667,0.073619,-1.115038,-0.620545,0.836236,-0.425168,-1.190594,-0.168463,-0.41188
0.650183,0.331301,0.703317,0.155904,-0.199112,-0.647838,-0.718578,-1.112778,0.237433,-0.039241,0.749269,-0.23311,-0.247698,-1.167038,-0.28205,0.090653,0.802176,-0.21829,0.245175,-0.026511,0.011576,0.505663,-0.119098,0.339594,-0.452444,-0.050178,1.099056,0.045863,0.077321,-1.105446,-0.631961,0.820571,-0.432916,-1.194017,-0.167214,-0.440468
0.649723,0.3333,0.705093,0.151006,-0.194933,-0.646849,-0.721654,-1.092518,0.240722,-0.034111,0.745175,-0.234411,-0.247697,-1.148692,-0.279115,0.093504,0.794569,-0.216642,0.245165,-0.027577,0.012957,0.505662,-0.115598,0.340698,-0.459395,-0.029861,1.099622,0.02514,0.079412,-1.091701,-0.650731,0.804174,-0.437853,-1.199126,-0.164254,-0.453107
0.649246,0.335204,0.706853,0.146249,-0.190848,-0.645835,-0.724628,-1.072572,0.243807,-0.02898,0.740767,-0.235482,-0.247695,-1.130609,-0.276297,0.096347,0.786336,-0.214557,0.245135,-0.02858,0.014349,0.50566,-0.11357,0.341453,-0.467251,-0.009548,1.106612,0.009407,0.077376,-1.078697,-0.675039,0.787031,-0.442218,-1.210402,-0.164361,-0.459052
0.648758,0.337049,0.708534,0.141672,-0.187089,-0.644611,-0.727601,-1.053344,0.246911,-0.023339,0.736483,-0.236748,-0.247694,-1.113708,-0.273566,0.099154,0.77828,-0.212849,0.245515,-0.029369,0.015547,0.505659,-0.112798,0.342432,-0.475668,0.009166,1.120849,-0.003682,0.073772,-1.065446,-0.703538,0.770432,-0.446491,-1.217847,-0.165929,-0.456937
0.648289,0.338863,0.710097,0.1374,-0.183619,-0.643022,-0.730704,-1.035347,0.250613,-0.017081,0.733064,-0.2385,-0.247693,-1.098249,-0.270381,0.101698,0.770829,-0.211915,0.24623,-0.030029,0.016537,0.505658,-0.112719,0.343615,-0.483501,0.02569,1.139086,-0.016471,0.06979,-1.053788,-0.736498,0.753756,-0.452794,-1.222363,-0.162703,-0.451126
0.647871,0.340674,0.711561,0.132997,-0.180005,-0.641201,-0.734011,-1.017284,0.254837,-0.010026,0.730559,-0.241072,-0.247694,-1.08304,-0.266665,0.104293,0.764204,-0.211775,0.24681,-0.030555,0.017402,0.505655,-0.111846,0.344476,-0.490196,0.040845,1.157184,-0.029575,0.066673,-1.043421,-0.774225,0.739752,-0.462345,-1.225608,-0.1539,-0.441037
0.647518,0.342552,0.712933,0.128557,-0.176316,-0.639249,-0.737391,-0.999087,0.259287,-0.002368,0.728723,-0.244522,-0.247697,-1.068216,-0.262526,0.107459,0.758841,-0.211907,0.247117,-0.031075,0.018151,0.505653,-0.110006,0.344448,-0.495439,0.055654,1.172112,-0.042089,0.064721,-1.033118,-0.816464,0.729462,-0.474335,-1.222978,-0.143726,-0.420838
0.647257,0.344534,0.714218,0.124174,-0.172789,-0.637127,-0.740806,-0.98074,0.263907,0.005238,0.726797,-0.247833,-0.247698,-1.054238,-0.258094,0.111913,0.754834,-0.21207,0.247196,-0.031892,0.01855,0.505651,-0.107001,0.342858,-0.498547,0.070706,1.180819,-0.051426,0.063518,-1.021234,-0.85819,0.720614,-0.489018,-1.204896,-0.131508,-0.401631
0.647106,0.346584,0.715456,0.119446,-0.169166,-0.635011,-0.744228,-0.961421,0.268277,0.012549,0.72457,-0.250564,-0.247697,-1.040016,-0.253845,0.117579,0.751477,-0.211961,0.247135,-0.032925,0.018658,0.505648,-0.104264,0.34139,-0.501492,0.08639,1.184194,-0.057606,0.061697,-1.009118,-0.90016,0.710426,-0.505422,-1.184652,-0.113121,-0.381772
0.647104,0.348722,0.716673,0.114636,-0.165532,-0.632875,-0.747614,-0.94167,0.272525,0.019534,0.722133,-0.25289,-0.247696,-1.025722,-0.249657,0.123445,0.748671,-0.212126,0.247025,-0.034172,0.018526,0.505644,-0.102777,0.341553,-0.504915,0.102223,1.185563,-0.062589,0.059478,-0.99702,-0.943523,0.700364,-0.522477,-1.172246,-0.087772,-0.349033
0.647254,0.350971,0.717898,0.109655,-0.161859,-0.630611,-0.751071,-0.92096,0.276774,0.026654,0.719311,-0.254962,-0.247694,-1.010941,-0.245443,0.129491,0.746003,-0.212637,0.246878,-0.035623,0.018348,0.505639,-0.101831,0.342439,-0.508029,0.119003,1.185147,-0.067794,0.05916,-0.983294,-0.984786,0.693502,-0.541228,-1.15717,-0.063861,-0.304668
0.647559,0.353305,0.719096,0.104249,-0.157965,-0.62833,-0.754573,-0.898914,0.280783,0.034007,0.716457,-0.257095,-0.247691,-0.995353,-0.241446,0.135875,0.743808,-0.213535,0.246672,-0.037049,0.018345,0.505632,-0.101542,0.343126,-0.510105,0.138311,1.184241,-0.071085,0.060871,-0.968627,-1.023898,0.687453,-0.561087,-1.137626,-0.039358,-0.253586
0.648057,0.35569,0.720211,0.098799,-0.154083,-0.625889,-0.758129,-0.875785,0.284975,0.041725,0.712375,-0.258697,-0.247688,-0.979541,-0.237159,0.142407,0.741673,-0.214494,0.246341,-0.038501,0.018452,0.505625,-0.101812,0.342812,-0.510467,0.160863,1.180703,-0.072571,0.063904,-0.956311,-1.063636,0.681779,-0.581419,-1.123824,-0.018461,-0.196284
0.648771,0.358077,0.720939,0.093086,-0.150052,-0.623469,-0.761647,-0.851258,0.289064,0.049759,0.706842,-0.259556,-0.247685,-0.962732,-0.232897,0.148888,0.739497,-0.215373,0.245825,-0.039872,0.018831,0.505614,-0.102145,0.342035,-0.510139,0.186862,1.176439,-0.071628,0.064983,-0.946086,-1.102406,0.675638,-0.602384,-1.118512,-0.003029,-0.140437
0.649802,0.360603,0.720254,0.087378,-0.145808,-0.621038,-0.765125,-0.825844,0.293529,0.057639,0.700016,-0.259704,-0.247682,-0.942881,-0.22758,0.154488,0.73793,-0.214904,0.245022,-0.041338,0.019443,0.5056,-0.103309,0.342054,-0.509893,0.214233,1.17585,-0.06724,0.063378,-0.935926,-1.13963,0.668646,-0.622488,-1.119327,0.009485,-0.086127
0.651091,0.363175,0.721327,0.081557,-0.141196,-0.618712,-0.76851,-0.799035,0.297588,0.065368,0.692196,-0.259345,-0.24768,-0.924437,-0.223054,0.159719,0.736064,-0.216628,0.243771,-0.043028,0.020409,0.505581,-0.105706,0.343265,-0.510143,0.242293,1.17843,-0.061787,0.059013,-0.923215,-1.172008,0.659803,-0.641972,-1.112926,0.026352,-0.038438
0.652712,0.365999,0.722849,0.07566,-0.136229,-0.616505,-0.771777,-0.770976,0.301477,0.072991,0.683639,-0.25879,-0.24768,-0.905125,-0.218361,0.164225,0.734757,-0.21917,0.242,-0.045046,0.021738,0.505555,-0.10737,0.343539,-0.50947,0.270722,1.179153,-0.057084,0.05633,-0.905474,-1.197883,0.651528,-0.662428,-1.081016,0.051046,-1.9e-05
0.654662,0.369049,0.724525,0.069476,-0.130772,-0.614477,-0.774912,-0.741198,0.305114,0.080623,0.6743,-0.258147,-0.247681,-0.884466,-0.213712,0.168076,0.734142,-0.222537,0.239667,-0.047276,0.023379,0.505521,-0.106607,0.340359,-0.505361,0.299919,1.170581,-0.052513,0.06302,-0.883531,-1.219475,0.64582,-0.683942,-1.01571,0.080993,0.028048
0.656953,0.372317,0.726271,0.063071,-0.124692,-0.612667,-0.77789,-0.709523,0.308677,0.087964,0.663989,-0.257334,-0.247684,-0.862082,-0.209024,0.17097,0.734002,-0.226767,0.236707,-0.049577,0.025215,0.505476,-0.103538,0.334659,-0.498011,0.333058,1.145691,-0.049521,0.070978,-0.860439,-1.244456,0.638587,-0.705394,-0.926447,0.105417,0.054543
0.659593,0.37581,0.728006,0.056428,-0.118094,-0.610986,-0.780747,-0.676203,0.312158,0.095043,0.653102,-0.256527,-0.247687,-0.838485,-0.204296,0.173149,0.734983,-0.232091,0.233161,-0.051867,0.027166,0.505421,-0.100293,0.329006,-0.489113,0.370228,1.108148,-0.04599,0.077876,-0.836928,-1.266631,0.622637,-0.723936,-0.816044,0.140678,0.07564
0.662607,0.379521,0.729672,0.049508,-0.110855,-0.609468,-0.78346,-0.641165,0.315659,0.10172,0.64171,-0.255704,-0.24769,-0.813659,-0.199416,0.174627,0.737734,-0.238849,0.229,-0.054362,0.029026,0.505346,-0.097549,0.325137,-0.480677,0.409956,1.064338,-0.041704,0.0834,-0.812388,-1.289498,0.602173,-0.742885,-0.693779,0.171828,0.07782
0.666022,0.383501,0.731235,0.042703,-0.103104,-0.607961,-0.786085,-0.605019,0.319815,0.107938,0.630072,-0.255065,-0.247694,-0.788093,-0.193756,0.175285,0.74226,-0.247185,0.224172,-0.057453,0.030479,0.505246,-0.094242,0.326193,-0.473924,0.448551,1.023951,-0.033023,0.085982,-0.791528,-1.322269,0.574857,-0.759494,-0.594239,0.194914,0.069189
0.669863,0.387753,0.732704,0.035755,-0.094716,-0.606238,-0.788813,-0.566805,0.324973,0.114724,0.618101,-0.254433,-0.247697,-0.761189,-0.187091,0.175549,0.748054,-0.256925,0.218606,-0.061241,0.03147,0.505081,-0.088899,0.332807,-0.470938,0.482691,0.990953,-0.024174,0.087055,-0.771752,-1.359343,0.542994,-0.775198,-0.521255,0.205418,0.059335
0.674173,0.392248,0.734041,0.028481,-0.085691,-0.604516,-0.791458,-0.526845,0.330625,0.121732,0.606231,-0.253075,-0.2477,-0.732702,-0.17998,0.175272,0.755189,-0.26826,0.212317,-0.065623,0.032067,0.504805,-0.079751,0.343965,-0.469906,0.511191,0.964836,-0.01825,0.089196,-0.748135,-1.39557,0.506888,-0.789709,-0.46369,0.20501,0.054718
0.67898,0.397013,0.735153,0.021208,-0.076458,-0.60286,-0.793892,-0.486188,0.336276,0.128084,0.594354,-0.251306,-0.247703,-0.703605,-0.172732,0.174213,0.763752,-0.281419,0.205457,-0.070619,0.032354,0.504413,-0.066861,0.359389,-0.469187,0.533992,0.947466,-0.011344,0.091326,-0.718829,-1.429207,0.462631,-0.802434,-0.414961,0.212115,0.055643
0.684339,0.401997,0.735792,0.01346,-0.067171,-0.601462,-0.795959,-0.444497,0.340978,0.134083,0.582507,-0.248476,-0.247706,-0.674033,-0.166485,0.172462,0.774328,-0.297006,0.198447,-0.076147,0.032551,0.503867,-0.050845,0.376596,-0.46916,0.549875,0.939398,-0.004339,0.093287,-0.683223,-1.459521,0.410994,-0.814769,-0.365939,0.224903,0.055481
0.690191,0.407144,0.735181,0.005381,-0.057757,-0.601136,-0.797039,-0.402167,0.342932,0.138648,0.571292,-0.243633,-0.247718,-0.643701,-0.162479,0.168628,0.786272,-0.31512,0.191915,-0.081429,0.033048,0.50304,-0.031762,0.393142,-0.466623,0.559309,0.931976,0.000582,0.093087,-0.639207,-1.488154,0.351877,-0.823659,-0.303994,0.233565,0.059131
0.696676,0.412154,0.735552,-0.002772,-0.048648,-0.601672,-0.797256,-0.361542,0.345823,0.141698,0.558551,-0.238477,-0.247716,-0.613042,-0.159802,0.162608,0.799623,-0.335235,0.185373,-0.086515,0.033828,0.50168,-0.010054,0.408938,-0.459833,0.561933,0.922405,0.003212,0.092925,-0.590951,-1.51757,0.281839,-0.827741,-0.243986,0.236372,0.06428
0.703875,0.417052,0.736077,-0.010967,-0.040377,-0.603498,-0.796266,-0.32286,0.347148,0.143306,0.542995,-0.229665,-0.247716,-0.582826,-0.159236,0.154166,0.813655,-0.356983,0.177811,-0.091436,0.034895,0.49933,0.013362,0.423951,-0.449344,0.558739,0.911938,0.004036,0.090991,-0.537997,-1.545515,0.200619,-0.826329,-0.198532,0.232789,0.074839
0.711821,0.421788,0.736779,-0.0185,-0.03313,-0.607029,-0.793773,-0.287203,0.34765,0.141884,0.523483,-0.215954,-0.247717,-0.553033,-0.160264,0.142026,0.826334,-0.377602,0.168168,-0.096274,0.036278,0.495482,0.038189,0.436093,-0.433599,0.550036,0.897491,0.004795,0.089964,-0.478233,-1.563734,0.106342,-0.817942,-0.173443,0.216863,0.090866
0.720444,0.426346,0.737809,-0.024729,-0.026944,-0.612612,-0.789537,-0.257182,0.349175,0.137481,0.502722,-0.196829,-0.247728,-0.52362,-0.162457,0.12478,0.836153,-0.396219,0.155532,-0.101112,0.038324,0.489672,0.062466,0.446597,-0.41588,0.536691,0.883686,0.00482,0.091027,-0.406849,-1.558753,-0.007103,-0.803358,-0.161854,0.185597,0.116068
0.729852,0.4308,0.740087,-0.029731,-0.022095,-0.620341,-0.783457,-0.234369,0.352078,0.129106,0.482486,-0.171281,-0.24771,-0.494314,-0.166007,0.102345,0.841837,-0.411839,0.139487,-0.105484,0.041375,0.48127,0.08576,0.454829,-0.398323,0.519798,0.870963,0.005452,0.092355,-0.322011,-1.519968,-0.149457,-0.79146,-0.173105,0.14555,0.158731
0.739601,0.434931,0.74233,-0.034265,-0.018178,-0.629795,-0.775792,-0.216778,0.355089,0.118873,0.461977,-0.140325,-0.2477,-0.465023,-0.171128,0.076099,0.843843,-0.424822,0.121672,-0.108536,0.045226,0.471226,0.10715,0.457853,-0.382987,0.501389,0.859085,0.005703,0.098367,-0.221745,-1.431713,-0.318763,-0.800073,-0.201949,0.102896,0.194888
0.749378,0.438821,0.746615,-0.038327,-0.015046,-0.640079,-0.767205,-0.204643,0.36547,0.113953,0.441609,-0.106178,-0.247583,-0.435192,-0.176529,0.046906,0.841288,-0.434722,0.103969,-0.10987,0.049713,0.459887,0.127676,0.456471,-0.370711,0.483499,0.846949,0.003898,0.102966,-0.126772,-1.304018,-0.496114,-0.843787,-0.266359,0.060421,0.196642
0.758858,0.442497,0.749459,-0.04171,-0.012289,-0.650323,-0.758412,-0.194677,0.376644,0.122929,0.426866,-0.069616,-0.247592,-0.406205,-0.181517,0.016326,0.83482,-0.441818,0.087631,-0.109652,0.054893,0.44779,0.148485,0.452357,-0.360484,0.465958,0.837693,0.00563,0.103045,-0.060567,-1.140045,-0.641703,-0.923722,-0.34722,0.034145,0.142494
0.76782,0.446001,0.751954,-0.044473,-0.010069,-0.6603,-0.749616,-0.187544,0.394123,0.164903,0.420979,-0.037987,-0.245822,-0.378911,-0.186249,-0.014795,0.825652,-0.446094,0.072449,-0.10869,0.061344,0.435311,0.167495,0.442972,-0.3509,0.449256,0.832692,0.010238,0.104239,-0.026383,-0.946526,-0.709263,-1.00396,-0.393062,0.017174,0.03378
0.776057,0.449352,0.754537,-0.047134,-0.009059,-0.669936,-0.740866,-0.183045,0.41129,0.235723,0.424249,-0.010921,-0.234965,-0.35386,-0.192648,-0.045226,0.814112,-0.44813,0.059085,-0.106611,0.069232,0.422584,0.18421,0.426577,-0.339347,0.435335,0.83292,0.01391,0.100119,-0.004053,-0.728354,-0.654181,-1.028869,-0.303142,-0.026452,-0.062643
0.783511,0.452636,0.757348,-0.049224,-0.009278,-0.678834,-0.732581,-0.178759,0.426255,0.32248,0.435128,0.007836,-0.216124,-0.330896,-0.19932,-0.074174,0.799092,-0.448034,0.047321,-0.102321,0.077977,0.40931,0.201079,0.403146,-0.32262,0.421782,0.848625,0.01646,0.08582,0.043761,-0.513967,-0.507133,-1.012582,-0.08983,-0.096088,-0.002714
0.790216,0.455914,0.760339,-0.051247,-0.009987,-0.686718,-0.725046,-0.176633,0.427925,0.3833,0.459327,0.004995,-0.203442,-0.308051,-0.204632,-0.099794,0.780719,-0.446301,0.037028,-0.093621,0.086832,0.395601,0.216844,0.373128,-0.298711,0.406607,0.880846,0.020218,0.058333,0.099087,-0.310112,-0.357323,-0.917794,0.194116,-0.166282,0.197647
0.795997,0.459285,0.763303,-0.052258,-0.010393,-0.693318,-0.71866,-0.179709,0.416269,0.406083,0.498776,-0.02035,-0.203709,-0.285686,-0.206591,-0.122022,0.759894,-0.443217,0.028729,-0.0824,0.094248,0.381213,0.234823,0.343552,-0.269977,0.389386,0.917043,0.024062,0.026956,0.163451,-0.134209,-0.311923,-0.718347,0.444119,-0.185618,0.389104
0.800892,0.462931,0.766201,-0.051798,-0.010076,-0.6997,-0.712485,-0.186114,0.401548,0.409198,0.546758,-0.05201,-0.2101,-0.262147,-0.205537,-0.144216,0.735918,-0.439191,0.022481,-0.072126,0.099016,0.365449,0.254707,0.318702,-0.243647,0.382273,0.941904,0.026489,0.005433,0.219423,-0.031046,-0.37288,-0.416834,0.559125,-0.12307,0.35839
0.804894,0.466933,0.769147,-0.049843,-0.008465,-0.705136,-0.707268,-0.187854,0.393346,0.414555,0.586561,-0.07396,-0.212956,-0.236678,-0.199987,-0.165647,0.707436,-0.433069,0.018015,-0.065797,0.10045,0.34775,0.278816,0.2891,-0.222274,0.39216,0.95499,0.032578,0.002972,0.225868,-0.069517,-0.412973,-0.071252,0.383819,0.03242,0.068035
0.808205,0.471297,0.772599,-0.047146,-0.006528,-0.709022,-0.703578,-0.174776,0.40182,0.450082,0.592956,-0.071133,-0.204462,-0.207848,-0.190378,-0.184664,0.668531,-0.421513,0.014065,-0.064338,0.10003,0.327624,0.306018,0.252189,-0.207986,0.412261,0.971706,0.036033,0.012136,0.163686,-0.265397,-0.175395,0.304666,-0.124315,0.350516,-0.142271
0.810888,0.475905,0.776604,-0.046322,-0.007518,-0.710776,-0.701852,-0.15737,0.402684,0.477093,0.566968,-0.044351,-0.193955,-0.179717,-0.185132,-0.196999,0.623365,-0.405896,0.011524,-0.061186,0.100482,0.307704,0.32146,0.228575,-0.198,0.445884,0.978684,0.025842,0.006626,0.014854,-0.411678,0.446567,0.784928,-0.669177,0.421615,0.322164
0.812942,0.480266,0.780188,-0.047724,-0.010668,-0.715341,-0.697062,-0.151216,0.387813,0.463332,0.545144,-0.016497,-0.192913,-0.156052,-0.190872,-0.212243,0.588745,-0.394517,0.011601,-0.048166,0.102735,0.291308,0.295036,0.23963,-0.205523,0.496967,0.988703,0.005356,-0.043288,-0.089303,-0.419827,0.786114,0.979665,-0.930783,0.050671,0.642231
0.814474,0.484244,0.783125,-0.047933,-0.013241,-0.723264,-0.688779,-0.156957,0.369548,0.423944,0.528002,0.01829,-0.201376,-0.13612,-0.199339,-0.236334,0.56331,-0.382942,0.012983,-0.027057,0.102123,0.276712,0.229171,0.261546,-0.227114,0.55837,1.036853,-0.006722,-0.129323,-0.090622,-0.400507,0.660615,1.03779,-0.898316,0.178334,0.633873
0.815721,0.488353,0.785611,-0.045524,-0.015683,-0.725411,-0.686629,-0.163228,0.364453,0.405149,0.518224,0.049627,-0.207334,-0.125321,-0.199375,-0.248692,0.543669,-0.368131,0.013817,-0.015117,0.098595,0.262348,0.194742,0.27523,-0.220296,0.58728,1.08653,-0.007372,-0.20322,-0.042226,-0.369404,0.45294,0.931547,-0.842427,0.199244,0.377656
0.816698,0.492485,0.787943,-0.042118,-0.017811,-0.72442,-0.687841,-0.164791,0.367391,0.405478,0.510674,0.074997,-0.208015,-0.116384,-0.194221,-0.253612,0.521944,-0.354616,0.013978,-0.012609,0.093381,0.247788,0.21446,0.271785,-0.176685,0.5693,1.117687,0.00387,-0.199949,0.030219,-0.332016,0.244374,0.79582,-0.749846,0.118491,0.157715
0.817367,0.496395,0.790534,-0.039139,-0.019354,-0.722405,-0.69009,-0.158008,0.371178,0.415941,0.498382,0.090694,-0.208036,-0.10851,-0.188511,-0.255517,0.50219,-0.342516,0.014158,-0.013635,0.088426,0.233962,0.246913,0.258629,-0.130647,0.548724,1.104045,0.002096,-0.136259,0.087974,-0.357919,0.197625,0.633682,-0.823687,0.068771,-0.060503
0.817829,0.500073,0.79519,-0.036689,-0.020205,-0.719637,-0.693086,-0.145555,0.373887,0.429428,0.483013,0.096814,-0.205331,-0.101329,-0.182764,-0.255095,0.487748,-0.330242,0.014664,-0.015436,0.084579,0.220981,0.27091,0.241622,-0.090378,0.555305,1.048721,-0.013757,-0.046379,0.148572,-0.417173,0.207749,0.447331,-0.95228,0.09207,-0.175685
0.818113,0.50344,0.797803,-0.034214,-0.019852,-0.715806,-0.697178,-0.129892,0.378515,0.446251,0.467789,0.097336,-0.199715,-0.096452,-0.175603,-0.252381,0.476521,-0.317291,0.015117,-0.017825,0.081747,0.208676,0.291251,0.239426,-0.065463,0.579408,0.991561,-0.032458,0.010288,0.201337,-0.474836,0.200706,0.250453,-1.000479,0.102409,-0.120104
0.818412,0.506496,0.799517,-0.032206,-0.019329,-0.711345,-0.701838,-0.113671,0.383487,0.464652,0.454353,0.09792,-0.194352,-0.092776,-0.168629,-0.247342,0.467677,-0.306029,0.015473,-0.020441,0.079698,0.197365,0.303238,0.249774,-0.058673,0.605394,0.95911,-0.037602,0.012378,0.247811,-0.525284,0.156991,0.038731,-0.953777,0.061754,0.001933
0.818962,0.509078,0.80083,-0.030917,-0.01908,-0.707601,-0.705678,-0.100052,0.387012,0.479328,0.442846,0.103531,-0.19027,-0.089956,-0.163343,-0.243047,0.461069,-0.296222,0.015533,-0.021594,0.077769,0.187009,0.308128,0.267438,-0.065909,0.61959,0.961574,-0.034877,-0.010872,0.281431,-0.564101,0.081599,-0.163847,-0.853202,0.006392,0.088984
0.819965,0.511076,0.801914,-0.02995,-0.019365,-0.704667,-0.708641,-0.091547,0.389262,0.48715,0.43381,0.112844,-0.188012,-0.088611,-0.159239,-0.240274,0.456196,-0.287623,0.015035,-0.021652,0.075876,0.177815,0.309971,0.281643,-0.072318,0.623692,0.980123,-0.025015,-0.03175,0.299634,-0.58588,-0.008915,-0.337208,-0.729466,-0.020822,0.111263
0.821549,0.512464,0.802797,-0.02899,-0.019933,-0.702719,-0.710598,-0.088173,0.391874,0.48957,0.427994,0.123796,-0.186782,-0.088363,-0.15523,-0.239792,0.452379,-0.28019,0.013491,-0.021089,0.074055,0.169733,0.31093,0.290657,-0.074668,0.6193,1.000039,-0.020726,-0.043715,0.301223,-0.589785,-0.096008,-0.473299,-0.597275,-0.028869,0.06734
0.823691,0.513222,0.803467,-0.027558,-0.021023,-0.701928,-0.711404,-0.090844,0.395576,0.489331,0.426188,0.134225,-0.183662,-0.090084,-0.151266,-0.241952,0.449651,-0.274,0.011006,-0.020234,0.072752,0.162939,0.311406,0.293598,-0.068239,0.608676,1.012772,-0.01833,-0.044897,0.288219,-0.576807,-0.166975,-0.568081,-0.455231,-0.008369,0.035058
0.826317,0.513347,0.803885,-0.026073,-0.022242,-0.702932,-0.710431,-0.098968,0.399592,0.48637,0.427569,0.143634,-0.176998,-0.091981,-0.147965,-0.248072,0.447516,-0.269567,0.007796,-0.019341,0.072369,0.15737,0.320096,0.288374,-0.049985,0.584955,1.016176,-0.017629,-0.041936,0.258924,-0.544656,-0.216515,-0.639517,-0.311783,0.021859,0.048605
0.829354,0.512877,0.803964,-0.024486,-0.0236,-0.705307,-0.708086,-0.110669,0.403214,0.480591,0.430186,0.149336,-0.168342,-0.092778,-0.144857,-0.258502,0.443303,-0.26932,0.003277,-0.018352,0.07324,0.152749,0.319504,0.27803,-0.029962,0.559037,1.008794,-0.018426,-0.036919,0.218197,-0.507856,-0.275483,-0.703366,-0.225683,0.038187,0.075908
0.832683,0.511801,0.803767,-0.02282,-0.02533,-0.709083,-0.704301,-0.124615,0.405027,0.473112,0.430714,0.15284,-0.157464,-0.09335,-0.142585,-0.272973,0.437744,-0.272721,-0.00245,-0.016894,0.075382,0.149013,0.314643,0.265176,-0.011757,0.531793,1.002354,-0.015574,-0.02915,0.179346,-0.447465,-0.326012,-0.746533,-0.167713,0.012925,0.110674
0.836198,0.510141,0.80347,-0.020951,-0.027517,-0.714626,-0.698652,-0.140033,0.403827,0.464177,0.425665,0.158105,-0.143488,-0.094296,-0.141506,-0.291696,0.431441,-0.277114,-0.008902,-0.014514,0.078417,0.146375,0.308259,0.247082,0.007187,0.502055,0.993811,-0.015689,-0.024562,0.154357,-0.355054,-0.345082,-0.752199,-0.078293,-0.060427,0.166584
0.839714,0.50795,0.803196,-0.019032,-0.030106,-0.721789,-0.691196,-0.15562,0.398143,0.452571,0.413344,0.16434,-0.131398,-0.095099,-0.14221,-0.314074,0.42379,-0.281373,-0.014951,-0.010904,0.08211,0.145436,0.30266,0.226777,0.023868,0.467742,0.988805,-0.017092,-0.020425,0.148949,-0.243941,-0.32788,-0.713693,0.076809,-0.142632,0.264392
0.843185,0.50524,0.803028,-0.016915,-0.034179,-0.730298,-0.682064,-0.171145,0.386502,0.440742,0.390691,0.172147,-0.121202,-0.098143,-0.145515,-0.33858,0.415176,-0.285056,-0.020502,-0.006708,0.086536,0.145993,0.300434,0.203667,0.037063,0.427819,0.985162,-0.017678,-0.014096,0.161543,-0.134175,-0.302354,-0.632454,0.267088,-0.195829,0.382764
0.846394,0.502188,0.8029,-0.014482,-0.038884,-0.739546,-0.671826,-0.183102,0.372915,0.440049,0.360458,0.17539,-0.119234,-0.105165,-0.151264,-0.363165,0.41143,-0.289404,-0.024646,-0.003524,0.091216,0.146986,0.302561,0.17903,0.044983,0.389985,0.972127,-0.025945,-0.007258,0.181752,-0.043121,-0.307814,-0.503744,0.423893,-0.202487,0.475066
0.849117,0.499041,0.802924,-0.012276,-0.043209,-0.748903,-0.661156,-0.1873,0.357379,0.448662,0.323283,0.17158,-0.137849,-0.112871,-0.158796,-0.386972,0.410803,-0.292845,-0.026828,-0.001994,0.095294,0.146955,0.310546,0.156717,0.04745,0.366357,0.95234,-0.033876,-0.002626,0.189027,0.016959,-0.373639,-0.325333,0.455505,-0.177909,0.484131
0.85126,0.49595,0.803349,-0.010945,-0.047233,-0.75703,-0.651579,-0.185492,0.335927,0.447126,0.28013,0.179317,-0.170077,-0.117567,-0.166619,-0.407959,0.405849,-0.291839,-0.027964,-0.001512,0.09755,0.144876,0.322723,0.139884,0.043617,0.364989,0.939352,-0.037131,-0.003499,0.160186,0.031654,-0.463522,-0.096255,0.344406,-0.113281,0.346443
0.852606,0.493018,0.804146,-0.011153,-0.051479,-0.762888,-0.644381,-0.181339,0.297352,0.386802,0.234572,0.183525,-0.20204,-0.12023,-0.176544,-0.423585,0.398664,-0.286636,-0.027723,0.001369,0.098601,0.140854,0.331277,0.125855,0.033102,0.388008,0.937892,-0.02869,-0.006594,0.092197,-0.000138,-0.520968,0.169991,0.112613,0.037543,0.06633
0.853105,0.490254,0.804967,-0.012642,-0.055002,-0.768506,-0.637349,-0.17101,0.253732,0.296993,0.1973,0.17688,-0.233511,-0.120183,-0.189021,-0.438757,0.391815,-0.2785,-0.026053,0.007038,0.100243,0.134408,0.327506,0.116788,0.003194,0.444566,0.975025,0.005532,-0.009007,-0.019957,-0.096078,-0.431576,0.5001,-0.243618,0.366691,-0.19777
0.852938,0.487592,0.805094,-0.015392,-0.059044,-0.776364,-0.627324,-0.160629,0.2128,0.229937,0.185018,0.151418,-0.246332,-0.117621,-0.207527,-0.459701,0.38579,-0.274129,-0.022858,0.015226,0.104762,0.127055,0.315154,0.125597,-0.042107,0.507858,1.034847,0.039687,-0.026792,-0.122403,-0.240485,-0.035061,0.993668,-0.721361,0.457244,0.158342
0.852398,0.485029,0.803324,-0.018752,-0.063888,-0.788033,-0.612021,-0.148412,0.178599,0.195939,0.187558,0.126193,-0.247471,-0.111528,-0.232371,-0.491767,0.378178,-0.272424,-0.018084,0.028106,0.111029,0.120291,0.274643,0.165774,-0.091205,0.552917,1.099883,0.062112,-0.099724,-0.198285,-0.301059,0.367385,1.18793,-1.080928,0.111908,0.63936
0.851922,0.482784,0.803847,-0.021057,-0.066964,-0.801968,-0.593228,-0.13876,0.15589,0.173893,0.204701,0.106679,-0.247577,-0.098754,-0.253901,-0.53249,0.36977,-0.269776,-0.012535,0.044571,0.113879,0.114013,0.234768,0.201841,-0.136543,0.581871,1.169644,0.062512,-0.18058,-0.209474,-0.321548,0.423379,1.18108,-1.141197,-0.002366,0.844952
0.851509,0.48103,0.804836,-0.022044,-0.068867,-0.81334,-0.577278,-0.135766,0.142867,0.152076,0.240234,0.08636,-0.247673,-0.085853,-0.268188,-0.566149,0.35997,-0.26368,-0.006868,0.056583,0.113069,0.10764,0.221423,0.217871,-0.133186,0.574807,1.194261,0.054009,-0.215093,-0.188544,-0.332039,0.508866,1.051392,-1.274914,0.054822,0.73658
0.851118,0.479694,0.805802,-0.023124,-0.070925,-0.822735,-0.563508,-0.13571,0.135353,0.127386,0.284067,0.07349,-0.247707,-0.074116,-0.280429,-0.592592,0.352214,-0.25872,-0.001039,0.061159,0.110814,0.100481,0.240292,0.209026,-0.082964,0.544665,1.156834,0.041029,-0.186338,-0.133773,-0.341002,0.597899,0.870235,-1.414896,0.096961,0.460627
0.850482,0.478516,0.806457,-0.024277,-0.072715,-0.832022,-0.54942,-0.134317,0.137753,0.112428,0.327649,0.069431,-0.247703,-0.062231,-0.292968,-0.61969,0.347429,-0.257418,0.00486,0.060116,0.10809,0.092503,0.277622,0.181596,-0.012285,0.513461,1.062511,0.013353,-0.116384,-0.044187,-0.334404,0.555372,0.705375,-1.430958,0.133247,0.173517
0.849264,0.477344,0.806657,-0.025508,-0.074141,-0.840974,-0.535365,-0.128977,0.157784,0.126121,0.365828,0.071932,-0.247583,-0.05124,-0.307197,-0.646928,0.348063,-0.261725,0.01151,0.055153,0.105735,0.084636,0.324216,0.154056,0.053593,0.49719,0.936489,-0.026385,-0.041727,0.076101,-0.266806,0.376259,0.548662,-1.247437,0.108211,-0.017175
0.847351,0.476028,0.806588,-0.026356,-0.074816,-0.849022,-0.522369,-0.118472,0.193941,0.159433,0.395345,0.079794,-0.247286,-0.039923,-0.319699,-0.673084,0.34781,-0.267276,0.018304,0.050441,0.103901,0.077461,0.365647,0.146898,0.080679,0.497938,0.859234,-0.041527,0.009006,0.191821,-0.165736,0.2091,0.398057,-0.951664,0.047436,0.027782
0.844669,0.474416,0.806497,-0.027159,-0.074276,-0.855138,-0.512332,-0.10197,0.234508,0.201233,0.414998,0.087754,-0.239122,-0.02812,-0.328969,-0.69496,0.344878,-0.269406,0.025102,0.047492,0.102514,0.070941,0.379601,0.187846,0.028041,0.507809,0.960732,-0.013903,0.062025,0.275974,-0.059809,0.099153,0.241075,-0.66171,0.065457,0.200278
0.841234,0.472303,0.806478,-0.02785,-0.072676,-0.859558,-0.505077,-0.083526,0.267035,0.243266,0.424739,0.089986,-0.208199,-0.01702,-0.335632,-0.711821,0.340057,-0.267099,0.031866,0.04613,0.100825,0.064967,0.38907,0.239533,-0.071428,0.522262,1.194947,0.035877,0.07872,0.317981,-0.008666,0.042936,0.071396,-0.556156,0.073964,0.349469
0.837083,0.469577,0.806458,-0.027708,-0.07088,-0.86191,-0.501318,-0.065949,0.286384,0.268567,0.422297,0.081339,-0.174037,-0.010649,-0.340933,-0.721109,0.33558,-0.262219,0.038378,0.046229,0.098886,0.059076,0.402096,0.240882,-0.134837,0.552827,1.380786,0.071117,0.028599,0.327539,0.033427,-0.016996,-0.083611,-0.548711,-0.008417,0.412605
0.832286,0.466195,0.806369,-0.026249,-0.069455,-0.862636,-0.500346,-0.051704,0.292458,0.275434,0.408847,0.070523,-0.15086,-0.010758,-0.345926,-0.723338,0.33256,-0.255541,0.044542,0.047228,0.097047,0.052876,0.427848,0.187257,-0.116052,0.583773,1.417823,0.082706,-0.028755,0.312633,0.078489,-0.088946,-0.187949,-0.527797,-0.147376,0.403626
0.826815,0.462195,0.806012,-0.023844,-0.067503,-0.86251,-0.500951,-0.039736,0.28922,0.273335,0.38393,0.052167,-0.140419,-0.014478,-0.349979,-0.721491,0.330933,-0.248985,0.050831,0.048708,0.095141,0.046345,0.452435,0.120674,-0.040258,0.621098,1.327285,0.072332,-0.09047,0.267302,0.114242,-0.134596,-0.207914,-0.413419,-0.218397,0.37895
0.820646,0.457667,0.805212,-0.0201,-0.064379,-0.862247,-0.501977,-0.028622,0.285205,0.282478,0.348943,0.026692,-0.142089,-0.020587,-0.35196,-0.7181,0.330761,-0.243973,0.05748,0.049849,0.093304,0.039727,0.464859,0.067772,0.053085,0.672844,1.178661,0.046494,-0.184022,0.195687,0.124746,-0.148978,-0.16446,-0.199524,-0.219273,0.354937
0.813758,0.4528,0.804045,-0.015903,-0.059912,-0.862034,-0.503046,-0.017395,0.281162,0.3052,0.307697,0.005625,-0.145454,-0.025918,-0.352332,-0.714777,0.33109,-0.239702,0.065152,0.050269,0.092086,0.033543,0.464445,0.049507,0.116312,0.726702,1.075335,0.032242,-0.299678,0.102834,0.105422,-0.142646,-0.065514,0.085041,-0.175297,0.352217
0.806133,0.44768,0.802687,-0.012318,-0.053874,-0.862061,-0.503782,-0.008215,0.275647,0.339118,0.271008,-0.003758,-0.151229,-0.027488,-0.351684,-0.71267,0.330718,-0.234398,0.074162,0.050302,0.091947,0.027971,0.454012,0.049308,0.124387,0.760215,1.071619,0.037898,-0.390209,-0.010043,0.035196,-0.141396,0.099216,0.318718,-0.09737,0.359273
0.797691,0.442331,0.801312,-0.009691,-0.046661,-0.862825,-0.503251,0.000823,0.268156,0.389484,0.242157,-0.004265,-0.170301,-0.024007,-0.351569,-0.713627,0.328646,-0.226061,0.085284,0.05016,0.093309,0.022583,0.437311,0.0638,0.085355,0.779415,1.145525,0.030241,-0.424974,-0.117965,-0.113268,-0.111724,0.326903,0.258097,0.003064,0.222313
0.78855,0.436774,0.79991,-0.00771,-0.04013,-0.865381,-0.499445,0.012163,0.271629,0.499985,0.238599,-0.047882,-0.135514,-0.016652,-0.355372,-0.721224,0.324908,-0.214884,0.098089,0.048181,0.095733,0.017479,0.403852,0.083097,0.024163,0.797836,1.260176,0.028925,-0.414226,-0.242808,-0.329055,0.1292,0.549473,-0.136435,0.179285,0.034796
0.77852,0.430947,0.79816,-0.005798,-0.03224,-0.871151,-0.489921,0.028281,0.277446,0.617136,0.242364,-0.11074,-0.107567,-0.003156,-0.362205,-0.740867,0.324707,-0.203869,0.113034,0.050614,0.098476,0.012822,0.354911,0.106717,-0.022783,0.822133,1.362326,0.036434,-0.376071,-0.379001,-0.492666,0.633807,0.762297,-0.664581,0.259773,0.207428
0.767572,0.425225,0.796503,-0.005319,-0.025433,-0.877391,-0.479072,0.045097,0.270009,0.669607,0.228197,-0.149451,-0.105653,0.01796,-0.371811,-0.765981,0.317705,-0.188045,0.129638,0.059876,0.100019,0.009179,0.305722,0.127694,-0.032177,0.836277,1.417294,0.0431,-0.310701,-0.491514,-0.558117,1.112451,0.910953,-1.091056,0.029605,0.487696
0.755445,0.419429,0.794578,-0.006316,-0.019664,-0.884336,-0.466393,0.053578,0.251534,0.649849,0.213742,-0.16623,-0.123941,0.044481,-0.387523,-0.794749,0.311483,-0.168684,0.149756,0.074276,0.096906,0.006899,0.242727,0.121218,-0.012924,0.846989,1.421368,0.058926,-0.236687,-0.522864,-0.545516,1.352422,0.991267,-1.263808,-0.21194,0.591166
0.742103,0.413353,0.791371,-0.008082,-0.01765,-0.892363,-0.450901,0.05508,0.222135,0.60874,0.202676,-0.17833,-0.13468,0.069872,-0.417803,-0.825673,0.315946,-0.149942,0.174994,0.087241,0.087567,0.004615,0.170122,0.10272,0.037303,0.844693,1.366907,0.06859,-0.167768,-0.48933,-0.546565,1.36548,1.066308,-1.270423,-0.178057,0.642821
0.727959,0.407092,0.790118,-0.01039,-0.020532,-0.900426,-0.434399,0.055687,0.179018,0.569466,0.187279,-0.185321,-0.121414,0.091155,-0.46191,-0.854145,0.329599,-0.130181,0.201527,0.095998,0.073617,0.00108,0.108523,0.08718,0.098029,0.840144,1.272471,0.04952,-0.100485,-0.396298,-0.555394,1.278728,1.089632,-1.222177,0.020768,0.57629
0.713187,0.40053,0.789838,-0.013059,-0.026564,-0.908145,-0.417607,0.057907,0.128351,0.539998,0.170184,-0.194989,-0.097811,0.108388,-0.516816,-0.875238,0.353861,-0.109544,0.225093,0.099857,0.057084,-0.003588,0.045693,0.060823,0.141431,0.836303,1.171353,0.019313,-0.053779,-0.274598,-0.547196,1.102605,1.078596,-1.101141,0.207262,0.410662
0.698026,0.393849,0.787582,-0.016122,-0.034021,-0.915023,-0.401641,0.061836,0.075329,0.511481,0.157636,-0.210644,-0.076093,0.119058,-0.579466,-0.885083,0.39105,-0.088504,0.240007,0.099939,0.039194,-0.008769,0.006854,0.034284,0.151884,0.814614,1.091118,-0.008833,-0.008902,-0.136241,-0.506046,0.802341,1.047562,-0.867184,0.305638,0.189583
0.682695,0.3874,0.78287,-0.020801,-0.04219,-0.920581,-0.387708,0.072646,0.02002,0.482596,0.146574,-0.224931,-0.055914,0.121042,-0.649802,-0.87404,0.443209,-0.060181,0.240802,0.096177,0.020763,-0.013014,-0.01324,0.0133,0.130061,0.78311,1.036553,-0.038823,0.039149,0.004582,-0.437288,0.4678,1.01433,-0.589879,0.291464,0.05121
0.667997,0.381613,0.779339,-0.025246,-0.050952,-0.925517,-0.374412,0.08134,-0.031461,0.45529,0.141602,-0.242055,-0.036145,0.107937,-0.718972,-0.834026,0.507113,-0.025662,0.218374,0.087541,0.002076,-0.015969,-0.022112,0.001057,0.084834,0.750029,1.008577,-0.064796,0.09016,0.122932,-0.352506,0.219875,0.981187,-0.381183,0.239719,0.021081
0.654012,0.37704,0.776318,-0.03083,-0.058594,-0.9312,-0.358445,0.086995,-0.075408,0.423026,0.153357,-0.264276,-0.017422,0.079378,-0.775995,-0.749418,0.582344,0.004022,0.152374,0.071963,-0.017432,-0.016563,-0.028097,-0.012014,0.033764,0.726413,0.994392,-0.078561,0.143227,0.208408,-0.277198,0.094866,0.950565,-0.313547,0.229059,-0.026048
0.640814,0.373726,0.772984,-0.037179,-0.062142,-0.939436,-0.334986,0.097747,-0.110104,0.377233,0.165706,-0.282792,-0.000736,0.01763,-0.777185,-0.543854,0.678217,0.009778,0.090061,0.041436,-0.035792,-0.013837,-0.033362,-0.024834,-0.013806,0.72196,0.983413,-0.077681,0.175095,0.260784,-0.199234,0.046404,0.929365,-0.338339,0.241039,-0.136198
0.628709,0.371818,0.770467,-0.043132,-0.06191,-0.947456,-0.310859,0.109605,-0.131062,0.329928,0.183784,-0.29691,0.011032,-0.066117,-0.685591,-0.234518,0.797788,-0.011256,0.10241,0.005032,-0.050083,-0.009613,-0.035785,-0.032447,-0.06145,0.735674,0.979154,-0.065704,0.185846,0.285772,-0.116621,0.029303,0.922483,-0.396783,0.272608,-0.297358
0.617254,0.370924,0.769046,-0.046436,-0.059848,-0.952073,-0.296342,0.120516,-0.141335,0.299842,0.200765,-0.30535,0.01861,-0.12516,-0.53322,0.047137,0.917989,-0.030808,0.155898,-0.018676,-0.059931,-0.00884,-0.030175,-0.032284,-0.10654,0.765016,0.971436,-0.050993,0.173574,0.286844,-0.047379,0.068459,0.939296,-0.485439,0.350909,-0.386202
0.606002,0.370584,0.768636,-0.047083,-0.056131,-0.95398,-0.290782,0.131955,-0.143901,0.286293,0.211373,-0.309101,0.023106,-0.153711,-0.385459,0.233977,1.016806,-0.023702,0.221002,-0.028135,-0.065019,-0.010057,-0.024324,-0.013243,-0.162203,0.804549,0.977079,-0.043811,0.128833,0.278617,0.021767,0.057122,0.944296,-0.472426,0.402352,-0.348546
0.594638,0.369876,0.769101,-0.046963,-0.050815,-0.955553,-0.286584,0.146746,-0.145241,0.276284,0.211773,-0.305831,0.028882,-0.180816,-0.295368,0.310418,1.089089,0.017782,0.243813,-0.029705,-0.06615,-0.010222,-0.023091,0.012324,-0.228671,0.84726,0.998347,-0.042703,0.055847,0.271017,0.064273,0.003466,0.923215,-0.395359,0.41626,-0.257895
0.583403,0.368891,0.769972,-0.046844,-0.046067,-0.957172,-0.281967,0.160602,-0.147788,0.266085,0.21297,-0.303259,0.03457,-0.221343,-0.267217,0.311297,1.13246,0.017144,0.23186,-0.030827,-0.066652,-0.008224,-0.022501,0.036817,-0.294443,0.884846,1.027352,-0.044132,-0.026854,0.259073,0.05242,0.01993,0.90288,-0.39982,0.421235,-0.184709
0.572242,0.36763,0.772289,-0.04588,-0.044272,-0.959156,-0.2756,0.168236,-0.156093,0.25383,0.223114,-0.309019,0.042206,-0.268909,-0.272359,0.265241,1.149932,-0.069226,0.155944,-0.033712,-0.068115,-0.00481,-0.02007,0.056565,-0.348715,0.914124,1.051842,-0.051398,-0.107336,0.240558,-0.001478,0.116389,0.892168,-0.506882,0.422032,-0.148077
0.561057,0.366085,0.772309,-0.044405,-0.044354,-0.96103,-0.269227,0.174353,-0.168147,0.241236,0.231634,-0.319244,0.052202,-0.313646,-0.285641,0.193063,1.141172,-0.162813,0.088201,-0.037545,-0.070338,-0.000896,-0.013081,0.074019,-0.383361,0.935192,1.067316,-0.059535,-0.166161,0.217613,-0.071547,0.244552,0.887874,-0.65886,0.400799,-0.132994
0.549591,0.364455,0.771517,-0.042446,-0.044927,-0.962846,-0.262882,0.182337,-0.182046,0.227911,0.235487,-0.328081,0.065548,-0.351639,-0.286918,0.112587,1.1085,-0.234085,0.039569,-0.040806,-0.072319,0.003499,0.003158,0.086253,-0.385872,0.950171,1.063475,-0.050367,-0.182114,0.194234,-0.136178,0.344401,0.882628,-0.786025,0.363738,-0.119332
0.537859,0.362964,0.770409,-0.040057,-0.045865,-0.964571,-0.2567,0.191136,-0.196046,0.214418,0.237694,-0.337065,0.07697,-0.38439,-0.268128,0.038284,1.057233,-0.289903,0.03127,-0.042227,-0.073528,0.00833,0.02962,0.087184,-0.349421,0.958971,1.031453,-0.011568,-0.139957,0.173153,-0.188251,0.391478,0.875934,-0.857733,0.328911,-0.093061
0.525861,0.361586,0.769336,-0.036649,-0.045709,-0.966365,-0.250414,0.202389,-0.207743,0.200197,0.233144,-0.343285,0.087246,-0.415605,-0.228117,-0.018309,0.990337,-0.309359,0.04962,-0.04184,-0.073452,0.013445,0.05562,0.09423,-0.331137,0.960397,1.025552,0.015196,-0.061659,0.153381,-0.225655,0.392599,0.868964,-0.875501,0.303652,-0.062133
0.513706,0.360428,0.768222,-0.032569,-0.044984,-0.968072,-0.244443,0.214693,-0.217319,0.18586,0.224879,-0.346178,0.095744,-0.443706,-0.181408,-0.063008,0.906255,-0.310206,0.056616,-0.03943,-0.072223,0.01837,0.083602,0.109355,-0.333629,0.955673,1.054785,0.034584,0.027489,0.132027,-0.244636,0.364636,0.872699,-0.856301,0.29385,-0.027609
0.501403,0.359573,0.767078,-0.028014,-0.044068,-0.969766,-0.238386,0.227828,-0.225346,0.170814,0.213676,-0.345124,0.102605,-0.464428,-0.140764,-0.110854,0.802782,-0.293244,0.050083,-0.035515,-0.07073,0.022593,0.110817,0.123785,-0.335152,0.955391,1.08197,0.062324,0.074677,0.119076,-0.265685,0.323594,0.879338,-0.8286,0.2884,-0.009968
0.488905,0.359061,0.766159,-0.02231,-0.042538,-0.971913,-0.230388,0.24297,-0.230961,0.151995,0.194695,-0.336797,0.1083,-0.474214,-0.108809,-0.169584,0.681733,-0.246099,0.004904,-0.031304,-0.068878,0.026067,0.132615,0.133217,-0.3158,0.958974,1.080775,0.080843,0.081466,0.107676,-0.276369,0.28533,0.884402,-0.817924,0.297572,-0.013493
0.476107,0.359073,0.765302,-0.016456,-0.041275,-0.974771,-0.218738,0.25863,-0.234794,0.126923,0.175872,-0.325295,0.113117,-0.475437,-0.075365,-0.20827,0.559837,-0.190133,-0.019902,-0.028719,-0.065441,0.029224,0.146617,0.136449,-0.27363,0.965698,1.047107,0.089455,0.062513,0.102035,-0.281964,0.250716,0.881657,-0.818135,0.311846,-0.033546
0.462742,0.359582,0.764532,-0.011343,-0.039016,-0.978711,-0.201179,0.276118,-0.23456,0.092589,0.161248,-0.313416,0.117996,-0.477959,-0.014185,-0.14749,0.462975,-0.134247,-0.019684,-0.030922,-0.058387,0.032338,0.148374,0.140371,-0.230773,0.980902,1.007553,0.093013,0.028572,0.1078,-0.285221,0.208857,0.867398,-0.814039,0.321472,-0.064197
0.448724,0.360509,0.763906,-0.006347,-0.035293,-0.982985,-0.18015,0.294412,-0.229226,0.053167,0.149837,-0.300717,0.122196,-0.478812,0.060675,-0.005504,0.413113,-0.075185,-0.017988,-0.035295,-0.047434,0.034614,0.144387,0.1485,-0.199312,0.994798,0.983053,0.101775,-0.002,0.118439,-0.277474,0.165715,0.852944,-0.803557,0.330602,-0.095619
0.433992,0.361941,0.762678,-0.001892,-0.032328,-0.986404,-0.161118,0.310777,-0.223453,0.017467,0.147333,-0.294624,0.122904,-0.479284,0.103059,0.087462,0.433108,-0.048051,-0.076637,-0.036019,-0.035179,0.036327,0.137735,0.158185,-0.184186,1.001026,0.980673,0.113427,-0.015563,0.130663,-0.263989,0.130237,0.839661,-0.787104,0.335288,-0.122525
0.418688,0.363719,0.762982,0.001282,-0.029498,-0.988976,-0.145102,0.324809,-0.216268,-0.010721,0.154304,-0.285202,0.120658,-0.481254,0.086341,0.062541,0.475722,-0.082084,-0.06683,-0.030806,-0.021687,0.038234,0.133717,0.166576,-0.17516,0.998471,0.989786,0.125584,-0.006594,0.140608,-0.247884,0.10063,0.836419,-0.766253,0.328244,-0.13733
0.402768,0.365442,0.764834,0.004144,-0.026108,-0.99137,-0.128401,0.334454,-0.206272,-0.032873,0.168146,-0.258271,0.111497,-0.471577,0.064972,0.029655,0.502219,-0.108236,-0.065788,-0.026477,-0.00532,0.039049,0.135194,0.165775,-0.162645,0.986974,0.997059,0.13777,0.018866,0.14414,-0.234,0.083744,0.849273,-0.758311,0.324661,-0.146023
0.386785,0.367053,0.768087,0.008214,-0.023237,-0.993447,-0.111605,0.333507,-0.19571,-0.057707,0.190362,-0.214048,0.087434,-0.44827,0.044318,0.00047,0.499979,-0.130325,-0.064899,-0.023755,0.011081,0.037383,0.145141,0.156107,-0.139296,0.963886,0.993096,0.13942,0.03949,0.135641,-0.222284,0.083047,0.879111,-0.773234,0.332266,-0.133195
0.370837,0.368845,0.771526,0.011767,-0.020209,-0.995275,-0.094243,0.323274,-0.184372,-0.094578,0.227317,-0.158529,0.039019,-0.409906,0.025764,-0.029188,0.474608,-0.146233,-0.06416,-0.021613,0.025412,0.034271,0.154125,0.143021,-0.109332,0.934625,0.974845,0.133365,0.035527,0.121028,-0.20905,0.093392,0.913713,-0.799356,0.340899,-0.10587
0.355273,0.370824,0.776631,0.013992,-0.018209,-0.996881,-0.075511,0.297892,-0.17585,-0.139752,0.293428,-0.104651,-0.044877,-0.365118,0.008061,-0.059485,0.437948,-0.158962,-0.062837,-0.020624,0.037098,0.030903,0.160613,0.13686,-0.092196,0.897772,0.953787,0.109476,0.000134,0.104596,-0.196958,0.111257,0.948139,-0.833645,0.345851,-0.074514
0.33997,0.372788,0.783317,0.015814,-0.017327,-0.998308,-0.053196,0.258131,-0.175637,-0.195254,0.392452,-0.054824,-0.148938,-0.319435,-0.012506,-0.095314,0.40224,-0.17011,-0.059573,-0.020854,0.045125,0.028568,0.160988,0.145884,-0.096778,0.848159,0.945001,0.062366,-0.05783,0.08427,-0.180023,0.125011,0.971657,-0.86381,0.349823,-0.045448
0.325088,0.374941,0.787533,0.01682,-0.016995,-0.999394,-0.025285,0.200155,-0.182792,-0.246826,0.519015,0.002493,-0.239733,-0.272564,-0.035229,-0.142204,0.36816,-0.182703,-0.055047,-0.023525,0.048639,0.028008,0.151718,0.173511,-0.121189,0.78643,0.953579,0.006433,-0.119454,0.066141,-0.157687,0.132162,0.977573,-0.886225,0.344205,-0.031358
0.310594,0.377119,0.790203,0.015695,-0.018595,-0.999682,0.006601,0.132711,-0.20556,-0.248509,0.66688,0.062248,-0.24739,-0.227347,-0.061643,-0.197012,0.346368,-0.200522,-0.049395,-0.031356,0.047047,0.029944,0.136561,0.213682,-0.154354,0.71293,0.973613,-0.042878,-0.161468,0.050608,-0.133366,0.137538,0.967885,-0.901642,0.327172,-0.033165
0.296438,0.379154,0.79187,0.013258,-0.022223,-0.998938,0.038125,0.050153,-0.211372,-0.191298,0.820879,0.129386,-0.24773,-0.186225,-0.088828,-0.252118,0.336751,-0.222079,-0.043274,-0.043377,0.041353,0.035207,0.119749,0.253388,-0.175839,0.634648,0.99014,-0.081497,-0.160497,0.03025,-0.110621,0.149659,0.939817,-0.913315,0.306531,-0.040181
0.282395,0.380717,0.792665,0.009236,-0.025717,-0.997503,0.065119,-0.038219,-0.18593,-0.118543,0.955705,0.194419,-0.24774,-0.147802,-0.110944,-0.30062,0.337174,-0.24515,-0.03662,-0.053731,0.034734,0.043299,0.114952,0.275653,-0.17382,0.554648,0.994283,-0.094217,-0.123465,0.010963,-0.095048,0.171136,0.913593,-0.923604,0.282005,-0.062351
0.268392,0.381559,0.792536,0.004903,-0.027124,-0.996098,0.083837,-0.118107,-0.143745,-0.079774,1.052349,0.176044,-0.247732,-0.114168,-0.122979,-0.336041,0.343711,-0.267908,-0.029879,-0.055944,0.029965,0.052746,0.12541,0.275666,-0.147648,0.479211,0.982169,-0.083247,-0.050842,-0.014668,-0.08731,0.204206,0.897829,-0.931897,0.249528,-0.08398
0.254342,0.381553,0.791544,6.9e-05,-0.025778,-0.995094,0.095517,-0.188229,-0.090237,-0.059081,1.108717,0.092725,-0.247672,-0.083225,-0.125044,-0.35927,0.353215,-0.290232,-0.022559,-0.050903,0.027841,0.062285,0.148925,0.254128,-0.108165,0.416737,0.943145,-0.069712,0.04535,-0.048313,-0.089864,0.251109,0.897956,-0.947885,0.220923,-0.088899
0.240021,0.380675,0.790066,-0.004509,-0.022916,-0.994472,0.10237,-0.251316,-0.03433,-0.04378,1.126836,-0.007401,-0.24652,-0.052102,-0.120541,-0.373313,0.358942,-0.310006,-0.014085,-0.040237,0.027742,0.070712,0.181522,0.217079,-0.069646,0.368099,0.876546,-0.049287,0.131452,-0.087132,-0.100574,0.298131,0.914089,-0.968228,0.196617,-0.07766
0.225395,0.378905,0.788247,-0.007649,-0.019166,-0.993998,0.107433,-0.311362,0.017852,-0.016196,1.109195,-0.089523,-0.219786,-0.023214,-0.113677,-0.383281,0.363179,-0.327794,-0.004522,-0.027029,0.028748,0.077993,0.206894,0.186682,-0.046674,0.342754,0.79956,-0.033758,0.192176,-0.1283,-0.111719,0.342305,0.922052,-0.990105,0.18491,-0.045708
0.210398,0.376245,0.786122,-0.009277,-0.014842,-0.993647,0.111168,-0.365085,0.060216,0.021382,1.05094,-0.15472,-0.162164,0.002896,-0.105966,-0.390544,0.367011,-0.343847,0.005576,-0.012726,0.030119,0.083703,0.224847,0.172064,-0.044018,0.339291,0.737547,-0.021157,0.214074,-0.164737,-0.121739,0.37414,0.915953,-1.005769,0.177126,-0.015232
0.194925,0.372622,0.783571,-0.009575,-0.009909,-0.993569,0.11239,-0.406973,0.092665,0.057179,0.953954,-0.205702,-0.114902,0.026549,-0.097461,-0.39366,0.370246,-0.361265,0.016552,0.002924,0.031223,0.087635,0.239669,0.167149,-0.053881,0.350767,0.711676,-0.001079,0.212184,-0.195343,-0.127562,0.392941,0.900416,-1.008518,0.179783,-0.004871
0.178832,0.36815,0.780878,-0.00825,-0.005313,-0.993813,0.110636,-0.433873,0.112701,0.086167,0.812674,-0.224854,-0.082743,0.050326,-0.08908,-0.393092,0.366581,-0.376167,0.028018,0.019947,0.031974,0.089694,0.252513,0.172755,-0.071237,0.379538,0.723058,0.022821,0.192846,-0.216096,-0.130405,0.397579,0.877904,-0.993385,0.177471,-0.014475
0.161954,0.36276,0.778004,-0.005435,-0.000434,-0.994329,0.106204,-0.446699,0.118227,0.09643,0.636555,-0.222009,-0.058631,0.07461,-0.080143,-0.387674,0.356964,-0.38878,0.040823,0.03725,0.03271,0.089864,0.259838,0.16986,-0.088141,0.426514,0.756198,0.050726,0.162543,-0.23567,-0.129466,0.39269,0.857108,-0.965509,0.175016,-0.034328
0.144192,0.356541,0.775513,-0.002174,0.004339,-0.995088,0.098873,-0.442798,0.116095,0.094627,0.43462,-0.204145,-0.030685,0.103386,-0.070417,-0.37654,0.337085,-0.396577,0.055164,0.052931,0.032955,0.087908,0.272287,0.160348,-0.093602,0.488405,0.791064,0.082671,0.13298,-0.24563,-0.132731,0.392067,0.84202,-0.937739,0.169432,-0.059285
0.125724,0.349646,0.775418,0.001267,0.007575,-0.99597,0.089361,-0.432112,0.104218,0.071576,0.249228,-0.158872,-0.026484,0.139007,-0.062818,-0.360399,0.306942,-0.394519,0.071475,0.066728,0.031042,0.084887,0.283911,0.142041,-0.091729,0.568973,0.817595,0.117141,0.102425,-0.248081,-0.138846,0.400224,0.831707,-0.91499,0.164047,-0.075966
0.106661,0.341601,0.77328,0.001487,0.011238,-0.996959,0.077094,-0.425239,0.101088,0.06359,0.157063,-0.139489,-0.0492,0.174268,-0.060274,-0.338278,0.289098,-0.399338,0.08866,0.076595,0.028311,0.081457,0.303695,0.119938,-0.083584,0.655833,0.837803,0.150692,0.073861,-0.250452,-0.145114,0.418948,0.830762,-0.902715,0.16186,-0.076349
0.087357,0.332841,0.771301,0.000739,0.009909,-0.997833,0.065042,-0.406964,0.09238,0.064304,0.140455,-0.066449,-0.0308,0.209907,-0.070331,-0.31462,0.272826,-0.394981,0.106691,0.083679,0.022657,0.077527,0.320932,0.086996,-0.064081,0.746634,0.834812,0.181746,0.037162,-0.248493,-0.1553,0.437576,0.836305,-0.895807,0.165896,-0.072013
0.067325,0.323126,0.769301,-0.002391,0.006882,-0.99851,0.054075,-0.377676,0.085894,0.076144,0.144054,0.049822,-0.028096,0.243941,-0.08993,-0.290669,0.272261,-0.377684,0.127682,0.087968,0.013055,0.074681,0.332976,0.061943,-0.052209,0.837824,0.838988,0.207146,-0.009159,-0.239664,-0.163901,0.453174,0.8484,-0.894991,0.179246,-0.06526
0.047573,0.313229,0.771171,-0.007338,0.00188,-0.998895,0.046385,-0.346158,0.081272,0.105749,0.163502,0.09535,-0.064349,0.270148,-0.117742,-0.270844,0.293957,-0.343874,0.141282,0.090163,-0.000779,0.073243,0.336504,0.058801,-0.082475,0.924997,0.893664,0.215021,-0.072253,-0.218008,-0.167147,0.450585,0.86414,-0.890296,0.206637,-0.066551
0.028154,0.303223,0.774243,-0.011833,-0.005952,-0.999103,0.040227,-0.317278,0.063615,0.125137,0.1954,0.059037,-0.051219,0.273117,-0.154209,-0.247362,0.351673,-0.29511,0.140136,0.093094,-0.018467,0.072444,0.333162,0.061639,-0.122184,0.993589,0.964314,0.211244,-0.136663,-0.183252,-0.163725,0.429006,0.87926,-0.880883,0.2426,-0.08535
0.009608,0.29365,0.777677,-0.014801,-0.012454,-0.999192,0.03523,-0.285447,0.045571,0.143079,0.213914,0.018243,-0.044739,0.247112,-0.189055,-0.221051,0.446359,-0.226377,0.119656,0.096944,-0.036419,0.071502,0.328743,0.066626,-0.142634,1.02945,1.019448,0.195967,-0.186667,-0.137799,-0.149448,0.386039,0.895286,-0.855877,0.286173,-0.103615
-0.007745,0.284737,0.780453,-0.017025,-0.01748,-0.999305,0.028179,-0.249296,0.030245,0.162634,0.215388,-0.012718,-0.028796,0.192393,-0.22384,-0.190667,0.577651,-0.150331,0.106184,0.100341,-0.051131,0.071258,0.32843,0.069127,-0.126932,1.029308,1.039961,0.184114,-0.212862,-0.093532,-0.131225,0.345718,0.911539,-0.824437,0.314733,-0.10981
-0.024582,0.276302,0.783607,-0.019137,-0.020728,-0.999408,0.019696,-0.213546,0.01817,0.181944,0.213596,-0.038663,-0.011487,0.121338,-0.261825,-0.168758,0.731764,-0.075383,0.092407,0.101711,-0.06294,0.072696,0.331226,0.07085,-0.09544,0.999863,1.040816,0.161925,-0.20623,-0.061759,-0.123137,0.337477,0.93287,-0.806953,0.322807,-0.077106
-0.040872,0.268709,0.781829,-0.022693,-0.023401,-0.999381,0.013209,-0.17907,0.006627,0.197036,0.218819,-0.064226,0.002098,0.048945,-0.307753,-0.169986,0.877556,-0.009007,0.082468,0.100064,-0.074444,0.076384,0.33289,0.073911,-0.063377,0.957194,1.032772,0.132919,-0.1658,-0.039607,-0.132674,0.369888,0.952504,-0.817457,0.304976,-0.015149
-0.056157,0.26208,0.781084,-0.026516,-0.027407,-0.999221,0.010145,-0.153228,-0.007864,0.206699,0.232038,-0.094709,0.012792,-0.024706,-0.339761,-0.158961,1.005349,0.019488,0.082096,0.094028,-0.086444,0.083094,0.32427,0.079918,-0.044292,0.91688,1.023375,0.103234,-0.099068,-0.026102,-0.157215,0.432685,0.964301,-0.856995,0.264398,0.05078
-0.070897,0.256265,0.780365,-0.030882,-0.031397,-0.99898,0.009985,-0.131023,-0.02263,0.210703,0.250678,-0.126767,0.020539,-0.100332,-0.314329,-0.106376,1.102862,-0.026739,0.107523,0.086178,-0.096862,0.091358,0.299623,0.091261,-0.044033,0.890011,1.017176,0.076974,-0.024123,-0.014266,-0.185109,0.491336,0.966329,-0.902841,0.221397,0.089299
-0.085358,0.250951,0.779865,-0.034848,-0.033882,-0.998762,0.010565,-0.109055,-0.034719,0.211668,0.26673,-0.157292,0.025741,-0.169234,-0.263998,-0.054869,1.159101,-0.074638,0.149474,0.082214,-0.103627,0.098502,0.255774,0.111612,-0.065263,0.885195,1.024294,0.063962,0.025546,0.009524,-0.194153,0.473131,0.954723,-0.88804,0.213812,0.058823
-0.099708,0.245854,0.779608,-0.038554,-0.035192,-0.998569,0.011609,-0.08501,-0.045389,0.211096,0.276993,-0.184786,0.030331,-0.221893,-0.226894,-0.034325,1.162909,-0.110707,0.171455,0.081767,-0.107658,0.10341,0.201429,0.141994,-0.094761,0.901777,1.044439,0.060255,0.054618,0.046528,-0.182046,0.386996,0.931236,-0.815128,0.231614,-0.040679
-0.113958,0.241063,0.779217,-0.042534,-0.037025,-0.998326,0.012851,-0.061523,-0.056393,0.209953,0.28983,-0.213044,0.035093,-0.26095,-0.213308,-0.039318,1.120317,-0.169435,0.172828,0.08174,-0.110669,0.107055,0.129883,0.166487,-0.125098,0.926661,1.071116,0.070174,0.055066,0.081962,-0.163876,0.324,0.913636,-0.762419,0.252583,-0.129074
-0.128129,0.236395,0.778895,-0.045902,-0.03855,-0.998084,0.015354,-0.037299,-0.067952,0.205944,0.298041,-0.238571,0.040395,-0.287102,-0.215442,-0.065023,1.035474,-0.226737,0.142137,0.079993,-0.114031,0.109195,0.058862,0.180688,-0.143445,0.947036,1.091102,0.088912,0.046367,0.105652,-0.153977,0.301013,0.89609,-0.747828,0.279526,-0.167944
-0.142208,0.231891,0.778691,-0.048114,-0.039597,-0.997886,0.018452,-0.01206,-0.079101,0.199824,0.298922,-0.259939,0.04525,-0.30308,-0.218394,-0.098052,0.916982,-0.259553,0.109484,0.074918,-0.117675,0.109694,-0.000249,0.189452,-0.135882,0.95108,1.088701,0.105116,0.049403,0.110903,-0.148902,0.314309,0.888216,-0.75897,0.301854,-0.152516
-0.156231,0.227458,0.778456,-0.04887,-0.04005,-0.997766,0.02168,0.014586,-0.089399,0.192916,0.290809,-0.276689,0.049126,-0.31244,-0.21147,-0.127201,0.77531,-0.261736,0.075517,0.067045,-0.120568,0.108939,-0.046362,0.196201,-0.110876,0.937616,1.068167,0.111429,0.066684,0.09827,-0.149023,0.34832,0.890619,-0.779956,0.303324,-0.105712
-0.170197,0.223023,0.777891,-0.048509,-0.040347,-0.997717,0.024081,0.043013,-0.099373,0.187001,0.274599,-0.289578,0.051526,-0.316443,-0.190033,-0.14547,0.619562,-0.248044,0.060746,0.05837,-0.121531,0.106967,-0.083553,0.191972,-0.075114,0.915894,1.031652,0.118103,0.104625,0.083099,-0.15336,0.383464,0.889052,-0.799651,0.289205,-0.063151
-0.184216,0.218547,0.777208,-0.04773,-0.039411,-0.997745,0.025939,0.074495,-0.107262,0.180917,0.250771,-0.297708,0.056445,-0.32167,-0.153517,-0.136078,0.469489,-0.197155,0.106495,0.049947,-0.119682,0.104149,-0.11176,0.181832,-0.043214,0.890262,0.984366,0.114406,0.146171,0.068602,-0.160491,0.414236,0.88425,-0.823268,0.279303,-0.039032
-0.198307,0.214081,0.776129,-0.046647,-0.038355,-0.997806,0.027141,0.105635,-0.11426,0.176015,0.227021,-0.305819,0.060174,-0.32687,-0.116929,-0.113373,0.334451,-0.134758,0.164432,0.042838,-0.116021,0.100782,-0.130904,0.174251,-0.029632,0.863437,0.940928,0.098339,0.180028,0.056796,-0.168328,0.440834,0.877098,-0.852995,0.279568,-0.02426
-0.212459,0.209571,0.774476,-0.045078,-0.0378,-0.997906,0.026879,0.134205,-0.121653,0.17399,0.206738,-0.31541,0.062797,-0.335106,-0.098246,-0.130586,0.232253,-0.092711,0.194101,0.039046,-0.112129,0.097471,-0.142422,0.171284,-0.03761,0.837684,0.909124,0.080079,0.199265,0.050022,-0.171024,0.453057,0.86596,-0.874211,0.281291,-0.022419
-0.226854,0.205185,0.771931,-0.043658,-0.039778,-0.997937,0.025182,0.157957,-0.132688,0.175104,0.198632,-0.331534,0.064833,-0.351965,-0.099296,-0.199324,0.188815,-0.089369,0.204241,0.038082,-0.109023,0.09502,-0.146032,0.169629,-0.062074,0.811912,0.885618,0.056714,0.208363,0.048008,-0.170379,0.447884,0.855636,-0.878742,0.283328,-0.025728
-0.24161,0.200869,0.769059,-0.042368,-0.04142,-0.997949,0.024212,0.181324,-0.143197,0.174387,0.192966,-0.349027,0.066367,-0.371134,-0.103054,-0.259396,0.194809,-0.079802,0.187903,0.035848,-0.105757,0.093062,-0.140704,0.168894,-0.092725,0.787549,0.865139,0.034102,0.209283,0.048543,-0.165357,0.431264,0.848026,-0.869665,0.285147,-0.029127
-0.256975,0.196781,0.765934,-0.042094,-0.043199,-0.997864,0.025083,0.20624,-0.153503,0.170181,0.190722,-0.36696,0.06729,-0.390249,-0.104596,-0.282089,0.233723,-0.078984,0.156888,0.03107,-0.101436,0.09175,-0.128014,0.166783,-0.128673,0.768055,0.852156,0.01885,0.205707,0.052795,-0.158673,0.407363,0.841516,-0.852241,0.284924,-0.037207
-0.2731,0.193095,0.762716,-0.041832,-0.045037,-0.997658,0.030009,0.230387,-0.16274,0.159094,0.192627,-0.385679,0.067725,-0.40481,-0.10004,-0.266316,0.283284,-0.095326,0.140828,0.023519,-0.096297,0.089871,-0.112386,0.158345,-0.165789,0.758474,0.842229,0.008797,0.197391,0.062855,-0.151243,0.373618,0.832265,-0.826334,0.283133,-0.051804
-0.289928,0.189955,0.759886,-0.040882,-0.046458,-0.997282,0.039992,0.253629,-0.169219,0.13915,0.194881,-0.402242,0.066642,-0.408987,-0.089609,-0.222111,0.324517,-0.112882,0.137556,0.013815,-0.090327,0.084912,-0.097276,0.144319,-0.206383,0.765191,0.839103,0.005595,0.182714,0.080927,-0.141969,0.329317,0.818565,-0.792737,0.28257,-0.073551
-0.307431,0.187396,0.758232,-0.038688,-0.046662,-0.996728,0.053466,0.277497,-0.170892,0.11286,0.19139,-0.411099,0.064484,-0.403407,-0.07501,-0.173178,0.354428,-0.116015,0.123993,0.004191,-0.083471,0.075008,-0.083276,0.12656,-0.248209,0.788835,0.840431,0.008565,0.163393,0.104361,-0.130296,0.283442,0.804122,-0.75835,0.283421,-0.092363
-0.32546,0.185413,0.759126,-0.035047,-0.043022,-0.996238,0.066561,0.305225,-0.162479,0.086908,0.172057,-0.403424,0.060623,-0.38793,-0.060468,-0.161061,0.35667,-0.086728,0.033982,-0.003478,-0.075293,0.05872,-0.067203,0.111382,-0.289426,0.827664,0.850368,0.0201,0.142277,0.127532,-0.114494,0.247127,0.794577,-0.733347,0.286261,-0.102633
-0.344084,0.18439,0.764135,-0.029746,-0.037205,-0.995846,0.077604,0.332667,-0.146824,0.066749,0.153733,-0.382568,0.05219,-0.368681,-0.049368,-0.172767,0.347745,-0.044445,-0.047776,-0.009712,-0.064257,0.037935,-0.049331,0.100687,-0.331841,0.877464,0.875099,0.039669,0.090965,0.142948,-0.099744,0.228528,0.799631,-0.727184,0.29004,-0.105066
-0.36329,0.183488,0.767873,-0.025499,-0.030441,-0.995559,0.085359,0.353026,-0.126169,0.055471,0.148442,-0.354112,0.038181,-0.350236,-0.037848,-0.186185,0.351515,-0.051288,-0.086727,-0.014814,-0.049449,0.016105,-0.022101,0.093421,-0.358971,0.924357,0.909325,0.057191,0.019299,0.14568,-0.090071,0.228849,0.827265,-0.74093,0.299142,-0.095843
-0.382828,0.182512,0.771385,-0.021974,-0.023899,-0.995349,0.090696,0.364389,-0.104903,0.047537,0.1599,-0.313593,0.017376,-0.327871,-0.028375,-0.200875,0.356747,-0.078771,-0.090464,-0.017716,-0.032717,-0.004664,0.013641,0.084975,-0.353557,0.970346,0.931156,0.079659,-0.049752,0.139892,-0.079892,0.22038,0.868867,-0.743773,0.314189,-0.065826
-0.402193,0.181779,0.774708,-0.018297,-0.01743,-0.994914,0.097511,0.366718,-0.082344,0.030688,0.182254,-0.266885,-0.015372,-0.296343,-0.018931,-0.219588,0.345481,-0.103777,-0.090239,-0.019448,-0.017667,-0.023246,0.051345,0.073143,-0.308848,1.013195,0.9147,0.101526,-0.125555,0.131629,-0.069981,0.193786,0.908856,-0.732899,0.337093,-0.020293
-0.421072,0.181336,0.776563,-0.014658,-0.0117,-0.994326,0.104712,0.359485,-0.060095,0.008641,0.219619,-0.220942,-0.063986,-0.26295,-0.008979,-0.236975,0.33049,-0.124449,-0.091895,-0.020149,-0.006177,-0.038183,0.081919,0.071023,-0.246756,1.038893,0.880205,0.110578,-0.213527,0.122883,-0.072639,0.165544,0.937829,-0.736405,0.340199,0.008833
-0.439145,0.181233,0.779188,-0.011732,-0.007342,-0.993534,0.112691,0.337795,-0.04092,-0.021638,0.282422,-0.173979,-0.122859,-0.229316,0.000853,-0.253465,0.310177,-0.142704,-0.096813,-0.020335,0.00214,-0.048918,0.09753,0.090985,-0.195859,1.053227,0.860367,0.124288,-0.261292,0.114961,-0.07294,0.165931,0.95087,-0.769078,0.343583,0.011644
-0.456207,0.181481,0.781479,-0.010704,-0.004409,-0.992396,0.122537,0.296342,-0.027018,-0.059727,0.38583,-0.131489,-0.191067,-0.196253,0.007814,-0.27149,0.295486,-0.161546,-0.104349,-0.021252,0.008249,-0.053667,0.10709,0.122566,-0.184063,1.052526,0.881034,0.122215,-0.267039,0.100591,-0.081765,0.18785,0.960732,-0.823517,0.329181,0.003885
-0.472338,0.181682,0.784497,-0.010749,-0.002478,-0.990889,0.134226,0.237629,-0.02201,-0.100539,0.526814,-0.086918,-0.243683,-0.167422,0.010829,-0.292192,0.290887,-0.182374,-0.110939,-0.022215,0.01228,-0.052613,0.111718,0.17045,-0.200853,1.035976,0.934523,0.109988,-0.236229,0.084072,-0.089318,0.214103,0.967616,-0.872577,0.307416,0.001752
-0.487635,0.182091,0.785413,-0.01186,-0.002097,-0.988973,0.147603,0.164781,-0.03237,-0.123534,0.684619,-0.023818,-0.247575,-0.139672,0.011008,-0.315643,0.288692,-0.204074,-0.115301,-0.024468,0.012859,-0.046616,0.113887,0.219524,-0.219591,1.008641,0.992879,0.105486,-0.172339,0.066592,-0.098295,0.238215,0.970358,-0.910469,0.280962,0.002393
-0.502413,0.1825,0.785759,-0.015038,-0.004102,-0.986758,0.161448,0.08371,-0.039574,-0.119785,0.842907,0.069775,-0.247738,-0.106928,0.008691,-0.339043,0.283039,-0.224108,-0.117052,-0.027512,0.009913,-0.036368,0.11631,0.257003,-0.222109,0.9764,1.033981,0.114576,-0.0868,0.049482,-0.109744,0.257805,0.971025,-0.936082,0.254818,0.006664
-0.516767,0.182642,0.785955,-0.019649,-0.00751,-0.984725,0.172843,0.000508,-0.034444,-0.094957,0.983401,0.180461,-0.247741,-0.070132,0.006917,-0.358909,0.27274,-0.24084,-0.117357,-0.029467,0.00494,-0.023132,0.121965,0.274393,-0.191448,0.942854,1.03377,0.131167,0.000227,0.028324,-0.123914,0.278328,0.975527,-0.958339,0.236694,0.009678
-0.53064,0.182272,0.785914,-0.024608,-0.010981,-0.983359,0.179666,-0.080308,-0.014927,-0.065849,1.09429,0.281128,-0.247736,-0.033966,0.007511,-0.371237,0.262051,-0.255338,-0.116737,-0.027711,8.9e-05,-0.009296,0.130138,0.269103,-0.13052,0.907973,0.989986,0.144851,0.072408,0.000532,-0.137884,0.30299,0.984305,-0.978193,0.23139,0.012712
-0.543955,0.18126,0.785197,-0.029171,-0.012722,-0.9829,0.181371,-0.148329,-0.005141,-0.065582,1.165239,0.262781,-0.247714,-0.006981,0.010389,-0.374819,0.265617,-0.274493,-0.115539,-0.020433,-0.003378,0.003301,0.140011,0.253553,-0.052533,0.873407,0.913439,0.152578,0.12408,-0.03129,-0.148922,0.325464,0.997984,-0.997311,0.238627,0.019667
-0.556894,0.179645,0.783819,-0.03287,-0.013041,-0.983211,0.179012,-0.204761,-0.002425,-0.08291,1.195833,0.130631,-0.247288,0.01099,0.014162,-0.370886,0.282491,-0.298453,-0.113661,-0.009256,-0.005366,0.013862,0.148993,0.234223,0.016421,0.840712,0.829019,0.150369,0.152257,-0.063488,-0.152993,0.337528,1.007273,-1.008282,0.251926,0.02193
-0.569884,0.177438,0.781958,-0.035802,-0.011839,-0.984059,0.173799,-0.258643,0.013155,-0.093252,1.192887,-0.01252,-0.237206,0.025037,0.020016,-0.361527,0.304412,-0.324509,-0.110845,0.004274,-0.005717,0.022378,0.159378,0.221027,0.054071,0.81081,0.770342,0.147155,0.167576,-0.093638,-0.147616,0.341821,1.008316,-1.010275,0.267206,0.021788
-0.583321,0.174851,0.780139,-0.037382,-0.010811,-0.984993,0.168149,-0.310847,0.040502,-0.064663,1.154834,-0.106012,-0.182184,0.042123,0.026725,-0.349852,0.316881,-0.346554,-0.106899,0.017012,-0.004664,0.028569,0.168479,0.211612,0.059281,0.789093,0.745622,0.147781,0.184459,-0.116251,-0.140708,0.330559,0.998483,-0.99687,0.279583,0.012693
-0.59718,0.171925,0.7781,-0.037521,-0.008112,-0.986093,0.161699,-0.357628,0.064739,-0.028678,1.080422,-0.176345,-0.122136,0.058492,0.03683,-0.33599,0.325509,-0.366783,-0.10265,0.029787,-0.002869,0.032673,0.173773,0.204918,0.041349,0.779845,0.746837,0.150182,0.19467,-0.130737,-0.13518,0.312927,0.97798,-0.974464,0.275149,-0.006004
-0.611607,0.168742,0.775835,-0.036405,-0.004636,-0.987274,0.154733,-0.393247,0.079242,0.001706,0.970009,-0.22401,-0.090456,0.075701,0.048403,-0.321846,0.329201,-0.385265,-0.0982,0.042365,-0.000489,0.034809,0.179112,0.194444,0.015326,0.779104,0.757512,0.149155,0.190639,-0.139401,-0.127231,0.299898,0.95221,-0.948998,0.260172,-0.027899
-0.626743,0.165357,0.773312,-0.034189,-0.001002,-0.988504,0.147276,-0.419183,0.083891,0.025732,0.831305,-0.237027,-0.076988,0.094815,0.060551,-0.306787,0.327009,-0.401199,-0.09358,0.053949,0.002148,0.035658,0.18424,0.180495,-0.013694,0.787334,0.775999,0.146454,0.166184,-0.143053,-0.120995,0.297015,0.92393,-0.924433,0.237526,-0.047973
-0.642621,0.161689,0.770266,-0.031285,0.003741,-0.98974,0.139363,-0.433506,0.080783,0.040243,0.670287,-0.226193,-0.059028,0.114256,0.074398,-0.290003,0.323505,-0.416369,-0.088253,0.063801,0.004816,0.035549,0.190043,0.163314,-0.036566,0.799615,0.801908,0.143623,0.132634,-0.14476,-0.116614,0.3078,0.897105,-0.906753,0.21144,-0.062795
-0.659245,0.157726,0.767022,-0.028109,0.008164,-0.991025,0.130434,-0.435813,0.07603,0.054941,0.494004,-0.186333,-0.059698,0.137188,0.087893,-0.269287,0.313696,-0.427114,-0.082408,0.071452,0.007428,0.034578,0.197982,0.13612,-0.043146,0.813497,0.821803,0.14422,0.094986,-0.146045,-0.114476,0.331279,0.876865,-0.897318,0.18716,-0.066459
-0.676624,0.153368,0.763637,-0.02552,0.012442,-0.992432,0.119466,-0.427201,0.070675,0.071927,0.318996,-0.144502,-0.079049,0.16378,0.100251,-0.244897,0.301115,-0.433289,-0.076261,0.07749,0.009982,0.033015,0.209599,0.102929,-0.036297,0.827609,0.832957,0.144364,0.058355,-0.146428,-0.111571,0.361361,0.862573,-0.892243,0.168064,-0.056239
-0.69467,0.148439,0.760108,-0.024107,0.01733,-0.993878,0.106418,-0.42073,0.065342,0.081575,0.188759,-0.120388,-0.138014,0.191664,0.111298,-0.216524,0.293674,-0.439456,-0.068307,0.083078,0.012555,0.031881,0.221771,0.068406,-0.012378,0.839796,0.828988,0.153672,0.034167,-0.14556,-0.110866,0.401863,0.844263,-0.90191,0.148027,-0.044641
-0.712988,0.142906,0.757249,-0.02378,0.022422,-0.995216,0.092072,-0.420452,0.062432,0.086574,0.133127,-0.131327,-0.201314,0.217753,0.119142,-0.185732,0.295851,-0.448042,-0.058797,0.088509,0.015314,0.031693,0.232814,0.028908,0.051326,0.845132,0.778465,0.168661,0.031936,-0.136937,-0.116041,0.443851,0.80343,-0.933008,0.115664,-0.053312
-0.731449,0.137007,0.758729,-0.02298,0.023538,-0.996573,0.075895,-0.416172,0.050624,0.07068,0.139171,-0.114894,-0.174128,0.245366,0.116798,-0.151956,0.297421,-0.448429,-0.048403,0.094725,0.016741,0.031875,0.239313,-0.004035,0.104395,0.849531,0.734601,0.180452,0.046856,-0.123291,-0.124037,0.473582,0.738889,-0.96529,0.078554,-0.088157
-0.750236,0.130563,0.75991,-0.022791,0.019246,-0.997959,0.056464,-0.402674,0.02271,0.018217,0.159966,-0.044117,-0.08224,0.275796,0.100269,-0.11352,0.289564,-0.436342,-0.03776,0.102035,0.014322,0.031013,0.244025,-0.007831,0.084275,0.866869,0.765575,0.17448,0.025638,-0.095824,-0.126816,0.473755,0.653288,-0.960475,0.040061,-0.129412
-0.770007,0.123346,0.761042,-0.023925,0.013498,-0.999024,0.034577,-0.374523,0.006869,0.003595,0.162805,0.038956,-0.042023,0.307514,0.075085,-0.07369,0.28409,-0.408996,-0.02357,0.106285,0.008756,0.028044,0.250877,0.006514,0.032263,0.886815,0.838422,0.154799,0.003032,-0.067331,-0.128678,0.4717,0.5589,-0.9388,-5.2e-05,-0.147586
-0.789748,0.115883,0.764077,-0.025082,0.007565,-0.999552,0.014486,-0.34105,0.010404,0.048039,0.165211,0.094904,-0.030827,0.329302,0.045225,-0.041006,0.296627,-0.372742,-0.007394,0.105235,0.000101,0.022388,0.254378,0.023211,-0.016249,0.911406,0.90848,0.139108,-0.021313,-0.044979,-0.13635,0.475338,0.45751,-0.921972,-0.032136,-0.146262
-0.809558,0.108622,0.766524,-0.026209,0.000953,-0.999648,-0.004082,-0.305043,0.009319,0.090267,0.173574,0.090979,-0.018148,0.337847,0.014478,-0.005219,0.327661,-0.320248,0.011837,0.101845,-0.012009,0.014676,0.252131,0.037959,-0.05236,0.941345,0.961479,0.130129,-0.045533,-0.0292,-0.146968,0.480992,0.346598,-0.916692,-0.06474,-0.137158
-0.828353,0.101713,0.770459,-0.025303,-0.005636,-0.999439,-0.021208,-0.272227,0.002258,0.125394,0.17422,0.058442,-0.005923,0.320689,-0.013965,0.033428,0.389735,-0.255916,0.035431,0.096805,-0.025364,0.006078,0.241688,0.052235,-0.079864,0.970619,1.002799,0.126061,-0.070662,-0.026796,-0.163078,0.485329,0.223612,-0.939719,-0.106206,-0.141288
-0.84599,0.095339,0.773901,-0.02317,-0.010372,-0.999002,-0.036737,-0.240427,-0.004381,0.156733,0.165426,0.030299,0.002346,0.278782,-0.03527,0.064745,0.484973,-0.187904,0.061229,0.090775,-0.036566,-0.00084,0.225326,0.070295,-0.10034,0.991448,1.035952,0.12243,-0.091652,-0.035836,-0.178493,0.48313,0.087092,-0.977796,-0.147447,-0.170279
-0.8621,0.089402,0.776247,-0.021263,-0.012561,-0.998407,-0.050733,-0.219421,-0.00767,0.183318,0.170975,0.002135,0.018979,0.215862,-0.050538,0.082248,0.610768,-0.119037,0.092505,0.084168,-0.043926,-0.003373,0.206379,0.092474,-0.119045,0.999747,1.065084,0.117643,-0.106939,-0.061382,-0.193765,0.479352,-0.061765,-1.02894,-0.172154,-0.236163
-0.87715,0.083842,0.779331,-0.01971,-0.013855,-0.997728,-0.062922,-0.206495,-0.009599,0.206658,0.189479,-0.028808,0.034456,0.138569,-0.066704,0.086478,0.760668,-0.05667,0.133144,0.076549,-0.048656,-0.000829,0.187303,0.114786,-0.131462,0.99317,1.08386,0.109612,-0.106791,-0.107297,-0.207401,0.480643,-0.219195,-1.067954,-0.196462,-0.34034
-0.891239,0.078602,0.780429,-0.019187,-0.014665,-0.99703,-0.073127,-0.193403,-0.012088,0.227061,0.207014,-0.060912,0.043006,0.054567,-0.091531,0.073362,0.906275,-0.011448,0.175599,0.068576,-0.05295,0.005513,0.166915,0.137455,-0.135938,0.976655,1.088048,0.093404,-0.08528,-0.166642,-0.214624,0.488557,-0.369404,-1.059519,-0.229168,-0.468441
-0.904688,0.073631,0.780665,-0.019684,-0.016455,-0.996287,-0.08218,-0.178157,-0.017913,0.245893,0.221985,-0.092582,0.048952,-0.02536,-0.129326,0.04653,1.026154,-0.019493,0.169559,0.061448,-0.058405,0.014121,0.143961,0.160856,-0.140415,0.95864,1.08583,0.077181,-0.051907,-0.24141,-0.221312,0.496733,-0.502496,-1.048393,-0.262461,-0.597314
-0.917665,0.069002,0.780465,-0.021202,-0.019518,-0.995505,-0.090218,-0.161162,-0.02731,0.263397,0.235157,-0.122551,0.053369,-0.095722,-0.165646,0.018474,1.102057,-0.100105,0.134037,0.055223,-0.065301,0.023022,0.116954,0.183576,-0.144191,0.943525,1.079076,0.068015,-0.016554,-0.327062,-0.22419,0.502803,-0.613543,-1.056877,-0.303688,-0.706212
-0.930552,0.064731,0.780351,-0.023237,-0.021972,-0.994879,-0.095882,-0.140746,-0.038148,0.27623,0.242247,-0.148508,0.056625,-0.154291,-0.192441,-0.011636,1.126211,-0.151441,0.109094,0.049682,-0.072279,0.030647,0.083047,0.206068,-0.147165,0.933625,1.07304,0.071001,0.01535,-0.41126,-0.218696,0.50856,-0.699231,-1.08447,-0.333211,-0.77972
-0.943426,0.060776,0.780439,-0.025264,-0.023385,-0.994545,-0.098464,-0.118603,-0.04982,0.282811,0.244328,-0.17091,0.059309,-0.196966,-0.204855,-0.041099,1.097004,-0.191141,0.084046,0.044205,-0.077978,0.036349,0.043094,0.230019,-0.150823,0.93142,1.074346,0.08079,0.039525,-0.49217,-0.209391,0.519848,-0.759896,-1.119709,-0.342404,-0.813266
-0.956219,0.057169,0.780484,-0.02762,-0.025035,-0.994484,-0.098038,-0.09835,-0.063072,0.283883,0.250049,-0.193819,0.061715,-0.226947,-0.206558,-0.067507,1.023484,-0.237411,0.079092,0.038787,-0.082311,0.040495,-0.001084,0.242589,-0.148629,0.931924,1.072588,0.096744,0.057147,-0.572253,-0.204166,0.543769,-0.797903,-1.157952,-0.345854,-0.827519
-0.96901,0.053769,0.780628,-0.029422,-0.026151,-0.994696,-0.09503,-0.078638,-0.077051,0.278904,0.254179,-0.214507,0.067059,-0.244817,-0.198281,-0.089541,0.91272,-0.286576,0.076318,0.034079,-0.085637,0.043073,-0.046325,0.244158,-0.13657,0.930436,1.062457,0.120977,0.069725,-0.647523,-0.203471,0.575744,-0.815323,-1.190245,-0.342187,-0.835889
-0.981717,0.05049,0.780813,-0.030252,-0.026652,-0.995037,-0.090968,-0.057581,-0.091006,0.270199,0.251586,-0.231046,0.073998,-0.257533,-0.184528,-0.11021,0.781667,-0.315701,0.069466,0.030594,-0.087914,0.044337,-0.089004,0.238942,-0.122673,0.922535,1.047286,0.134576,0.084829,-0.708348,-0.206827,0.61517,-0.812744,-1.200163,-0.323629,-0.830852
-0.994196,0.04714,0.781067,-0.029445,-0.026021,-0.995503,-0.086196,-0.033936,-0.104185,0.258924,0.236196,-0.240111,0.082413,-0.268559,-0.165791,-0.131011,0.645541,-0.31272,0.046209,0.028945,-0.088762,0.044534,-0.128058,0.227932,-0.106208,0.90831,1.022685,0.140237,0.104888,-0.76011,-0.212591,0.648351,-0.804111,-1.20565,-0.301765,-0.837467
-1.006265,0.043543,0.781433,-0.027289,-0.023561,-0.996006,-0.081687,-0.007942,-0.114706,0.246978,0.208886,-0.241221,0.093209,-0.283799,-0.143205,-0.156103,0.528393,-0.266906,0.006983,0.029011,-0.087851,0.044262,-0.159864,0.216686,-0.101109,0.887776,1.000753,0.135372,0.125019,-0.803062,-0.221177,0.676056,-0.792861,-1.211341,-0.284099,-0.85302
-1.017915,0.039804,0.781277,-0.024726,-0.021775,-0.996477,-0.077127,0.014623,-0.125542,0.235348,0.184809,-0.24313,0.101709,-0.305661,-0.115761,-0.1662,0.445507,-0.203676,-0.002117,0.028889,-0.085184,0.044518,-0.179001,0.200337,-0.102728,0.858989,0.97448,0.121166,0.148129,-0.84046,-0.231875,0.704891,-0.78082,-1.20624,-0.267723,-0.86899
-1.029341,0.035908,0.78026,-0.02216,-0.021717,-0.996961,-0.071454,0.029842,-0.138384,0.223266,0.174217,-0.251405,0.108304,-0.334709,-0.088191,-0.161556,0.398871,-0.153137,0.049988,0.027977,-0.081847,0.045823,-0.186229,0.179252,-0.114635,0.824147,0.947854,0.099223,0.175111,-0.876871,-0.247454,0.731569,-0.772375,-1.19813,-0.254345,-0.879647
-1.040868,0.031758,0.778731,-0.01972,-0.021719,-0.997548,-0.063542,0.043277,-0.151873,0.207651,0.167985,-0.261765,0.114539,-0.365595,-0.056877,-0.139474,0.372636,-0.121456,0.068442,0.025727,-0.078232,0.047574,-0.183548,0.154981,-0.137308,0.790761,0.918514,0.069676,0.194131,-0.908255,-0.265032,0.752821,-0.769246,-1.191548,-0.239232,-0.889341
-1.052782,0.027526,0.776779,-0.017561,-0.022864,-0.998097,-0.054502,0.057118,-0.167518,0.189725,0.163986,-0.273402,0.12114,-0.388592,-0.036418,-0.1366,0.353328,-0.11083,0.118055,0.024058,-0.075253,0.04902,-0.173457,0.129781,-0.17092,0.765762,0.88928,0.036309,0.205919,-0.93345,-0.284545,0.770598,-0.770639,-1.183418,-0.22512,-0.899689
-1.065216,0.023122,0.774646,-0.01561,-0.024311,-0.998627,-0.043702,0.074037,-0.184311,0.168149,0.157397,-0.283415,0.127955,-0.401991,-0.023958,-0.15022,0.332151,-0.099683,0.11788,0.022031,-0.072919,0.049746,-0.16079,0.106339,-0.21817,0.755591,0.868718,0.011778,0.201448,-0.951255,-0.30534,0.781537,-0.773724,-1.180943,-0.208882,-0.905988
-1.07821,0.018546,0.772288,-0.01421,-0.025996,-0.999022,-0.032822,0.094997,-0.201416,0.145059,0.148672,-0.293133,0.133945,-0.406993,-0.01494,-0.170249,0.312315,-0.090143,0.103418,0.019475,-0.070645,0.049424,-0.144457,0.084698,-0.274299,0.755949,0.859998,-0.002396,0.193624,-0.963173,-0.322892,0.788637,-0.777159,-1.180269,-0.196717,-0.912103
-1.09172,0.013813,0.76963,-0.012957,-0.028021,-0.999275,-0.022293,0.11833,-0.21872,0.121074,0.139272,-0.303822,0.139252,-0.405521,-0.007969,-0.200086,0.294997,-0.087,0.088492,0.016903,-0.068225,0.047936,-0.124082,0.062455,-0.336805,0.767965,0.859509,-0.005172,0.185439,-0.968978,-0.335868,0.791402,-0.780736,-1.184315,-0.185302,-0.915395
-1.105701,0.008998,0.766782,-0.011484,-0.030487,-0.999397,-0.012,0.142219,-0.236043,0.096228,0.130956,-0.31431,0.143567,-0.398892,-0.000336,-0.233808,0.283282,-0.094983,0.080991,0.01452,-0.065399,0.045385,-0.100457,0.040895,-0.410882,0.788471,0.87633,0.016304,0.202356,-0.973615,-0.343702,0.794975,-0.784325,-1.187899,-0.175441,-0.917436
-1.120074,0.004224,0.764088,-0.009459,-0.032924,-0.999412,-0.001683,0.165432,-0.252072,0.069978,0.124241,-0.323104,0.145313,-0.392054,0.012391,-0.250604,0.282069,-0.105058,0.055217,0.011575,-0.061605,0.041939,-0.077195,0.028504,-0.506702,0.81552,0.926786,0.059515,0.253257,-0.977836,-0.350148,0.80071,-0.784566,-1.191148,-0.167912,-0.925077
-1.134518,-0.00016,0.762294,-0.00385,-0.033192,-0.999339,0.014349,0.171341,-0.260649,0.037565,0.137442,-0.333966,0.146234,-0.396268,0.0364,-0.204838,0.296135,-0.103683,-0.005414,0.003666,-0.055055,0.037056,-0.057651,0.018967,-0.603539,0.853138,0.979657,0.092466,0.255135,-0.985229,-0.362502,0.803704,-0.791896,-1.199423,-0.157459,-0.929678
-1.149518,-0.004393,0.76171,0.00097,-0.031658,-0.998999,0.031599,0.182737,-0.26369,0.002818,0.144484,-0.336925,0.144429,-0.396617,0.055313,-0.16224,0.308506,-0.090392,-0.105989,-0.005062,-0.046982,0.030484,-0.050545,0.023534,-0.656608,0.903926,0.979619,0.082319,0.097544,-0.980989,-0.379254,0.807208,-0.806778,-1.211521,-0.144522,-0.934607
-1.16501,-0.008566,0.762567,0.002575,-0.028993,-0.99855,0.045286,0.20652,-0.26205,-0.025013,0.141086,-0.327002,0.135602,-0.3864,0.045065,-0.173356,0.328377,-0.090608,-0.127632,-0.00941,-0.036528,0.025142,-0.058416,0.041387,-0.641255,0.930614,0.932263,0.091869,-0.038527,-0.974453,-0.393572,0.812077,-0.816543,-1.219736,-0.133782,-0.94413
-1.181539,-0.013002,0.765131,0.003025,-0.026351,-0.998094,0.055726,0.228406,-0.259568,-0.044231,0.153858,-0.313325,0.114364,-0.373143,0.030262,-0.188587,0.36127,-0.120226,-0.116871,-0.011469,-0.023512,0.021699,-0.069057,0.06558,-0.591622,0.929645,0.891372,0.144323,-0.01955,-0.977429,-0.403124,0.818735,-0.816859,-1.223639,-0.125212,-0.950864
-1.197731,-0.016872,0.768359,0.004014,-0.024228,-0.997519,0.065975,0.237815,-0.254182,-0.06552,0.178755,-0.292874,0.076568,-0.351987,0.021091,-0.200045,0.370791,-0.140996,-0.123384,-0.014493,-0.010974,0.017729,-0.073333,0.087246,-0.553479,0.924105,0.881563,0.205835,0.095666,-0.989572,-0.407422,0.825605,-0.817012,-1.223742,-0.111297,-0.953736
-1.213685,-0.020096,0.772306,0.004867,-0.022035,-0.99658,0.079491,0.235388,-0.246154,-0.092437,0.221959,-0.268755,0.019939,-0.318117,0.014569,-0.217601,0.354422,-0.150094,-0.14369,-0.018786,-0.001751,0.013113,-0.073917,0.114998,-0.528551,0.925293,0.890241,0.245613,0.2262,-0.997193,-0.412281,0.830171,-0.821708,-1.231014,-0.096488,-0.958581
-1.229333,-0.023029,0.776417,0.004804,-0.020668,-0.99538,0.093638,0.217852,-0.238958,-0.112049,0.29587,-0.24571,-0.056854,-0.280938,0.006268,-0.239219,0.335223,-0.161748,-0.149316,-0.023203,0.005151,0.009294,-0.075304,0.142568,-0.498651,0.936368,0.879425,0.259082,0.293258,-1.003541,-0.416212,0.833516,-0.827481,-1.242249,-0.086314,-0.965106
-1.244762,-0.025869,0.781945,0.003342,-0.01978,-0.993929,0.108176,0.184262,-0.233208,-0.117053,0.407034,-0.223769,-0.160593,-0.245043,-0.00364,-0.261862,0.325883,-0.180367,-0.140641,-0.02786,0.009963,0.007774,-0.082082,0.170607,-0.459815,0.949526,0.84204,0.251817,0.279607,-1.011049,-0.417423,0.837285,-0.831432,-1.250322,-0.080767,-0.973537
-1.25957,-0.028123,0.784173,0.000718,-0.018525,-0.991899,0.125666,0.134286,-0.235051,-0.099641,0.547669,-0.201256,-0.243893,-0.212855,-0.013168,-0.291772,0.32489,-0.202239,-0.136462,-0.035025,0.010602,0.008977,-0.096675,0.204121,-0.421704,0.957603,0.793656,0.235512,0.210325,-1.021035,-0.417625,0.839628,-0.833548,-1.260045,-0.077839,-0.980029
-1.27397,-0.029969,0.785076,-0.002126,-0.018548,-0.98915,0.145719,0.068731,-0.242143,-0.055825,0.709111,-0.173789,-0.247598,-0.181976,-0.024645,-0.327464,0.326153,-0.225859,-0.133409,-0.045905,0.006542,0.011893,-0.115709,0.246412,-0.407258,0.957214,0.767769,0.211505,0.131665,-1.034041,-0.414291,0.84244,-0.835021,-1.264283,-0.077022,-0.983415
-1.288298,-0.031931,0.785397,-0.005655,-0.018519,-0.986516,0.162518,-0.000153,-0.217513,-0.023606,0.855234,-0.169954,-0.247748,-0.150472,-0.031705,-0.358389,0.327287,-0.24884,-0.13034,-0.05396,0.001324,0.016491,-0.131455,0.290816,-0.408536,0.946858,0.766968,0.185864,0.082358,-1.047315,-0.406675,0.849883,-0.833277,-1.259218,-0.075425,-0.984908
-1.302896,-0.034393,0.785582,-0.009756,-0.018949,-0.984829,0.172212,-0.062341,-0.147464,0.009782,0.960884,-0.184067,-0.247701,-0.115088,-0.032381,-0.376451,0.321863,-0.268421,-0.126631,-0.055334,-0.002099,0.022287,-0.134266,0.326141,-0.411219,0.927096,0.782757,0.168544,0.079638,-1.062436,-0.394247,0.863661,-0.828879,-1.246728,-0.07449,-0.985327
-1.317423,-0.037539,0.785348,-0.013729,-0.018101,-0.984477,0.174039,-0.117557,-0.05732,0.044562,1.023882,-0.192638,-0.246568,-0.081786,-0.025814,-0.380119,0.316311,-0.286605,-0.122132,-0.049053,-0.002529,0.029266,-0.120774,0.344871,-0.398184,0.897663,0.798117,0.168373,0.12991,-1.07839,-0.377951,0.881718,-0.82232,-1.229007,-0.07279,-0.985487
-1.331685,-0.04127,0.784607,-0.01662,-0.015782,-0.985268,0.169475,-0.167766,0.024446,0.071314,1.045843,-0.204266,-0.219873,-0.053653,-0.01431,-0.372276,0.312929,-0.304427,-0.117157,-0.035816,-0.000301,0.036142,-0.091804,0.342813,-0.359441,0.865244,0.788445,0.174111,0.203914,-1.095217,-0.359694,0.898661,-0.818404,-1.21212,-0.07472,-0.985578
-1.345616,-0.045587,0.78337,-0.018233,-0.012355,-0.986379,0.163009,-0.21718,0.079983,0.100747,1.032373,-0.237855,-0.14201,-0.031451,-0.002451,-0.36033,0.315041,-0.323827,-0.111038,-0.020293,0.002905,0.042481,-0.054341,0.326429,-0.310095,0.83668,0.760197,0.174529,0.263897,-1.110661,-0.343543,0.911244,-0.81667,-1.196765,-0.076734,-0.985612
-1.359452,-0.050543,0.781742,-0.018722,-0.008123,-0.987663,0.155257,-0.266039,0.112231,0.112107,0.987665,-0.274194,-0.093126,-0.013479,0.00889,-0.345682,0.321245,-0.344651,-0.103684,-0.003785,0.005737,0.047887,-0.013859,0.300844,-0.256592,0.815805,0.720377,0.174829,0.293756,-1.12495,-0.335708,0.919032,-0.812819,-1.187928,-0.076187,-0.98562
-1.373508,-0.056154,0.779884,-0.018548,-0.00352,-0.988985,0.146805,-0.311522,0.121079,0.100296,0.913803,-0.291561,-0.076565,0.003845,0.019564,-0.328917,0.327615,-0.365551,-0.095903,0.01257,0.007543,0.052152,0.026186,0.272388,-0.211256,0.802422,0.690551,0.173157,0.297211,-1.139374,-0.33295,0.922211,-0.809783,-1.186365,-0.075714,-0.985627
-1.388031,-0.062279,0.777894,-0.017602,0.000576,-0.990289,0.137907,-0.347847,0.116697,0.072944,0.811216,-0.301671,-0.082131,0.022841,0.028802,-0.310321,0.330112,-0.384909,-0.088975,0.027725,0.008108,0.055032,0.065947,0.238938,-0.171323,0.797527,0.673541,0.177084,0.27755,-1.15262,-0.332655,0.923772,-0.808354,-1.187188,-0.076089,-0.985633
-1.403086,-0.068863,0.775734,-0.016094,0.004364,-0.991582,0.128404,-0.374139,0.109079,0.042963,0.686407,-0.293411,-0.075455,0.043681,0.036616,-0.289833,0.329132,-0.403168,-0.080113,0.040953,0.008007,0.056953,0.103698,0.199595,-0.134892,0.800783,0.673817,0.192245,0.256095,-1.16471,-0.334841,0.927166,-0.806166,-1.186141,-0.075572,-0.985632
-1.418572,-0.075714,0.773671,-0.013855,0.007588,-0.992896,0.117932,-0.391906,0.101503,0.013394,0.547761,-0.2383,-0.066204,0.067157,0.043072,-0.266913,0.320684,-0.418031,-0.069936,0.052214,0.006972,0.057944,0.136618,0.155958,-0.102428,0.812842,0.694053,0.221488,0.252726,-1.17635,-0.338098,0.932424,-0.803068,-1.183265,-0.073701,-0.985572
-1.434409,-0.082587,0.772143,-0.010593,0.008148,-0.994158,0.107104,-0.403905,0.088662,-0.022364,0.420783,-0.116656,-0.070582,0.095203,0.044566,-0.24265,0.299049,-0.42276,-0.058991,0.061782,0.00395,0.057868,0.162384,0.105874,-0.070844,0.836559,0.715804,0.258381,0.26123,-1.185086,-0.342878,0.93978,-0.800644,-1.176325,-0.07329,-0.985568
-1.450781,-0.089933,0.769848,-0.008366,0.009727,-0.995274,0.096256,-0.406014,0.070292,-0.073728,0.322591,-0.03979,-0.106776,0.122307,0.04477,-0.218885,0.286273,-0.431141,-0.046986,0.069576,-0.001011,0.057108,0.182456,0.060629,-0.045235,0.874033,0.733155,0.296068,0.261867,-1.191656,-0.348707,0.945035,-0.802127,-1.168727,-0.073877,-0.98557
-1.467504,-0.097493,0.767045,-0.007292,0.009311,-0.996333,0.084736,-0.395577,0.049158,-0.121981,0.268631,0.005019,-0.146065,0.150991,0.039565,-0.193697,0.275334,-0.4367,-0.034941,0.074991,-0.007874,0.056412,0.196401,0.021012,-0.020416,0.920678,0.735789,0.319301,0.233069,-1.195122,-0.354693,0.949076,-0.804084,-1.162421,-0.072037,-0.985571
-1.483883,-0.105463,0.765666,-0.00771,0.007386,-0.997297,0.072693,-0.375711,0.039373,-0.126838,0.28912,0.003131,-0.115724,0.174196,0.027068,-0.168326,0.279213,-0.437307,-0.021627,0.077343,-0.0165,0.056931,0.205991,-0.008446,0.010636,0.965698,0.723348,0.330114,0.17349,-1.196277,-0.359307,0.95565,-0.804634,-1.155043,-0.071378,-0.985573
-1.500197,-0.113463,0.76731,-0.008815,0.003,-0.998087,0.061113,-0.354164,0.035358,-0.09621,0.313325,-0.029624,-0.088949,0.190286,0.006542,-0.145512,0.296237,-0.421989,-0.006608,0.077785,-0.028177,0.058951,0.209302,-0.015629,-0.003654,1.011811,0.747613,0.305415,0.065794,-1.193348,-0.361425,0.966559,-0.802809,-1.14319,-0.07119,-0.98557
-1.517198,-0.121487,0.772209,-0.00972,-0.001253,-0.998763,0.048756,-0.325755,0.03216,-0.064536,0.329125,-0.060838,-0.076727,0.195999,-0.01648,-0.124132,0.335643,-0.38995,0.014232,0.079302,-0.041955,0.06025,0.208564,-0.001043,-0.046289,1.044305,0.804772,0.247903,-0.046519,-1.192632,-0.360678,0.977176,-0.799565,-1.13306,-0.073443,-0.985566
-1.533904,-0.129053,0.776087,-0.011784,-0.004601,-0.999317,0.034714,-0.292068,0.032532,-0.031591,0.338466,-0.09166,-0.069575,0.191894,-0.036914,-0.094679,0.385916,-0.342933,0.037215,0.081774,-0.054791,0.059408,0.209368,0.021125,-0.079544,1.053838,0.863733,0.189284,-0.127357,-1.192891,-0.356931,0.984323,-0.793413,-1.128464,-0.076112,-0.985558
-1.550359,-0.136322,0.779352,-0.014685,-0.007729,-0.999685,0.018824,-0.252185,0.033477,0.004262,0.337992,-0.118771,-0.058571,0.176888,-0.055773,-0.056952,0.453562,-0.289405,0.062811,0.085187,-0.065209,0.056887,0.212257,0.040102,-0.091293,1.039989,0.914466,0.156354,-0.155877,-1.19286,-0.355244,0.98496,-0.783092,-1.136025,-0.075525,-0.985538
-1.56636,-0.14315,0.78158,-0.017793,-0.010461,-0.999783,0.002728,-0.211528,0.034015,0.040536,0.333217,-0.143512,-0.050248,0.148296,-0.073569,-0.020169,0.543148,-0.2342,0.10093,0.089013,-0.073611,0.054397,0.215308,0.052665,-0.086096,1.006514,0.954841,0.144394,-0.135323,-1.189265,-0.353116,0.978149,-0.776902,-1.149256,-0.074602,-0.985526
-1.58167,-0.149532,0.782629,-0.020699,-0.012646,-0.999625,-0.012695,-0.173949,0.033555,0.075132,0.328809,-0.167817,-0.044128,0.104561,-0.088335,0.015623,0.654857,-0.178715,0.146348,0.091447,-0.079992,0.052683,0.214886,0.062189,-0.079937,0.965479,0.989333,0.138794,-0.079703,-1.181758,-0.356558,0.969087,-0.771744,-1.161388,-0.076156,-0.985498
-1.5966,-0.155471,0.784367,-0.023867,-0.014084,-0.999227,-0.027898,-0.136548,0.032766,0.108571,0.3234,-0.190785,-0.03931,0.049922,-0.100261,0.049011,0.783115,-0.124637,0.196824,0.09222,-0.08483,0.052212,0.210474,0.07183,-0.073993,0.92682,1.010668,0.130979,0.004913,-1.173118,-0.362164,0.961781,-0.771002,-1.169922,-0.080793,-0.98548
-1.610996,-0.160897,0.784549,-0.027569,-0.015169,-0.998541,-0.04389,-0.099723,0.032062,0.142533,0.319133,-0.213378,-0.035328,-0.015401,-0.109952,0.076768,0.915069,-0.066457,0.230522,0.091904,-0.088497,0.053821,0.201335,0.085313,-0.073231,0.900947,1.020547,0.117893,0.087576,-1.163421,-0.366548,0.962582,-0.773177,-1.163681,-0.082866,-0.985476
-1.624965,-0.165855,0.784139,-0.032212,-0.016122,-0.997542,-0.060096,-0.062431,0.030257,0.176367,0.315789,-0.23413,-0.031547,-0.080396,-0.12611,0.089408,1.03158,-0.027574,0.23643,0.090745,-0.091684,0.056592,0.185107,0.104512,-0.072029,0.892372,1.017239,0.104573,0.137954,-1.157445,-0.372274,0.97031,-0.776177,-1.155721,-0.08545,-0.985473
-1.638564,-0.170266,0.783382,-0.037224,-0.017923,-0.996298,-0.075384,-0.025896,0.02502,0.208542,0.31264,-0.251811,-0.027837,-0.141459,-0.150092,0.088758,1.11754,-0.048786,0.189006,0.088028,-0.094901,0.060054,0.160665,0.130256,-0.074099,0.899439,1.010323,0.09752,0.145008,-1.155525,-0.379436,0.985388,-0.778178,-1.139627,-0.088618,-0.985467
-1.651915,-0.174023,0.78244,-0.042279,-0.020157,-0.994922,-0.089084,0.010265,0.017276,0.23744,0.307923,-0.267037,-0.024908,-0.194861,-0.179149,0.07614,1.164303,-0.101789,0.156247,0.083685,-0.098055,0.063044,0.130106,0.160409,-0.078255,0.913634,1.005244,0.099171,0.126034,-1.157606,-0.387928,0.998733,-0.77986,-1.122583,-0.096778,-0.985459
-1.665171,-0.177268,0.781533,-0.046847,-0.021595,-0.993572,-0.100769,0.046858,0.008795,0.262086,0.298593,-0.279672,-0.02266,-0.240541,-0.193858,0.063974,1.169628,-0.128055,0.127983,0.077036,-0.100824,0.064918,0.097106,0.193137,-0.08387,0.928538,1.007596,0.106252,0.101526,-1.158361,-0.393436,0.997768,-0.784484,-1.122175,-0.094394,-0.98549
-1.678197,-0.180033,0.780419,-0.049891,-0.022801,-0.992328,-0.110796,0.077838,0.00026,0.283344,0.292392,-0.293764,-0.020918,-0.279729,-0.197207,0.050025,1.137552,-0.164252,0.098382,0.069038,-0.102735,0.065846,0.063695,0.223309,-0.088772,0.941402,1.01511,0.118655,0.082092,-1.156313,-0.405267,0.992475,-0.787169,-1.126999,-0.085704,-0.985466
-1.690935,-0.182315,0.779004,-0.051172,-0.024175,-0.991168,-0.119933,0.102416,-0.008226,0.301948,0.290156,-0.310694,-0.019797,-0.314276,-0.195163,0.031418,1.072102,-0.207915,0.082897,0.060105,-0.103668,0.066157,0.032464,0.24647,-0.087167,0.949093,1.017791,0.133798,0.079408,-1.15452,-0.421652,0.985286,-0.790523,-1.137179,-0.079565,-0.985493
-1.703445,-0.184164,0.777414,-0.051257,-0.025607,-0.990091,-0.128206,0.122676,-0.016542,0.318035,0.290143,-0.328657,-0.019207,-0.343265,-0.184472,0.014989,0.978983,-0.245262,0.070798,0.049911,-0.103802,0.065982,0.006795,0.262724,-0.079541,0.951672,1.012168,0.143882,0.089879,-1.149841,-0.438612,0.980936,-0.793643,-1.142728,-0.073511,-0.985377
-1.715952,-0.185694,0.776055,-0.050197,-0.025446,-0.989043,-0.136483,0.14462,-0.022935,0.333056,0.282216,-0.34224,-0.01954,-0.364781,-0.166536,0.000714,0.861109,-0.256165,0.077499,0.039795,-0.102095,0.064946,-0.011186,0.276148,-0.070113,0.948306,1.003163,0.148934,0.114948,-1.14426,-0.451785,0.980018,-0.79804,-1.145296,-0.07027,-0.98524
-1.728479,-0.18679,0.77479,-0.047573,-0.024628,-0.987973,-0.145051,0.167177,-0.028583,0.347943,0.266538,-0.350394,-0.021145,-0.380557,-0.142527,-0.012705,0.725666,-0.243492,0.074046,0.030901,-0.098944,0.062754,-0.024181,0.284869,-0.058887,0.944004,0.986061,0.148224,0.134232,-1.139986,-0.460213,0.982344,-0.80382,-1.145103,-0.066658,-0.985223
-1.741148,-0.187484,0.773544,-0.043728,-0.023459,-0.986961,-0.153118,0.190807,-0.034792,0.361514,0.242696,-0.352716,-0.023243,-0.388989,-0.117417,-0.030834,0.57803,-0.195014,0.088448,0.023636,-0.094406,0.058964,-0.033341,0.289055,-0.051035,0.937739,0.967899,0.145264,0.151575,-1.13795,-0.46388,0.986077,-0.80992,-1.143707,-0.059921,-0.985263
-1.754151,-0.187748,0.772089,-0.03946,-0.022046,-0.986144,-0.159615,0.21581,-0.041731,0.371746,0.21396,-0.350315,-0.025628,-0.386805,-0.090357,-0.046543,0.424293,-0.137996,0.114083,0.017745,-0.088794,0.053601,-0.039252,0.289139,-0.050584,0.931524,0.952839,0.139699,0.161621,-1.138758,-0.465548,0.989153,-0.815472,-1.144043,-0.055458,-0.985324
-1.767561,-0.187518,0.77008,-0.035531,-0.021289,-0.985716,-0.163243,0.239184,-0.049662,0.376395,0.189846,-0.3489,-0.028181,-0.379584,-0.059301,-0.04312,0.288507,-0.115221,0.13013,0.012552,-0.082454,0.047674,-0.04403,0.28324,-0.058388,0.926913,0.941645,0.132796,0.159324,-1.142054,-0.469978,0.991921,-0.818583,-1.144805,-0.053594,-0.985316
-1.781419,-0.186514,0.76734,-0.03318,-0.023198,-0.985422,-0.165242,0.259349,-0.060353,0.376989,0.179736,-0.354284,-0.031412,-0.374293,-0.039572,-0.043012,0.208124,-0.108839,0.175027,0.00944,-0.07648,0.042394,-0.04837,0.270601,-0.074484,0.922609,0.935893,0.12192,0.14949,-1.148802,-0.477277,0.993282,-0.820408,-1.146681,-0.050474,-0.985281
-1.795635,-0.184745,0.764802,-0.03191,-0.024704,-0.985552,-0.164496,0.27728,-0.06778,0.371454,0.179708,-0.361891,-0.035749,-0.37886,-0.021985,-0.01743,0.209904,-0.091096,0.196613,0.00607,-0.070703,0.038292,-0.050869,0.254159,-0.092848,0.917631,0.933543,0.109656,0.13471,-1.15358,-0.484771,0.993228,-0.821545,-1.148475,-0.043009,-0.985283
-1.810387,-0.182024,0.763473,-0.031569,-0.024877,-0.986313,-0.15991,0.29708,-0.07042,0.358826,0.181725,-0.365825,-0.041899,-0.384485,8.1e-05,0.030324,0.256142,-0.059324,0.133403,0.001559,-0.064946,0.034151,-0.049648,0.235334,-0.111791,0.910066,0.936907,0.097857,0.127168,-1.152757,-0.491841,0.99192,-0.823815,-1.149765,-0.034475,-0.985324
-1.825964,-0.17832,0.76589,-0.030687,-0.022895,-0.987528,-0.15272,0.323176,-0.068265,0.341577,0.175722,-0.352651,-0.050267,-0.381831,0.017112,0.055668,0.288963,-0.005408,0.057585,-0.002058,-0.058411,0.028106,-0.044566,0.213626,-0.127542,0.902656,0.939754,0.08683,0.114181,-1.142373,-0.498514,0.990482,-0.827998,-1.151057,-0.025342,-0.985261
-1.841653,-0.173514,0.766575,-0.02998,-0.020642,-0.988926,-0.143877,0.344896,-0.060532,0.32213,0.173949,-0.328306,-0.061771,-0.370742,0.018989,0.047593,0.319677,0.018674,0.002413,-0.004699,-0.050478,0.020857,-0.035454,0.188588,-0.140415,0.894666,0.943677,0.076651,0.095914,-1.12811,-0.505254,0.989804,-0.832653,-1.152921,-0.013686,-0.985105
-1.8576,-0.168082,0.768961,-0.029981,-0.017654,-0.990333,-0.134279,0.359501,-0.046307,0.301489,0.188889,-0.296837,-0.074672,-0.358939,0.016824,0.029231,0.355441,-0.014105,-0.011919,-0.006854,-0.04084,0.013613,-0.018652,0.160504,-0.146966,0.887595,0.948951,0.06776,0.083739,-1.115926,-0.509614,0.990677,-0.837533,-1.157712,0.000369,-0.984965
-1.873509,-0.162296,0.772052,-0.029276,-0.014694,-0.991645,-0.124766,0.363325,-0.028626,0.279705,0.218277,-0.255603,-0.085439,-0.338391,0.014984,0.011159,0.373957,-0.049023,-0.020812,-0.00935,-0.030711,0.005996,0.004799,0.129681,-0.14375,0.883494,0.95093,0.06157,0.066481,-1.112027,-0.511346,0.992824,-0.842573,-1.16547,0.009233,-0.984908
