hanqing-shi/Humanoids-Motion-Generation/dataset/data_joint/walk/walk3_subject1_seg2.csv
root_x,root_y,root_z,root_qx,root_qy,root_qz,root_qw,left_hip_pitch_joint,left_hip_roll_joint,left_hip_yaw_joint,left_knee_joint,left_ankle_pitch_joint,left_ankle_roll_joint,right_hip_pitch_joint,right_hip_roll_joint,right_hip_yaw_joint,right_knee_joint,right_ankle_pitch_joint,right_ankle_roll_joint,waist_yaw_joint,waist_roll_joint,waist_pitch_joint,left_shoulder_pitch_joint,left_shoulder_roll_joint,left_shoulder_yaw_joint,left_elbow_joint,left_wrist_roll_joint,left_wrist_pitch_joint,left_wrist_yaw_joint,right_shoulder_pitch_joint,right_shoulder_roll_joint,right_shoulder_yaw_joint,right_elbow_joint,right_wrist_roll_joint,right_wrist_pitch_joint,right_wrist_yaw_joint
4.740682,-0.091699,0.795001,0.00985,-0.021796,-0.013176,0.999627,0.054994,-0.013053,0.197177,0.177603,-0.135013,0.025604,0.058445,-0.186913,-0.191857,0.176596,-0.149178,0.127242,0.042314,-0.01916,0.07818,0.298383,-0.046945,0.236631,0.751199,1.213333,0.31089,-0.063551,0.306161,-0.006074,-0.225558,0.64087,-0.878902,0.207043,0.051933
4.741278,-0.090101,0.794584,0.010005,-0.020985,-0.01093,0.99967,0.053098,-0.016855,0.193419,0.178423,-0.136777,0.02835,0.054259,-0.191707,-0.194397,0.187022,-0.157273,0.130734,0.044787,-0.019222,0.081555,0.293315,-0.046514,0.236944,0.72943,1.21436,0.287456,-0.068465,0.312054,-0.007139,-0.218349,0.65085,-0.892383,0.223095,0.061065
4.741898,-0.088467,0.79393,0.010183,-0.020257,-0.008657,0.999705,0.048065,-0.020203,0.189671,0.186605,-0.142477,0.031151,0.045982,-0.197848,-0.196986,0.206561,-0.169191,0.134798,0.046132,-0.020656,0.085202,0.285691,-0.046171,0.236852,0.706496,1.214985,0.266434,-0.072329,0.318478,-0.006726,-0.21615,0.658438,-0.901496,0.235878,0.067255
4.742387,-0.086866,0.792977,0.010798,-0.019587,-0.007645,0.999721,0.040501,-0.023454,0.188352,0.201227,-0.151911,0.033843,0.025924,-0.206463,-0.194364,0.246914,-0.185688,0.138072,0.046233,-0.023327,0.089715,0.275774,-0.045215,0.236929,0.687947,1.214847,0.251088,-0.073809,0.32405,-0.005111,-0.217866,0.663365,-0.905319,0.242181,0.069441
4.742681,-0.085482,0.791675,0.012273,-0.019252,-0.008874,0.9997,0.030847,-0.026547,0.191453,0.22307,-0.16574,0.036009,-0.01017,-0.217438,-0.182243,0.314891,-0.203725,0.140389,0.045212,-0.027464,0.09552600000000001,0.263559,-0.044399,0.237154,0.678931,1.214669,0.245483,-0.071618,0.328418,-0.004543,-0.22011,0.666279,-0.906471,0.245213,0.071087
4.742769,-0.08441,0.790335,0.013963,-0.019609,-0.013264,0.999622,0.022307,-0.027914,0.200423,0.247438,-0.182035,0.037166,-0.068673,-0.227428,-0.15601,0.420861,-0.206511,0.131902,0.042401,-0.033645,0.103397,0.247014,-0.043723,0.240099,0.684193,1.210138,0.248716,-0.066752,0.331218,-0.006597,-0.217538,0.666507,-0.907789,0.24386,0.076232
4.743263,-0.08371,0.790712,0.016266,-0.020602,-0.022124,0.999411,0.016613,-0.027508,0.217299,0.271901,-0.199325,0.036869,-0.151563,-0.233982,-0.115505,0.56437,-0.182877,0.107272,0.037607,-0.042313,0.113549,0.222437,-0.045152,0.240397,0.710007,1.203386,0.26559,-0.060603,0.335712,-0.013323,-0.20496,0.657026,-0.910698,0.237089,0.085505
4.744153,-0.083422,0.789044,0.019054,-0.022735,-0.03431,0.998971,0.015671,-0.026051,0.240291,0.294079,-0.218299,0.035391,-0.249537,-0.236429,-0.076339,0.727562,-0.129779,0.065121,0.031289,-0.053427,0.12504,0.196658,-0.040389,0.238575,0.748662,1.201364,0.290385,-0.06198,0.335193,-0.024587,-0.1862,0.644507,-0.917396,0.226303,0.094629
4.74583,-0.083204,0.786688,0.020064,-0.025353,-0.0482,0.998314,0.023309,-0.022138,0.265685,0.303809,-0.23279,0.033547,-0.342118,-0.239265,-0.060552,0.876779,-0.074519,-1.3e-05,0.023895,-0.065974,0.135977,0.170073,-0.025376,0.228839,0.792945,1.210218,0.311733,-0.07299,0.329565,-0.034279,-0.166494,0.631172,-0.923792,0.212158,0.100091
4.748841,-0.082991,0.786955,0.019419,-0.02869,-0.059441,0.99763,0.038013,-0.017339,0.286265,0.304354,-0.241974,0.03149,-0.417769,-0.24317,-0.067494,0.985489,-0.037935,-0.038836,0.015832,-0.078495,0.144883,0.136587,-0.004009,0.191839,0.848689,1.247341,0.331073,-0.100235,0.333262,-0.039038,-0.150071,0.608532,-0.922214,0.195156,0.100551
4.752854,-0.083001,0.786429,0.017886,-0.031477,-0.067482,0.997063,0.052054,-0.012113,0.300865,0.304907,-0.250707,0.029428,-0.472322,-0.23202,-0.086587,1.038219,-0.055759,-0.047165,0.007468,-0.08955,0.151405,0.09842600000000001,0.024918,0.121386,0.903072,1.319082,0.336018,-0.141918,0.346244,-0.038247,-0.142319,0.577445,-0.909699,0.176917,0.091925
4.757864,-0.083226,0.785901,0.015589,-0.032572,-0.07443,0.996572,0.063164,-0.005241,0.31314,0.307289,-0.260695,0.026771,-0.512845,-0.210726,-0.113936,1.036824,-0.063771,-0.03802,0.000249,-0.097838,0.155214,0.062602,0.053104,0.037509,0.937934,1.40594,0.321061,-0.175399,0.365255,-0.033086,-0.142853,0.543143,-0.889991,0.164621,0.079466
4.763972,-0.083579,0.785391,0.012858,-0.031734,-0.082441,0.996008,0.073099,0.002854,0.327077,0.309342,-0.272419,0.023233,-0.540509,-0.18757,-0.147886,0.984198,-0.05152,0.003481,-0.004565,-0.102772,0.156953,0.035222,0.075426,-0.037192,0.944497,1.483885,0.286355,-0.189914,0.387653,-0.024137,-0.149255,0.510388,-0.86143,0.154686,0.066443
4.771119,-0.083985,0.784759,0.010242,-0.029631,-0.091043,0.995353,0.083116,0.010224,0.342037,0.30977,-0.285051,0.019449,-0.555721,-0.158367,-0.177278,0.889101,-0.026194,0.038648,-0.007742,-0.104801,0.157746,0.018669,0.086995,-0.080941,0.924752,1.530067,0.249915,-0.177536,0.412377,-0.016216,-0.155666,0.484485,-0.831323,0.149719,0.053181
4.779308,-0.084434,0.783901,0.007732,-0.026614,-0.099419,0.99466,0.093897,0.016364,0.356697,0.307804,-0.298165,0.015534,-0.561346,-0.122549,-0.194647,0.763725,0.009114,0.059173,-0.009783,-0.104884,0.158654,0.013946,0.081288,-0.081586,0.888584,1.525315,0.233019,-0.144253,0.436464,-0.0095,-0.160534,0.469595,-0.804871,0.154041,0.043018
4.788573,-0.084904,0.782735,0.005481,-0.02283,-0.107294,0.99395,0.106747,0.020273,0.370749,0.300934,-0.310593,0.011594,-0.555431,-0.084617,-0.2024,0.615292,0.039532,0.072526,-0.010619,-0.103424,0.159846,0.014892,0.058323,-0.060325,0.851151,1.474813,0.222133,-0.10476,0.463199,-0.005036,-0.1596,0.460365,-0.785396,0.161853,0.039259
4.798905,-0.085442,0.781038,0.004481,-0.019052,-0.113979,0.99329,0.121315,0.020224,0.383184,0.29208,-0.323341,0.007794,-0.545018,-0.048198,-0.196965,0.46309,0.055058,0.076385,-0.011289,-0.101039,0.161509,0.0182,0.037475,-0.036992,0.816244,1.398935,0.204337,-0.072517,0.484138,-0.006612,-0.155269,0.466321,-0.777746,0.175719,0.041156
4.810361,-0.08604,0.778849,0.004169,-0.015092,-0.117669,0.992929,0.136094,0.017179,0.390652,0.282611,-0.336384,0.004435,-0.534948,-0.01906,-0.185049,0.326287,0.056154,0.076817,-0.011544,-0.098213,0.163349,0.019558,0.031713,-0.032682,0.787083,1.32899,0.171755,-0.062263,0.4959,-0.010436,-0.150464,0.49297,-0.782745,0.190291,0.04652
4.823088,-0.08688,0.775996,0.004851,-0.0104,-0.118708,0.992863,0.148896,0.012072,0.393108,0.276725,-0.352097,0.000859,-0.533256,0.001126,-0.171899,0.227131,0.042658,0.06543,-0.011684,-0.09504000000000001,0.165862,0.014616,0.033546,-0.054041,0.767043,1.286958,0.1438,-0.055442,0.510342,-0.012927,-0.142864,0.525754,-0.796061,0.20441,0.054247
4.837068,-0.088075,0.77239,0.0065,-0.006083,-0.118156,0.992955,0.161326,0.005626,0.392174,0.276494,-0.371715,-0.003166,-0.545709,0.012407,-0.165278,0.183305,0.033093,0.058837,-0.012182,-0.090767,0.168827,0.007465,0.040823,-0.093909,0.753916,1.277568,0.125097,-0.05001,0.526144,-0.015413,-0.133754,0.560517,-0.816706,0.219032,0.065138
4.852303,-0.089702,0.768264,0.007985,-0.001272,-0.116084,0.993207,0.173049,0.000327,0.388053,0.279554,-0.393106,-0.008138,-0.562399,0.017667,-0.160963,0.176477,0.03372,0.07061,-0.013363,-0.084697,0.171928,0.000446,0.048605,-0.138095,0.742618,1.287901,0.118826,-0.04787,0.541207,-0.016409,-0.125511,0.595758,-0.839628,0.231691,0.081495
4.868799,-0.09191800000000001,0.763748,0.008671,0.003466,-0.111613,0.993708,0.184415,-0.001807,0.37917,0.287469,-0.416285,-0.014141,-0.579225,0.017983,-0.158749,0.200992,0.031195,0.065994,-0.016492,-0.077096,0.175517,-0.003831,0.054774,-0.179646,0.731439,1.306683,0.118783,-0.051906,0.556224,-0.014946,-0.12037,0.627566,-0.86128,0.237623,0.100189
4.886557,-0.094877,0.758913,0.00855,0.007398,-0.10435,0.994476,0.193099,0.001122,0.363925,0.308587,-0.442315,-0.022612,-0.596583,0.012687,-0.15762,0.260042,0.014277,0.052185,-0.022921,-0.068018,0.179673,6.7e-05,0.057438,-0.211674,0.71777,1.324067,0.125143,-0.059068,0.570958,-0.009157,-0.12184,0.652632,-0.877789,0.243659,0.118736
4.905491,-0.098652,0.75441,0.007424,0.011419,-0.093059,0.995567,0.196577,0.010613,0.340913,0.342344,-0.460657,-0.032553,-0.60792,0.002171,-0.164026,0.331097,0.010172,0.029881,-0.032681,-0.05804,0.183776,0.009963,0.059141,-0.232765,0.702273,1.331249,0.130238,-0.069779,0.584225,0.003134,-0.130708,0.668568,-0.886923,0.246934,0.130098
4.925576,-0.10302,0.750852,0.00434,0.014817,-0.079026,0.996753,0.198649,0.027011,0.311288,0.383555,-0.457319,-0.046161,-0.610755,-0.010193,-0.184928,0.388446,0.028384,-0.035197,-0.043938,-0.04669,0.187401,0.023652,0.063462,-0.241516,0.688828,1.322611,0.131928,-0.081534,0.596386,0.020765,-0.143633,0.679297,-0.891772,0.247981,0.131827
4.94761,-0.10775,0.748039,0.001498,0.015987,-0.066525,0.997656,0.201838,0.046117,0.280653,0.450744,-0.423811,-0.062068,-0.60022,-0.026377,-0.214162,0.441618,0.077846,-0.09412,-0.053571,-0.033135,0.191142,0.042289,0.072121,-0.240009,0.680667,1.309052,0.138659,-0.09051,0.603561,0.039528,-0.159197,0.689169,-0.89057,0.245375,0.126567
4.969352,-0.112195,0.748654,-0.003532,0.013329,-0.057092,0.9982740000000001,0.190491,0.072014,0.250387,0.550047,-0.355098,-0.072804,-0.600383,-0.037619,-0.235983,0.51874,0.055975,-0.125783,-0.059263,-0.015272,0.196123,0.069156,0.083541,-0.226719,0.677325,1.293675,0.152975,-0.0947,0.604423,0.055655,-0.173054,0.703663,-0.891609,0.247098,0.118627
4.99163,-0.116172,0.747672,-0.011217,0.008572,-0.050144,0.998642,0.152565,0.106172,0.219137,0.699896,-0.242772,-0.067209,-0.595084,-0.04319,-0.254595,0.603017,-0.011386,-0.119459,-0.059872,0.005959,0.201784,0.098942,0.097588,-0.203238,0.678697,1.2847,0.180067,-0.095423,0.594788,0.07006,-0.182117,0.720858,-0.896409,0.252091,0.116215
5.013546,-0.120167,0.744748,-0.019799,0.003319,-0.041301,0.998945,0.086063,0.149266,0.187228,0.884824,-0.124623,-0.078592,-0.576489,-0.045953,-0.275723,0.66543,-0.078757,-0.111567,-0.055837,0.028157,0.205694,0.125814,0.110232,-0.175534,0.685671,1.287909,0.218715,-0.097257,0.574496,0.082865,-0.186994,0.734875,-0.902712,0.251272,0.11886
5.035907,-0.124044,0.743723,-0.02704,-0.002753,-0.033509,0.999069,0.002354,0.187598,0.148011,1.073863,-0.020265,-0.097318,-0.536962,-0.042212,-0.292408,0.691371,-0.133423,-0.10497,-0.047807,0.049788,0.207178,0.151662,0.111988,-0.135984,0.691202,1.282077,0.258058,-0.098812,0.542931,0.086512,-0.189636,0.742919,-0.913337,0.248323,0.117373
5.058632,-0.127481,0.746253,-0.032285,-0.009216,-0.02995,0.998987,-0.082259,0.208818,0.107489,1.221242,0.074947,-0.10304,-0.481832,-0.031395,-0.300869,0.685916,-0.171548,-0.09821,-0.037636,0.069213,0.20682,0.180201,0.105841,-0.088648,0.690722,1.262894,0.287472,-0.098019,0.499828,0.082482,-0.19672,0.743012,-0.918206,0.241283,0.107653
5.081438,-0.130394,0.751496,-0.034973,-0.015703,-0.02965,0.998825,-0.163463,0.214137,0.08125,1.315749,0.06443,-0.085793,-0.416612,-0.018183,-0.301949,0.656944,-0.195184,-0.09141,-0.027329,0.083735,0.205711,0.211727,0.097122,-0.041626,0.685242,1.238887,0.312252,-0.097133,0.444134,0.072659,-0.208194,0.740693,-0.921642,0.242925,0.088645
5.104027,-0.132774,0.757941,-0.036114,-0.020916,-0.031754,0.998624,-0.241619,0.217104,0.071221,1.367451,0.027466,-0.073091,-0.348814,-0.004237,-0.297593,0.613269,-0.208651,-0.084783,-0.017578,0.092261,0.203533,0.243883,0.089218,0.001667,0.6752,1.210397,0.325202,-0.094007,0.375573,0.062709,-0.223673,0.737866,-0.92059,0.251402,0.062715
5.12633,-0.134731,0.7644,-0.036016,-0.024604,-0.03599,0.9984,-0.314567,0.222993,0.073678,1.377243,0.01992,-0.072898,-0.28303,0.008824,-0.288192,0.563784,-0.217203,-0.077325,-0.008025,0.096441,0.200383,0.278236,0.089682,0.036451,0.664864,1.175226,0.315584,-0.093557,0.297292,0.052944,-0.239928,0.737669,-0.918183,0.253742,0.03811
5.148398,-0.136445,0.77008,-0.035117,-0.026976,-0.042239,0.998126,-0.378769,0.233776,0.087624,1.344899,0.023213,-0.0671,-0.2216,0.02051,-0.274312,0.515407,-0.225563,-0.069019,0.001658,0.097669,0.195767,0.308254,0.081636,0.053775,0.658822,1.153218,0.314189,-0.093772,0.208873,0.038765,-0.243792,0.749344,-0.9164310000000001,0.253166,0.016006
5.170219,-0.13795,0.774484,-0.033923,-0.027717,-0.049237,0.9978260000000002,-0.434214,0.246466,0.108192,1.273594,0.023969,-0.062528,-0.16894,0.029068,-0.258624,0.47718,-0.238209,-0.060242,0.012315,0.09744100000000001,0.191116,0.334197,0.085374,0.058525,0.651895,1.143538,0.305895,-0.10132,0.115938,0.020622,-0.229069,0.758019,-0.920496,0.250151,0.004884
5.191951,-0.139369,0.777722,-0.033642,-0.027629,-0.056123,0.997474,-0.474524,0.264633,0.13773,1.162252,0.019997,-0.048341,-0.12022,0.03712,-0.243393,0.444002,-0.253495,-0.051746,0.023751,0.097664,0.18682,0.351204,0.095275,0.053178,0.649799,1.151662,0.298041,-0.112427,0.029474,-0.000848,-0.204297,0.760689,-0.926039,0.23768,0.002673
5.213723,-0.140829,0.780007,-0.033879,-0.027265,-0.061485,0.99716,-0.494328,0.28026,0.176576,1.004048,0.01957,-0.04046,-0.069518,0.044797,-0.229887,0.407113,-0.268086,-0.044314,0.034557,0.098433,0.182815,0.361559,0.101351,0.048714,0.64724,1.165829,0.291866,-0.117641,-0.049618,-0.024612,-0.173616,0.757216,-0.932509,0.217412,-0.001029
5.235522,-0.142309,0.780802,-0.034877,-0.026092,-0.064597,0.99696,-0.492358,0.280007,0.216326,0.795321,0.04085,-0.033696,-0.021104,0.051497,-0.220083,0.372823,-0.281602,-0.038465,0.043965,0.099756,0.179655,0.362784,0.102438,0.046232,0.649756,1.184494,0.289387,-0.118211,-0.120961,-0.05067,-0.144338,0.746904,-0.934731,0.197196,-0.002595
5.257261,-0.143963,0.779645,-0.035507,-0.02406,-0.065898,0.996904,-0.468688,0.255078,0.240463,0.540479,0.083257,-0.044214,0.023786,0.05586,-0.213449,0.341955,-0.297761,-0.029077,0.05137,0.100707,0.177013,0.362686,0.094702,0.049253,0.6492,1.198628,0.286255,-0.113661,-0.185571,-0.073214,-0.118451,0.730831,-0.930543,0.180034,-0.006486
5.279044,-0.145984,0.77707,-0.034918,-0.021125,-0.066915,0.996924,-0.442689,0.20296,0.213246,0.286192,0.113168,-0.062526,0.063405,0.057673,-0.208023,0.317209,-0.315805,-0.019506,0.058057,0.09934200000000001,0.174892,0.361069,0.079928,0.058748,0.646121,1.206418,0.28506,-0.105133,-0.237663,-0.093142,-0.094268,0.708518,-0.922642,0.164813,-0.014576
5.301371,-0.147981,0.773412,-0.035341,-0.020088,-0.065911,0.996997,-0.450274,0.154006,0.142206,0.154333,0.051785,-0.095704,0.100745,0.058597,-0.207461,0.309091,-0.340333,-0.01248,0.063551,0.095414,0.174923,0.359804,0.063592,0.07275,0.641446,1.20557,0.284068,-0.098591,-0.272344,-0.109181,-0.075546,0.680373,-0.906882,0.148558,-0.022485
5.324516,-0.149565,0.769093,-0.03524,-0.022006,-0.058223,0.997439,-0.457771,0.111557,0.091177,0.117597,-0.003071,-0.157687,0.141802,0.05438,-0.218655,0.312972,-0.368709,-0.005232,0.064777,0.090465,0.175551,0.35705,0.048797,0.081641,0.641566,1.200367,0.278816,-0.099096,-0.286366,-0.124396,-0.068089,0.647788,-0.879902,0.136237,-0.030248
5.348267,-0.150605,0.764525,-0.034388,-0.026248,-0.042657,0.998153,-0.464841,0.078688,0.08695,0.172684,0.029234,-0.166417,0.183985,0.045203,-0.244093,0.330722,-0.398371,0.007545,0.062394,0.084991,0.177265,0.347928,0.040988,0.078377,0.649867,1.202671,0.271445,-0.105829,-0.277158,-0.140656,-0.069737,0.610484,-0.849087,0.125166,-0.040699
5.372399,-0.15137,0.761544,-0.03281,-0.03004,-0.028595,0.998601,-0.465004,0.046732,0.072258,0.247002,0.08848,-0.09129300000000001,0.222225,0.035427,-0.268064,0.352957,-0.409622,0.016842,0.062825,0.077034,0.178612,0.334812,0.038235,0.06985,0.660108,1.213011,0.268358,-0.11817,-0.249885,-0.152778,-0.072815,0.572372,-0.824113,0.118529,-0.047959
5.397463,-0.151928,0.764044,-0.029232,-0.03436,-0.024163,0.99869,-0.459576,0.022696,0.061426,0.314285,0.116051,-0.010538,0.259225,0.023147,-0.274927,0.377757,-0.387299,0.01901,0.066727,0.067806,0.180026,0.327942,0.032555,0.064019,0.665399,1.229386,0.268458,-0.128318,-0.215401,-0.155573,-0.069514,0.540942,-0.803583,0.11175,-0.047379
5.422792,-0.152188,0.762627,-0.025944,-0.038291,-0.027827,0.998542,-0.436059,0.021756,0.080576,0.361608,0.165148,0.039509,0.28198,0.007282,-0.267481,0.4179,-0.342231,0.017383,0.072649,0.057628,0.180525,0.331631,0.017793,0.073969,0.662711,1.239352,0.274189,-0.127826,-0.181095,-0.152147,-0.059583,0.526037,-0.790033,0.10783,-0.038916
5.447165,-0.152379,0.765617,-0.021602,-0.041511,-0.034597,0.9983050000000001,-0.421553,0.024122,0.10417,0.4185,0.138528,0.089701,0.276379,-0.016234,-0.252725,0.500636,-0.266795,0.006364,0.079674,0.044375,0.181783,0.337344,-0.005923,0.099389,0.660141,1.236667,0.286706,-0.11562,-0.147276,-0.147077,-0.048745,0.531061,-0.78914,0.11538,-0.02666
5.471053,-0.152668,0.767628,-0.015804,-0.045089,-0.043019,0.997931,-0.4031,0.025271,0.125546,0.47602,0.075438,0.09025,0.238913,-0.051781,-0.240787,0.635429,-0.171657,-0.018296,0.085435,0.027438,0.184571,0.341302,-0.036409,0.13508,0.666991,1.216957,0.304489,-0.101873,-0.113756,-0.141463,-0.037739,0.554307,-0.806787,0.136844,-0.006818
5.494244,-0.152795,0.77068,-0.009645,-0.046505,-0.051992,0.997517,-0.371816,0.023478,0.147872,0.497936,0.026308,0.08852,0.172045,-0.099912,-0.236735,0.808644,-0.082703,-0.027642,0.088167,0.008853,0.186789,0.334091,-0.063923,0.169943,0.690246,1.191744,0.326307,-0.092494,-0.081757,-0.130834,-0.033113,0.592346,-0.833953,0.167966,0.015386
5.516849,-0.153096,0.773616,-0.003934,-0.04732,-0.058732,0.997144,-0.332738,0.016811,0.165332,0.496275,-0.009648,0.086897,0.091331,-0.1569,-0.239636,0.9792590000000002,0.006886,-0.022653,0.085917,-0.009197,0.187237,0.314381,-0.077864,0.187434,0.731866,1.179809,0.349835,-0.095455,-0.049466,-0.117278,-0.034371,0.641658,-0.865352,0.205586,0.036597
5.539176,-0.153673,0.777173,0.000405,-0.048842,-0.061847,0.99689,-0.285499,0.00602,0.174326,0.47768,-0.036174,0.085114,0.01557,-0.213204,-0.247754,1.107529,0.055056,-0.028168,0.077936,-0.025958,0.186317,0.283031,-0.072998,0.170477,0.78463,1.203043,0.37036,-0.11802,-0.013963,-0.103273,-0.040631,0.693577,-0.890976,0.23914,0.061719
5.561248,-0.154665,0.780953,0.004316,-0.050229,-0.061436,0.996837,-0.234491,-0.008165,0.175878,0.448484,-0.056269,0.082758,-0.058398,-0.253827,-0.255022,1.194032,0.014083,-0.045066,0.06609,-0.040726,0.184765,0.24373,-0.053827,0.120964,0.836383,1.259646,0.370077,-0.155037,0.024907,-0.094501,-0.049992,0.73936,-0.9096630000000001,0.258423,0.088112
5.583078,-0.155918,0.784524,0.007089,-0.051247,-0.058465,0.996948,-0.182585,-0.022494,0.171011,0.414452,-0.073071,0.079945,-0.131283,-0.280953,-0.263125,1.243506,-0.021302,-0.065694,0.052166,-0.052326,0.182261,0.200796,-0.022634,0.043092,0.873632,1.348381,0.339518,-0.18344,0.070243,-0.089091,-0.065878,0.774478,-0.920747,0.265587,0.111317
5.604611,-0.157326,0.787302,0.010413,-0.051753,-0.054438,0.997121,-0.133417,-0.037876,0.163507,0.382352,-0.089842,0.077307,-0.199118,-0.301419,-0.272367,1.253665,-0.021405,-0.063777,0.037229,-0.06052,0.178695,0.160877,0.004831,-0.030033,0.886009,1.433601,0.293234,-0.184816,0.124839,-0.085321,-0.094655,0.792811,-0.92748,0.264009,0.119509
5.62604,-0.158793,0.789356,0.013486,-0.051656,-0.04999,0.997322,-0.085643,-0.05238,0.154338,0.350774,-0.106839,0.074899,-0.259851,-0.310432,-0.282597,1.220898,-0.018107,-0.059753,0.022246,-0.065716,0.174517,0.118877,0.026579,-0.072808,0.883553,1.485782,0.24866,-0.169143,0.18154,-0.076063,-0.123288,0.796961,-0.926065,0.266725,0.113705
5.647403,-0.160368,0.790641,0.016665,-0.050699,-0.046498,0.997492,-0.039638,-0.065451,0.146206,0.320184,-0.12445,0.072506,-0.314219,-0.301349,-0.287042,1.146294,-0.024454,-0.062201,0.008395,-0.068933,0.169913,0.083141,0.033755,-0.07952,0.862538,1.489221,0.218191,-0.144118,0.241584,-0.068238,-0.15751,0.791129,-0.914785,0.263586,0.104284
5.668712,-0.162218,0.790966,0.020052,-0.049186,-0.0441,0.997614,0.0012,-0.076243,0.139657,0.298757,-0.146509,0.069153,-0.355603,-0.284626,-0.290707,1.03104,-0.028085,-0.055115,-0.003087,-0.071281,0.165293,0.052207,0.032579,-0.062382,0.835421,1.45312,0.199137,-0.116289,0.301594,-0.059635,-0.19319,0.779679,-0.897858,0.257379,0.093582
5.689894,-0.164143,0.790262,0.022967,-0.04728,-0.042754,0.997702,0.034784,-0.084509,0.134126,0.289789,-0.174017,0.065572,-0.378763,-0.259619,-0.293308,0.868483,-0.016925,-0.036799,-0.012386,-0.073426,0.161325,0.023006,0.031841,-0.039741,0.810078,1.399495,0.187288,-0.097922,0.358927,-0.049838,-0.225417,0.76919,-0.883221,0.249054,0.084059
5.71104,-0.166101,0.78813,0.026369,-0.043113,-0.041044,0.997878,0.057937,-0.092938,0.128426,0.291189,-0.205227,0.062757,-0.382492,-0.231503,-0.299449,0.657097,0.00478,-0.023092,-0.019417,-0.075536,0.157706,-0.00868,0.033319,-0.020258,0.786758,1.342734,0.180219,-0.08756,0.408504,-0.035875,-0.256764,0.759619,-0.871682,0.244061,0.072847
5.732414,-0.168153,0.784647,0.029125,-0.038365,-0.038602,0.998093,0.080607,-0.100012,0.121459,0.291449,-0.234255,0.059916,-0.370924,-0.19549,-0.296918,0.420928,0.034592,-0.007101,-0.024466,-0.07673,0.153795,-0.037437,0.040555,-0.011657,0.766365,1.297992,0.176487,-0.077529,0.451992,-0.016923,-0.284871,0.753818,-0.866061,0.246379,0.063355
5.75426,-0.170462,0.780393,0.031781,-0.034793,-0.037486,0.998185,0.109489,-0.106125,0.116839,0.287274,-0.261669,0.056167,-0.363786,-0.159197,-0.280069,0.225006,0.03712,0.025381,-0.027706,-0.075765,0.150518,-0.058121,0.052764,-0.013541,0.7472,1.270597,0.179906,-0.067272,0.488694,0.001598,-0.30479,0.753013,-0.868076,0.249822,0.060643
5.77643,-0.173299,0.775699,0.033695,-0.032582,-0.038701,0.998151,0.137936,-0.108174,0.117536,0.293246,-0.294312,0.050959,-0.377135,-0.124996,-0.23963,0.128914,-0.008311,0.051853,-0.030031,-0.072784,0.14927,-0.068671,0.06851,-0.020262,0.726836,1.25677,0.188064,-0.057601,0.516104,0.015472,-0.316513,0.757468,-0.875849,0.256389,0.072857
5.798647,-0.176814,0.77116,0.032125,-0.031436,-0.04647,0.997908,0.163461,-0.100059,0.128943,0.312513,-0.328384,0.043242,-0.40268,-0.095915,-0.208097,0.14054,-0.018141,0.066354,-0.03042,-0.068344,0.15031,-0.065335,0.086912,-0.020326,0.703059,1.244453,0.198174,-0.045679,0.528202,0.021585,-0.31521,0.768893,-0.892273,0.256455,0.09105
5.821322,-0.181011,0.767257,0.02921,-0.03191,-0.055323,0.997531,0.191266,-0.087847,0.143253,0.335614,-0.352638,0.03336,-0.417402,-0.066787,-0.172158,0.195535,0.057489,0.009985,-0.032196,-0.062335,0.151892,-0.046044,0.101782,-0.014396,0.679027,1.230979,0.209696,-0.032774,0.52919,0.020719,-0.305067,0.782134,-0.918362,0.258151,0.110939
5.8445,-0.185702,0.764886,0.025531,-0.033692,-0.060046,0.9973,0.216316,-0.072734,0.1527,0.367968,-0.349523,0.022444,-0.432707,-0.044173,-0.143462,0.284355,0.100743,-0.034057,-0.036511,-0.054873,0.154078,-0.019467,0.108886,-0.006804,0.663252,1.212724,0.220234,-0.022739,0.525484,0.021337,-0.299803,0.786706,-0.942286,0.257813,0.124978
5.868898,-0.190764,0.76501,0.021107,-0.03655,-0.058049,0.997421,0.24372,-0.055402,0.151779,0.408954,-0.317681,0.008931,-0.423435,-0.042981,-0.163847,0.363419,0.106887,-0.101222,-0.041199,-0.047043,0.155186,0.003873,0.112971,-0.004433,0.663869,1.192717,0.22753,-0.024172,0.52464,0.033731,-0.307367,0.777835,-0.952993,0.252041,0.122255
5.892332,-0.195615,0.766837,0.014959,-0.040229,-0.052609,0.997692,0.254292,-0.031583,0.145527,0.47076,-0.258567,1.5e-05,-0.411511,-0.045209,-0.189864,0.433405,0.058719,-0.116898,-0.046551,-0.037142,0.156727,0.023797,0.120019,-0.009302,0.68302,1.183649,0.238781,-0.037386,0.523344,0.057011,-0.326124,0.761936,-0.947689,0.247523,0.099664
5.915284,-0.200247,0.767131,0.009319,-0.043882,-0.046917,0.997891,0.233797,-0.005014,0.137983,0.584629,-0.173988,-0.007795,-0.402027,-0.045159,-0.204114,0.507974,-0.010456,-0.119559,-0.051172,-0.024711,0.160159,0.044673,0.127701,-0.015955,0.710311,1.185772,0.252248,-0.056895,0.517351,0.084072,-0.349436,0.746116,-0.926155,0.243927,0.072944
5.937252,-0.204429,0.765437,0.002077,-0.046682,-0.040635,0.9980810000000001,0.178023,0.031053,0.132005,0.748466,-0.07918,-0.030964,-0.382955,-0.040194,-0.220086,0.55637,-0.070314,-0.114438,-0.054199,-0.010014,0.16397,0.066552,0.137279,-0.026337,0.74228,1.207848,0.27239,-0.081442,0.502857,0.109843,-0.363616,0.735843,-0.902575,0.238233,0.051772
5.958694,-0.208243,0.764844,-0.004952,-0.047465,-0.033284,0.998306,0.094767,0.071302,0.121963,0.936367,0.004294,-0.099474,-0.354593,-0.033809,-0.238388,0.575943,-0.115256,-0.10956,-0.054964,0.005844,0.167526,0.088514,0.138637,-0.032061,0.766676,1.232725,0.290702,-0.099292,0.476443,0.125622,-0.361093,0.730552,-0.886738,0.230672,0.042433
5.980028,-0.211492,0.765772,-0.010666,-0.048022,-0.026237,0.998445,0.003118,0.104882,0.102286,1.10101,0.102409,-0.124767,-0.316806,-0.026835,-0.254825,0.574691,-0.149703,-0.104813,-0.051289,0.021917,0.170349,0.112658,0.131181,-0.033497,0.783775,1.256538,0.308794,-0.107148,0.442005,0.127455,-0.342669,0.727576,-0.886083,0.22515,0.042873
6.001414,-0.21407,0.76809,-0.014075,-0.049543,-0.022523,0.998419,-0.082313,0.127295,0.086389,1.215807,0.129594,-0.106677,-0.272284,-0.019305,-0.263041,0.561661,-0.177387,-0.09959,-0.043854,0.036382,0.172374,0.142411,0.113699,-0.024889,0.792185,1.268002,0.320347,-0.103709,0.400848,0.113852,-0.312181,0.725885,-0.902364,0.22061,0.048203
6.02268,-0.216062,0.771076,-0.015521,-0.051491,-0.023083,0.998286,-0.161208,0.143943,0.08067,1.287041,0.085542,-0.08604,-0.225602,-0.011217,-0.262032,0.542355,-0.199749,-0.093697,-0.03301,0.048225,0.173961,0.179957,0.090287,-0.006739,0.789357,1.268135,0.326216,-0.093027,0.351369,0.092597,-0.281235,0.727188,-0.923334,0.219698,0.052356
6.043696,-0.2177,0.774154,-0.016085,-0.052895,-0.027081,0.998103,-0.233493,0.16063,0.084659,1.316805,0.056858,-0.067269,-0.179495,-0.002007,-0.253985,0.518824,-0.218271,-0.087498,-0.019079,0.057134,0.174851,0.223154,0.064258,0.020028,0.774287,1.257267,0.328331,-0.076205,0.293841,0.070034,-0.255005,0.73161,-0.940847,0.217818,0.051956
6.064452,-0.219184,0.776947,-0.016504,-0.053974,-0.033408,0.997847,-0.294054,0.180327,0.097789,1.30286,0.046597,-0.056182,-0.133604,0.008023,-0.241485,0.492881,-0.234949,-0.081264,-0.003186,0.063884,0.174983,0.275966,0.040534,0.050247,0.745426,1.237556,0.325757,-0.058358,0.230676,0.04826,-0.240764,0.746124,-0.955055,0.208857,0.049587
6.084944,-0.220679,0.7792,-0.017634,-0.053976,-0.039551,0.997603,-0.346743,0.199458,0.11519,1.248156,0.039205,-0.04177,-0.08978,0.018315,-0.229253,0.467368,-0.251651,-0.075529,0.013653,0.069557,0.17469,0.315124,0.011831,0.072222,0.724436,1.222711,0.332197,-0.041188,0.158009,0.028062,-0.223363,0.763636,-0.96139,0.207159,0.049818
6.105228,-0.222325,0.781058,-0.018833,-0.052418,-0.04507,0.99743,-0.386277,0.220912,0.145218,1.149395,0.02057,-0.019732,-0.04776,0.027955,-0.218054,0.439707,-0.267038,-0.070637,0.029834,0.075081,0.173297,0.346353,-0.00974,0.088467,0.707733,1.20912,0.33436,-0.030148,0.087115,0.004294,-0.201223,0.777927,-0.968185,0.200132,0.050856
6.125251,-0.224135,0.782401,-0.020165,-0.050216,-0.049081,0.9973280000000002,-0.405527,0.241279,0.193338,1.002499,0.008799,0.007236,-0.007182,0.036647,-0.208764,0.412248,-0.282076,-0.065708,0.04444,0.080483,0.171498,0.364412,-0.024619,0.100036,0.706243,1.201299,0.333931,-0.026616,0.022801,-0.024281,-0.175405,0.784219,-0.979811,0.193021,0.050138
6.144952,-0.226091,0.782899,-0.021581,-0.04662,-0.050595,0.997397,-0.403915,0.248619,0.255325,0.804328,0.02269,0.01563,0.029642,0.04407,-0.203204,0.385658,-0.296328,-0.060072,0.056775,0.085448,0.169186,0.373619,-0.03246,0.103467,0.714038,1.202172,0.332569,-0.040473,-0.035727,-0.050672,-0.148353,0.785372,-0.991893,0.185871,0.046568
6.164537,-0.228242,0.781701,-0.023284,-0.041489,-0.050582,0.997586,-0.388726,0.226964,0.306676,0.566234,0.063167,0.009582,0.060926,0.050885,-0.200978,0.363701,-0.311342,-0.054183,0.066742,0.08958,0.165991,0.37497,-0.03504,0.103971,0.723994,1.205489,0.323291,-0.067926,-0.086681,-0.072516,-0.12753,0.779091,-0.994964,0.173598,0.041194
6.184057,-0.230846,0.779189,-0.023775,-0.034897,-0.050484,0.997832,-0.371051,0.174317,0.318214,0.314809,0.116238,-0.025251,0.090527,0.05684,-0.199232,0.336925,-0.32112,-0.049525,0.074387,0.09134900000000001,0.161907,0.37166,-0.031808,0.099224,0.735459,1.216795,0.308813,-0.110928,-0.129535,-0.089099,-0.113803,0.768457,-0.988903,0.161978,0.035217
6.203856,-0.233763,0.775904,-0.024568,-0.029368,-0.049265,0.998052,-0.387098,0.118184,0.277942,0.162078,0.093248,-0.085371,0.120537,0.063375,-0.199917,0.315426,-0.333208,-0.046099,0.079554,0.089887,0.158786,0.367514,-0.023011,0.091436,0.743686,1.236169,0.289956,-0.161119,-0.162862,-0.09968,-0.103677,0.75544,-0.975598,0.14897,0.030395
6.224307,-0.236491,0.772204,-0.025612,-0.025333,-0.043607,0.998399,-0.409645,0.066362,0.206745,0.09537300000000001,0.022081,-0.187524,0.148827,0.067334,-0.208416,0.30903,-0.347724,-0.042495,0.081346,0.086402,0.155779,0.362201,-0.01271,0.085446,0.746341,1.256917,0.266466,-0.201244,-0.182939,-0.108655,-0.097261,0.739391,-0.957804,0.135733,0.026504
6.245421,-0.238853,0.768298,-0.026368,-0.024089,-0.032489,0.9988340000000001,-0.430993,0.024506,0.134869,0.124596,0.018215,-0.184777,0.17671,0.067233,-0.227113,0.319749,-0.36262,-0.037888,0.081506,0.082002,0.154828,0.352254,-0.000456,0.075885,0.750371,1.286704,0.24952,-0.228017,-0.186383,-0.116966,-0.097479,0.719502,-0.937394,0.127959,0.021969
6.267037,-0.241157,0.765118,-0.026581,-0.02442,-0.02185,0.999109,-0.436424,-0.004914,0.087657,0.171405,0.104325,-0.098122,0.205688,0.06705,-0.245596,0.332581,-0.365512,-0.036781,0.080984,0.076036,0.154373,0.339236,0.006019,0.075085,0.750883,1.310358,0.243238,-0.231354,-0.178001,-0.121267,-0.095017,0.699021,-0.9216240000000001,0.124366,0.01782
6.28911,-0.243135,0.763637,-0.025935,-0.026414,-0.019517,0.999124,-0.425951,-0.013759,0.085086,0.206563,0.180492,-0.017447,0.232045,0.06388,-0.251099,0.352101,-0.349404,-0.03559,0.081811,0.068331,0.154171,0.33222,0.002012,0.087758,0.743086,1.323729,0.246543,-0.220026,-0.163932,-0.119931,-0.082423,0.684717,-0.916734,0.123031,0.012502
6.312351,-0.244896,0.765355,-0.024699,-0.029406,-0.025373,0.99894,-0.405359,-0.001827,0.117882,0.252874,0.214398,0.059515,0.251984,0.056307,-0.243744,0.396061,-0.310104,-0.03384,0.08504,0.057928,0.154027,0.335299,-0.011822,0.114553,0.724719,1.323979,0.258517,-0.195027,-0.148293,-0.111553,-0.066265,0.680698,-0.915393,0.12882,0.014413
6.33466,-0.246077,0.768508,-0.020331,-0.032566,-0.032913,0.998721,-0.39779,0.002235,0.141253,0.319202,0.174855,0.110259,0.250258,0.035829,-0.233443,0.469567,-0.249078,-0.044914,0.090535,0.043745,0.155529,0.338497,-0.035312,0.151142,0.704273,1.305911,0.273199,-0.154742,-0.128253,-0.104088,-0.054143,0.681643,-0.918081,0.142864,0.015973
6.356713,-0.247222,0.770189,-0.014005,-0.036302,-0.039496,0.998462,-0.388693,0.000191,0.155837,0.387736,0.111338,0.11826,0.220437,0.004035,-0.223858,0.593422,-0.168156,-0.052236,0.096484,0.026235,0.160077,0.331979,-0.060653,0.188504,0.698522,1.273238,0.286536,-0.113578,-0.099456,-0.094381,-0.052462,0.683742,-0.917789,0.161251,0.015977
6.377833,-0.248367,0.771399,-0.007664,-0.038505,-0.04478,0.998225,-0.372537,-0.003726,0.169291,0.432617,0.055856,0.11732,0.160864,-0.034375,-0.219233,0.757671,-0.082196,-0.039156,0.100271,0.007478,0.165134,0.312177,-0.0795,0.221541,0.709696,1.237009,0.30336,-0.084848,-0.065408,-0.082719,-0.055243,0.68901,-0.918769,0.179298,0.016208
6.39827,-0.249451,0.772207,-0.001109,-0.040114,-0.050887,0.997898,-0.346327,-0.009412,0.185209,0.45192,0.013043,0.114626,0.081534,-0.083795,-0.218374,0.934254,-0.004971,-0.010897,0.099791,-0.009611,0.168554,0.283345,-0.088636,0.238912,0.733813,1.216706,0.322943,-0.071812,-0.032977,-0.073832,-0.055727,0.701692,-0.925164,0.199188,0.021835
6.418316,-0.250555,0.773577,0.004479,-0.042091,-0.054793,0.9976,-0.313251,-0.018394,0.195501,0.456848,-0.021775,0.111598,0.002752,-0.13754,-0.219585,1.080556,0.079188,-2.3e-05,0.094444,-0.025246,0.170552,0.248308,-0.08632,0.234854,0.762129,1.221101,0.338544,-0.069977,-0.004115,-0.066893,-0.059737,0.720993,-0.9302760000000002,0.222728,0.033971
6.437801,-0.251904,0.775281,0.009547000000000002,-0.044491,-0.054882,0.997455,-0.277429,-0.031003,0.198421,0.454626,-0.050767,0.108438,-0.072285,-0.18126,-0.218125,1.183946,0.075633,-0.001213,0.085282,-0.03975,0.172672,0.209033,-0.073654,0.204652,0.787145,1.25525,0.342938,-0.061501,0.023417,-0.062164,-0.068801,0.740604,-0.933476,0.243512,0.04678
6.456647,-0.25349,0.77717,0.013849,-0.046897,-0.052127,0.997443,-0.240596,-0.045129,0.194844,0.447389,-0.074905,0.105118,-0.143999,-0.213968,-0.219588,1.24658,0.019218,-0.025395,0.074032,-0.052244,0.174634,0.165749,-0.05836,0.166495,0.808639,1.297706,0.33571,-0.050616,0.053328,-0.058367,-0.084887,0.7565,-0.933521,0.258808,0.05015
6.474927,-0.25527,0.779253,0.017549,-0.048532,-0.047705,0.997527,-0.202298,-0.059961,0.186376,0.432133,-0.093717,0.101663,-0.209264,-0.24383,-0.227188,1.268277,-0.011556,-0.036868,0.061479,-0.062176,0.175815,0.119301,-0.042203,0.129242,0.823725,1.337809,0.319432,-0.040539,0.085025,-0.054714,-0.103837,0.767766,-0.931308,0.267021,0.049255
6.492549,-0.257351,0.781215,0.02188,-0.049249,-0.041584,0.997681,-0.166077,-0.076391,0.174068,0.414593,-0.109447,0.097942,-0.265644,-0.268507,-0.238995,1.244632,-0.023235,-0.042435,0.048303,-0.070148,0.176042,0.071304,-0.031567,0.108239,0.830349,1.355406,0.295649,-0.031038,0.120556,-0.049248,-0.12401,0.772913,-0.926324,0.271588,0.047025
6.509599,-0.259752,0.783302,0.025327,-0.048471,-0.033923,0.997927,-0.131797,-0.090546,0.158601,0.393357,-0.122181,0.093674,-0.31213,-0.276892,-0.252171,1.171423,-0.043505,-0.047846,0.035535,-0.076852,0.174944,0.023142,-0.024442,0.09574,0.823116,1.353857,0.271205,-0.025327,0.155642,-0.044171,-0.149616,0.774731,-0.91686,0.270904,0.048872
6.526122,-0.26248,0.785426,0.028016,-0.045866,-0.025831,0.9982200000000001,-0.101489,-0.101296,0.142217,0.371515,-0.13374,0.088858,-0.346125,-0.267374,-0.26014,1.047774,-0.069178,-0.042389,0.023709,-0.082186,0.172164,-0.023914,-0.017686,0.085352,0.808584,1.339477,0.248267,-0.022786,0.188692,-0.036262,-0.17806,0.774417,-0.903622,0.267975,0.05063
6.542259,-0.26547,0.787273,0.030416,-0.041207,-0.017163,0.99854,-0.076818,-0.109979,0.124075,0.351333,-0.145463,0.083685,-0.362642,-0.247297,-0.265402,0.869942,-0.075439,-0.033685,0.013299,-0.085984,0.167823,-0.06931,-0.009624,0.070763,0.791883,1.320012,0.226395,-0.02435,0.219377,-0.025911,-0.20733,0.774134,-0.889774,0.264129,0.053692
6.558152,-0.268441,0.788314,0.031532,-0.034534,-0.007953,0.998874,-0.055845,-0.116043,0.102886,0.329035,-0.155412,0.078837,-0.358065,-0.21635,-0.267229,0.639065,-0.062176,-0.030228,0.004717,-0.087947,0.161865,-0.111679,0.002263,0.046786,0.773878,1.307587,0.209071,-0.024245,0.247207,-0.012208,-0.234081,0.773136,-0.879745,0.26193,0.05747
6.573963,-0.271306,0.788205,0.031958,-0.027374,0.002088,0.999112,-0.035251,-0.120305,0.080248,0.305022,-0.164369,0.074821,-0.337693,-0.180137,-0.257643,0.385514,-0.028996,-0.019256,-0.001577,-0.087918,0.155094,-0.149629,0.013332,0.018009,0.757206,1.299135,0.196966,-0.025744,0.273214,0.003776,-0.257433,0.77022,-0.875296,0.263911,0.0613
6.589598,-0.274056,0.787483,0.031562,-0.021097,0.010499,0.999224,-0.014712,-0.121064,0.061077,0.284491,-0.175014,0.071262,-0.331339,-0.152439,-0.246903,0.199304,-0.003995,-0.014708,-0.004515,-0.085876,0.150082,-0.181734,0.023952,-0.010816,0.741662,1.29234,0.189162,-0.025404,0.294335,0.019994,-0.273867,0.767554,-0.878029,0.262286,0.063347
6.605257,-0.27711,0.785701,0.033928,-0.017457,0.014117,0.999172,0.001253,-0.122679,0.05257,0.287319,-0.197097,0.067277,-0.345885,-0.138081,-0.238717,0.121628,-0.023794,0.075279,-0.003506,-0.082555,0.148116,-0.204748,0.031171,-0.032875,0.729013,1.284015,0.188001,-0.024733,0.310031,0.029733,-0.283791,0.768472,-0.888328,0.260602,0.066488
6.620619,-0.280273,0.78346,0.034004,-0.014731,0.010424,0.999259,0.012002,-0.116452,0.055479,0.305584,-0.227948,0.061504,-0.37259,-0.125592,-0.211663,0.141864,-0.005999,0.073178,-0.000918,-0.0787,0.148676,-0.213153,0.040307,-0.041636,0.711798,1.268241,0.190234,-0.023073,0.311022,0.034555,-0.281423,0.777023,-0.907824,0.259797,0.073059
6.636171,-0.283795,0.780538,0.033793,-0.014398,0.003043,0.99932,0.022301,-0.107119,0.065243,0.335843,-0.263201,0.055094,-0.389649,-0.116458,-0.202164,0.196535,0.045156,0.02767,0.002087,-0.074954,0.150392,-0.205212,0.050074,-0.044227,0.691967,1.250809,0.193584,-0.01728,0.301696,0.035375,-0.270749,0.789034,-0.933962,0.261035,0.082664
6.652254,-0.287446,0.776702,0.032413,-0.015983,0.000587,0.999347,0.034288,-0.096272,0.06998,0.369796,-0.289655,0.04904,-0.391151,-0.114427,-0.213793,0.250538,0.069234,-0.019872,0.00334,-0.070238,0.151867,-0.18762,0.056774,-0.04972,0.679865,1.2362,0.197394,-0.01426,0.294434,0.038613,-0.261446,0.789877,-0.957686,0.258312,0.090761
6.668563,-0.29131,0.775659,0.030056,-0.019012,0.00629,0.999348,0.043621,-0.084153,0.063131,0.411583,-0.294203,0.037694,-0.37266,-0.120137,-0.243784,0.285812,0.083432,-0.055593,0.002549,-0.064197,0.151949,-0.169694,0.059275,-0.060285,0.683425,1.223309,0.198803,-0.011533,0.296064,0.048931,-0.265525,0.772895,-0.964878,0.248824,0.09199
6.68493,-0.295202,0.780283,0.026359,-0.022406,0.016573,0.999264,0.042398,-0.070936,0.047123,0.475425,-0.263917,0.037174,-0.347954,-0.122864,-0.272772,0.309535,0.074286,-0.090645,0.001324,-0.05621,0.151417,-0.158011,0.06426,-0.076763,0.706354,1.219492,0.20131,-0.015895,0.30225,0.065882,-0.281558,0.746482,-0.9545030000000002,0.234084,0.08078
6.70037,-0.298844,0.782528,0.022075,-0.026626,0.025092,0.999087,0.018073,-0.05588,0.032081,0.576224,-0.215697,0.035687,-0.331227,-0.123843,-0.292891,0.350119,0.0343,-0.090206,0.001602,-0.045012,0.153369,-0.145556,0.074271,-0.093962,0.743143,1.232104,0.213907,-0.027559,0.305149,0.083347,-0.300629,0.725459,-0.93335,0.218804,0.060347
6.715029,-0.30195,0.782954,0.016326,-0.030683,0.031267,0.998907,-0.032593,-0.035184,0.027641,0.717703,-0.139668,0.03388,-0.316394,-0.120064,-0.309125,0.388712,-0.005999,-0.087679,0.002495,-0.03095,0.156632,-0.125088,0.083436,-0.105894,0.778163,1.259947,0.237818,-0.03243,0.297752,0.097354,-0.316586,0.718755,-0.91008,0.21601,0.042128
6.728842,-0.30466,0.781508,0.010401,-0.032404,0.036559,0.998752,-0.098932,-0.007999,0.034417,0.868229,-0.068251,0.016014,-0.298831,-0.112311,-0.325781,0.406454,-0.036342,-0.086251,0.004189,-0.016308,0.158362,-0.093906,0.083271,-0.101437,0.802901,1.280075,0.266586,-0.025023,0.281916,0.10096,-0.316898,0.71767,-0.899009,0.215239,0.038561
6.742578,-0.307111,0.781662,0.005439,-0.033663,0.041098,0.998573,-0.165603,0.029721,0.055145,1.008121,-0.011795,-0.029895,-0.272511,-0.101983,-0.341481,0.403701,-0.057305,-0.08469,0.007556,-0.002777,0.158307,-0.053842,0.074589,-0.081752,0.818644,1.283614,0.291315,-0.015226,0.261625,0.091534,-0.30106,0.717188,-0.9044160000000001,0.214037,0.04484
6.756098,-0.309022,0.782137,0.000399,-0.035937,0.042779,0.998438,-0.218582,0.081904,0.087555,1.110286,0.000526,-0.046809,-0.241566,-0.087217,-0.351494,0.392722,-0.073799,-0.082457,0.013082,0.010574,0.156791,-0.008828,0.065089,-0.05308,0.824383,1.272715,0.3047,-0.003237,0.23827,0.072504,-0.275576,0.716019,-0.918724,0.207323,0.056273
6.769497,-0.310235,0.783313,-0.003292,-0.039092,0.040174,0.998422,-0.256539,0.131058,0.119649,1.16713,-0.052876,-0.026278,-0.206415,-0.070649,-0.35219,0.374189,-0.086022,-0.079139,0.02081,0.024135,0.15391,0.039355,0.059341,-0.027776,0.826361,1.264064,0.31453,0.003681,0.211668,0.048759,-0.253638,0.713573,-0.932779,0.197852,0.06357
6.782506,-0.310855,0.784914,-0.006172,-0.04144,0.036357,0.99846,-0.281397,0.166785,0.146272,1.176118,-0.110611,-0.003079,-0.172145,-0.054825,-0.347822,0.35245,-0.095171,-0.075137,0.029512,0.036193,0.149349,0.091134,0.052721,-0.003097,0.818806,1.256112,0.324224,0.006525,0.181598,0.028896,-0.24236,0.707347,-0.939741,0.196082,0.063177
6.794939,-0.310979,0.786634,-0.008035,-0.043439,0.032321,0.998501,-0.290242,0.187109,0.16953,1.133822,-0.159779,0.012356,-0.139491,-0.04182,-0.340724,0.33063,-0.102816,-0.070519,0.038302,0.046389,0.143072,0.139812,0.045183,0.023973,0.814024,1.245315,0.329683,0.011276,0.165756,0.008682,-0.247254,0.690389,-0.935107,0.184155,0.052998
6.806671,-0.310702,0.788086,-0.009303,-0.044471,0.027518,0.998588,-0.282726,0.194828,0.195158,1.040058,-0.210013,0.024292,-0.115491,-0.032653,-0.331095,0.319972,-0.113775,-0.065852,0.046476,0.054733,0.13591,0.183265,0.034752,0.052577,0.810307,1.229215,0.332336,0.007493,0.148539,-0.001022,-0.260223,0.667579,-0.925191,0.173055,0.035561
6.817764,-0.310345,0.789458,-0.009273000000000002,-0.044142,0.021142,0.998758,-0.256546,0.192155,0.225927,0.890437,-0.234097,0.016242,-0.098609,-0.026656,-0.318516,0.315201,-0.126012,-0.062029,0.053096,0.061063,0.127555,0.222383,0.024811,0.083308,0.811223,1.209177,0.330364,-0.009188000000000002,0.133075,-0.007348,-0.273055,0.642594,-0.904594,0.16059,0.01675
6.828347,-0.309881,0.790597,-0.008935,-0.043373,0.013811,0.998924,-0.212877,0.173566,0.250251,0.688978,-0.217211,-0.002826,-0.083656,-0.022143,-0.304992,0.310589,-0.137408,-0.05812,0.058384,0.065248,0.11733,0.255802,0.017187,0.106847,0.81865,1.19628,0.327331,-0.040248,0.119088,-0.013503,-0.281132,0.621714,-0.879875,0.148779,0.004144
6.838568,-0.309638,0.790518,-0.007335,-0.041362,0.005967,0.999099,-0.157366,0.138567,0.254615,0.457909,-0.142903,-0.012891,-0.062719,-0.01721,-0.290245,0.286593,-0.139922,-0.054401,0.061193,0.066821,0.104401,0.280927,0.008345,0.116166,0.829235,1.20226,0.327381,-0.08298,0.102609,-0.024613,-0.280882,0.61036,-0.852586,0.140974,-0.001709
6.847107,-0.310078,0.794087,-0.003363,-0.039004,0.002262,0.999231,-0.103826,0.11756,0.264908,0.344274,-0.085101,0.002672,-0.034286,-0.015151,-0.28016,0.244722,-0.132185,-0.052019,0.059808,0.064601,0.09060000000000001,0.297658,0.004912,0.109486,0.843888,1.228663,0.322551,-0.131759,0.089299,-0.039863,-0.276988,0.603447,-0.831617,0.139779,-0.001986
6.855684,-0.310047,0.795292,-0.003682,-0.038597,0.002572,0.999245,-0.0762,0.114403,0.269895,0.311036,-0.09246,-0.006139,-0.013591,-0.011889,-0.278601,0.229022,-0.13716,-0.048943,0.055743,0.060442,0.079668,0.306012,0.010898,0.094699,0.859016,1.268659,0.311606,-0.176541,0.082411,-0.050968,-0.270244,0.600295,-0.821123,0.142782,-0.004886
6.863661,-0.310305,0.796742,-0.000435,-0.038601,0.00537,0.99924,-0.045057,0.102465,0.270723,0.266954,-0.073491,-0.012383,0.00766,-0.016573,-0.280867,0.212621,-0.141487,-0.045144,0.049859,0.05302,0.069994,0.304857,0.016746,0.078383,0.872653,1.312747,0.296745,-0.212722,0.085019,-0.0573,-0.267675,0.597851,-0.815474,0.149346,-0.012684
6.87098,-0.310229,0.797665,0.002806,-0.037468,0.008785,0.999255,-0.024154,0.091257,0.269544,0.23872,-0.063443,-0.016998,0.021322,-0.023502,-0.284727,0.203894,-0.147048,-0.041048,0.044228,0.043961,0.062151,0.295933,0.021859,0.06982,0.87533,1.351207,0.280405,-0.237974,0.092735,-0.053912,-0.269021,0.597965,-0.808349,0.157134,-0.019282
6.877767,-0.309944,0.798214,0.005766,-0.036759,0.011117,0.999246,-0.00514,0.080647,0.26802,0.216322,-0.059305,-0.019003,0.03396,-0.02996,-0.287208,0.196352,-0.152062,-0.036898,0.040781,0.036476,0.054945,0.285036,0.024182,0.071792,0.865737,1.379936,0.265212,-0.249582,0.106166,-0.045705,-0.271426,0.602245,-0.800268,0.160338,-0.018865
6.884174,-0.309632,0.798593,0.00822,-0.036856,0.011356,0.999222,0.017367,0.071431,0.269894,0.191256,-0.055603,-0.020207,0.04711,-0.034612,-0.286532,0.188894,-0.156382,-0.032987,0.03989,0.030935,0.048388,0.274391,0.020276,0.087949,0.845753,1.392863,0.258549,-0.244026,0.122818,-0.037762,-0.27076,0.613049,-0.797527,0.162664,-0.011483
6.890197,-0.309549,0.798827,0.009832,-0.037529,0.010117,0.999196,0.042131,0.064805,0.273621,0.163916,-0.051198,-0.022202,0.060317,-0.036493,-0.283844,0.182038,-0.160675,-0.030124,0.041226,0.026491,0.043522,0.262508,0.00866,0.119414,0.818646,1.385057,0.260513,-0.214895,0.139251,-0.031792,-0.266058,0.630948,-0.803558,0.170937,0.001312
6.895742,-0.309717,0.798869,0.010941,-0.038765,0.008426,0.999153,0.065411,0.060384,0.277134,0.140545,-0.048172,-0.025046,0.073109,-0.037086,-0.280929,0.177309,-0.165906,-0.027986,0.043487,0.022154,0.040952,0.249892,-0.007643,0.156061,0.790858,1.362648,0.266525,-0.176507,0.154018,-0.027588,-0.260548,0.656555,-0.815757,0.183241,0.018875
6.9007,-0.310099,0.798748,0.011706,-0.040232,0.007354,0.999095,0.083269,0.058164,0.279031,0.126392,-0.048133,-0.028275,0.084993,-0.036972,-0.279119,0.174482,-0.171506,-0.02659,0.04503,0.017477,0.040336,0.239076,-0.022219,0.187868,0.764555,1.33257,0.270289,-0.137471,0.1698,-0.023579,-0.258863,0.687078,-0.837512,0.197947,0.034109
6.905059,-0.310524,0.798525,0.012391,-0.04176,0.007436,0.9990230000000001,0.094495,0.057249,0.278774,0.123016,-0.051923,-0.031089,0.096027,-0.037208,-0.2794,0.1728,-0.176797,-0.025336,0.045358,0.012939,0.041011,0.229331,-0.033816,0.209133,0.74111,1.303122,0.269825,-0.106115,0.184761,-0.016801,-0.256199,0.723984,-0.861312,0.215962,0.042094
6.908789,-0.31085,0.798287,0.012799,-0.042808,0.00931,0.998958,0.098278,0.057418,0.275668,0.12885,-0.058202,-0.032951,0.10578,-0.037634,-0.282863,0.170765,-0.180938,-0.023918,0.044514,0.009216,0.042229,0.19889,-0.045007,0.219564,0.738757,1.280055,0.272717,-0.085463,0.199385,-0.014656,-0.255968,0.754648,-0.883774,0.238693,0.05514
6.912044,-0.311046,0.79809,0.012844,-0.042711,0.012072,0.998932,0.096873,0.058318,0.270993,0.138247,-0.064771,-0.034284,0.112372,-0.037855,-0.288021,0.169142,-0.184256,-0.022575,0.042599,0.005903,0.04255,0.169237,-0.047396,0.212997,0.744353,1.271579,0.268351,-0.077769,0.216154,-0.008382,-0.260874,0.779691,-0.903531,0.25878,0.068067
6.914976,-0.311045,0.797955,0.012981,-0.04144,0.014452,0.998952,0.09406900000000001,0.0583,0.266963,0.145128,-0.069609,-0.035043,0.115058,-0.038852,-0.292542,0.168975,-0.187224,-0.021141,0.039683,0.00282,0.041372,0.14032,-0.04414,0.19623,0.754058,1.276017,0.262072,-0.08175,0.234419,0.000891,-0.270975,0.796699,-0.916548,0.270053,0.080593
6.917742,-0.310907,0.797874,0.013398,-0.039442,0.015565,0.999011,0.093046,0.057014,0.265185,0.146304,-0.072071,-0.035594,0.115187,-0.040485,-0.29487,0.169456,-0.189796,-0.02001,0.036141,-0.000177,0.039039,0.113696,-0.038588,0.174683,0.763349,1.289134,0.256149,-0.087883,0.252522,0.010777,-0.28298,0.805395,-0.923876,0.273522,0.091728
6.920434,-0.310707,0.797798,0.013874,-0.037317,0.014917,0.999096,0.094452,0.055575,0.266578,0.14374,-0.073797,-0.036353,0.114576,-0.041709,-0.294056,0.169433,-0.191765,-0.019478,0.032311,-0.002934,0.036193,0.091693,-0.03316,0.152403,0.768674,1.30381,0.247601,-0.089657,0.269224,0.019014,-0.293378,0.808016,-0.929354,0.268809,0.100183
6.923063,-0.310451,0.797671,0.014345,-0.036021,0.013081,0.9991620000000001,0.09909200000000001,0.054121,0.270271,0.139129,-0.076053,-0.03704,0.115822,-0.042391,-0.290774,0.168203,-0.193378,-0.019072,0.028147,-0.005104,0.033574,0.075898,-0.028265,0.132886,0.772087,1.317466,0.238467,-0.085501,0.284779,0.025031,-0.303007,0.805116,-0.933332,0.259473,0.107704
6.925606,-0.310165,0.797487,0.014629,-0.035614,0.010228,0.999206,0.106255,0.053155,0.27584,0.133855,-0.079166,-0.037656,0.119172,-0.042194,-0.285524,0.165552,-0.194697,-0.018703,0.023646,-0.006494,0.03168,0.066484,-0.025824,0.119793,0.773126,1.324874,0.229633,-0.075747,0.297866,0.029424,-0.313592,0.796803,-0.935576,0.252062,0.112504
6.928003,-0.309881,0.797274,0.014533,-0.035938,0.006583,0.999227,0.114308,0.053405,0.282811,0.130135,-0.083167,-0.038662,0.123747,-0.040895,-0.278796,0.162455,-0.195688,-0.018526,0.01907,-0.007087,0.030861,0.061641,-0.025649,0.112283,0.771711,1.325134,0.221197,-0.058682,0.307139,0.03264,-0.324626,0.785772,-0.93708,0.24737,0.111996
6.930187,-0.30962,0.797057,0.01417,-0.036809,0.002227,0.999219,0.122467,0.054739,0.29111,0.128368,-0.087385,-0.040293,0.128508,-0.038901,-0.270648,0.159969,-0.196607,-0.018418,0.014651,-0.006975,0.030995,0.059706,-0.024163,0.105489,0.772701,1.325706,0.21638,-0.040747,0.312395,0.035861,-0.336243,0.773154,-0.936007,0.24336,0.105878
6.932139,-0.309364,0.796831,0.013617,-0.037933,-0.002707,0.999184,0.129919,0.056912,0.300539,0.128841,-0.092104,-0.04227,0.132374,-0.036662,-0.261249,0.159173,-0.197993,-0.017925,0.010716,-0.006314,0.031615,0.059396,-0.020207,0.097822,0.778818,1.329941,0.214771,-0.025452,0.313945,0.038662,-0.346804,0.760963,-0.933394,0.240448,0.097112
6.933893,-0.309112,0.796604,0.012873,-0.039228,-0.008064,0.999115,0.136983,0.059695,0.310758,0.130623,-0.097172,-0.044407,0.135669,-0.034124,-0.250951,0.159308,-0.199472,-0.017565,0.007672,-0.005254,0.032224,0.059437,-0.014997,0.090044,0.788551,1.335995,0.215786,-0.01623,0.313013,0.040752,-0.35511,0.750157,-0.929968,0.235586,0.086641
6.935531,-0.308898,0.796388,0.011992,-0.040234,-0.013543,0.9990270000000001,0.143474,0.062754,0.321297,0.132199,-0.10199,-0.046566,0.138489,-0.031208,-0.240349,0.158989,-0.200662,-0.017349,0.005575,-0.003988,0.032641,0.059614,-0.008187,0.081528,0.80243,1.345823,0.219473,-0.01502,0.310067,0.042356,-0.360992,0.741261,-0.926052,0.229906,0.077968
6.937041,-0.308746,0.796195,0.010999,-0.040655,-0.018962,0.998933,0.148683,0.065997,0.331776,0.133479,-0.106475,-0.048505,0.140136,-0.028004,-0.229869,0.158337,-0.201428,-0.017298,0.004512,-0.002638,0.032623,0.060178,-0.001286,0.075516,0.818484,1.356086,0.225754,-0.01809,0.305642,0.043814,-0.364456,0.73306,-0.921343,0.22413,0.072168
6.938454,-0.308727,0.796004,0.00999,-0.040592,-0.0241,0.998835,0.152601,0.069415,0.341688,0.134793,-0.110782,-0.05027,0.14088,-0.024618,-0.219981,0.157768,-0.20228,-0.017429,0.004162,-0.00135,0.032232,0.061624,0.004629,0.073026,0.835122,1.363613,0.232047,-0.025517,0.301235,0.044515,-0.364138,0.72472,-0.91789,0.218635,0.068721
6.939766,-0.308862,0.795808,0.008967,-0.040111,-0.028368,0.998752,0.154721,0.073106,0.349956,0.136906,-0.115081,-0.051907,0.140985,-0.021125,-0.211753,0.157405,-0.20344,-0.017835,0.004179,-0.000337,0.031819,0.063879,0.010373,0.071461,0.850335,1.369919,0.234744,-0.037336,0.29745,0.045259,-0.361488,0.715562,-0.9141260000000001,0.213897,0.066515
6.94095,-0.309123,0.795583,0.008089,-0.039246,-0.031457,0.998702,0.153944,0.076969,0.355843,0.141941,-0.120347,-0.053279,0.140093,-0.018096,-0.205784,0.158079,-0.205202,-0.018425,0.004434,0.000541,0.031713,0.067123,0.014947,0.072425,0.861713,1.373519,0.235905,-0.048844,0.294178,0.045762,-0.35781,0.706369,-0.909898,0.209573,0.066527
6.94199,-0.309477,0.795294,0.007248,-0.038395,-0.033219,0.998684,0.150115,0.081473,0.358885,0.151916,-0.127745,-0.054503,0.13866,-0.015483,-0.2023,0.160525,-0.207999,-0.019158,0.004785,0.001159,0.031888,0.071052,0.019204,0.072103,0.869728,1.378784,0.23658,-0.062318,0.29166,0.046093,-0.3542,0.697996,-0.9056090000000001,0.205755,0.066868
6.942895,-0.309918,0.794943,0.006608,-0.037575,-0.033553,0.998708,0.141412,0.086922,0.358451,0.170717,-0.137273,-0.055654,0.136959,-0.013622,-0.201565,0.164351,-0.211785,-0.019843,0.005244,0.001674,0.032499,0.075897,0.021963,0.072003,0.873097,1.383702,0.237588,-0.076033,0.289177,0.045934,-0.351457,0.692689,-0.9020530000000001,0.205002,0.065859
6.943636,-0.310385,0.794458,0.005754,-0.036873,-0.031951,0.998792,0.126307,0.094409,0.353377,0.201757,-0.150878,-0.055954,0.134601,-0.012011,-0.204574,0.170766,-0.217094,-0.02037,0.006536,0.002181,0.03382,0.081231,0.023561,0.073052,0.871546,1.386616,0.239443,-0.089972,0.28651,0.045822,-0.349445,0.692431,-0.898719,0.206094,0.063199
6.944101,-0.310851,0.793838,0.004604,-0.036277,-0.028961,0.9989110000000002,0.103291,0.104534,0.34485,0.247827,-0.168024,-0.055399,0.130546,-0.010629,-0.210685,0.18109,-0.224234,-0.020725,0.00887,0.00336,0.036084,0.087196,0.023977,0.07577,0.864945,1.386973,0.240905,-0.101427,0.283285,0.045536,-0.348004,0.697153,-0.895448,0.208273,0.06021
6.944243,-0.311305,0.79339,0.003476,-0.035659,-0.024791,0.9990500000000001,0.071336,0.116137,0.331537,0.309248,-0.181382,-0.05655,0.1245,-0.010233,-0.219394,0.195175,-0.232963,-0.020678,0.012203,0.005421,0.039357,0.094495,0.022511,0.081215,0.853785,1.384007,0.241688,-0.106383,0.278407,0.043577,-0.344733,0.707811,-0.895978,0.214724,0.060085
6.944257,-0.311725,0.794459,0.002269,-0.034707,-0.019273,0.999209,0.03149,0.128142,0.31337,0.384155,-0.187898,-0.055082,0.11599,-0.010846,-0.230904,0.213019,-0.242655,-0.020359,0.016534,0.00832,0.043895,0.102622,0.019824,0.08856,0.838895,1.378412,0.243369,-0.104478,0.269643,0.040242,-0.339309,0.726599,-0.900287,0.22427,0.061655
6.944016,-0.312219,0.794121,0.0011,-0.033799,-0.012176,0.999354,-0.021179,0.141241,0.290818,0.475763,-0.17948,-0.049546,0.106512,-0.012284,-0.245422,0.233427,-0.255264,-0.019712,0.021822,0.01159,0.050171,0.110603,0.016633,0.097904,0.821356,1.368225,0.244549,-0.098016,0.257354,0.03607,-0.33054,0.753011,-0.909755,0.234472,0.065876
6.943737,-0.312729,0.792607,-0.00134,-0.033234,-0.002767,0.999443,-0.092256,0.158241,0.260637,0.597238,-0.158191,-0.044314,0.095431,-0.012806,-0.264424,0.26048,-0.273646,-0.018987,0.027579,0.015717,0.058358,0.117644,0.016496,0.106398,0.803004,1.357003,0.244174,-0.091849,0.242446,0.032217,-0.316121,0.784554,-0.925712,0.244088,0.075143
6.943791,-0.313263,0.789561,-0.005202,-0.032956,0.010521,0.999388,-0.174792,0.176137,0.225207,0.733396,-0.12865,-0.038854,0.084983,-0.012484,-0.290682,0.29172,-0.296787,-0.01772,0.032955,0.021629,0.067426,0.122253,0.020447,0.110247,0.785511,1.349065,0.243654,-0.089456,0.228253,0.028961,-0.297521,0.814614,-0.946446,0.248999,0.088747
6.944511,-0.313953,0.785555,-0.009309,-0.032989,0.027457,0.999035,-0.251375,0.195057,0.20132,0.854755,-0.107381,-0.037084,0.081687,-0.011616,-0.324079,0.314132,-0.317773,-0.015864,0.037141,0.029587,0.07539,0.125739,0.023874,0.110848,0.769799,1.342252,0.242859,-0.087359,0.217451,0.024747,-0.278137,0.836566,-0.968929,0.249248,0.103954
6.94644,-0.314712,0.782838,-0.013859,-0.03302,0.046364,0.998283,-0.309349,0.222417,0.205294,0.937437,-0.12836,-0.026481,0.086803,-0.008487,-0.361619,0.323732,-0.333725,-0.013456,0.039453,0.038965,0.081194,0.129698,0.024671,0.110981,0.756091,1.334906,0.24149,-0.08107,0.209051,0.019483,-0.262704,0.847628,-0.987429,0.244112,0.114022
6.949378,-0.315486,0.780765,-0.016676,-0.033346,0.065461,0.997158,-0.334753,0.267,0.259496,0.956079,-0.174769,-0.005607,0.099891,-0.005658,-0.399174,0.319521,-0.340844,-0.010951,0.040153,0.04747,0.084353,0.135082,0.019063,0.115368,0.749394,1.322957,0.243252,-0.074119,0.202063,0.01347,-0.257355,0.851206,-0.9964940000000002,0.238501,0.112589
6.953091,-0.316047,0.779569,-0.018959,-0.032932,0.084561,0.995693,-0.318844,0.333388,0.385587,0.911589,-0.212493,0.032956,0.111942,-0.003558,-0.436233,0.315495,-0.34647,-0.008225,0.039379,0.055074,0.084441,0.141334,0.010745,0.121189,0.752466,1.312638,0.250803,-0.072337,0.195557,0.010378,-0.263716,0.851708,-0.997905,0.243228,0.096284
6.957398,-0.316273,0.779297,-0.021517,-0.032084,0.104396,0.993785,-0.26282,0.390514,0.565574,0.813659,-0.224906,0.062248,0.121822,-0.002212,-0.474728,0.316337,-0.352964,-0.004705,0.036588,0.062056,0.081641,0.148134,0.003717,0.126401,0.760363,1.306221,0.257325,-0.068647,0.188774,0.01207,-0.275609,0.849619,-0.991941,0.250263,0.077611
6.962025,-0.316043,0.780235,-0.023794,-0.030366,0.12687,0.991169,-0.182124,0.411518,0.777386,0.675817,-0.201982,0.070548,0.128221,-0.004497,-0.5173,0.324269,-0.360046,-0.000227,0.031589,0.067988,0.076684,0.154025,-0.000881,0.128589,0.770714,1.306262,0.260864,-0.059151,0.182955,0.014483,-0.28643,0.842407,-0.981557,0.251562,0.067018
6.966957,-0.315925,0.781353,-0.020432,-0.02869,0.148597,0.98827,-0.115573,0.384391,0.928785,0.564697,-0.205869,0.113051,0.137101,-0.016925,-0.556845,0.331288,-0.365195,0.00625,0.029947,0.068154,0.0729,0.158062,-0.008104,0.130072,0.783745,1.308625,0.263124,-0.044269,0.179124,0.012009,-0.293854,0.828967,-0.969199,0.245501,0.064802
6.972029,-0.315233,0.78173,-0.01564,-0.030848,0.167443,0.985275,-0.105648,0.348018,0.900894,0.530111,-0.211438,0.112802,0.145522,-0.036859,-0.589722,0.362504,-0.372206,0.013146,0.038359,0.061213,0.074351,0.159066,-0.012741,0.135291,0.798469,1.308465,0.265433,-0.028228,0.181201,0.010154,-0.298505,0.811904,-0.95528,0.235763,0.06149
6.977731,-0.314454,0.784568,-0.008029,-0.034119,0.193241,0.980525,-0.10156,0.310224,0.85186,0.512425,-0.199696,0.090531,0.15029,-0.069993,-0.630334,0.423664,-0.360527,0.020017,0.045443,0.050827,0.078188,0.154176,-0.016421,0.138077,0.820008,1.312776,0.270633,-0.015229,0.190301,0.010545,-0.308457,0.792003,-0.937682,0.232041,0.044362
6.983303,-0.313519,0.785456,0.001801,-0.037268,0.222471,0.974225,-0.099948,0.272675,0.803899,0.508238,-0.196983,0.086068,0.138942,-0.121654,-0.666638,0.520431,-0.320809,0.019225,0.048933,0.03876,0.082481,0.146018,-0.018569,0.139475,0.84211,1.321138,0.276657,-0.006635,0.200915,0.012591,-0.31832,0.776136,-0.920438,0.234819,0.025092
6.988643,-0.312511,0.785784,0.013758,-0.038024,0.253535,0.966481,-0.098923,0.223423,0.753563,0.49302,-0.192197,0.089368,0.106738,-0.19353,-0.688435,0.654865,-0.25322,0.013254,0.050445,0.027116,0.085643,0.136454,-0.021311,0.135544,0.857258,1.333518,0.275757,-0.006845,0.210099,0.010041,-0.324036,0.765027,-0.90743,0.238971,0.015748
6.994106,-0.311451,0.784122,0.027249,-0.03761,0.287966,0.956514,-0.100923,0.169228,0.695847,0.481707,-0.190019,0.093435,0.054014,-0.278535,-0.677998,0.823966,-0.176125,-0.009727,0.049256,0.013887,0.088948,0.127904,-0.022075,0.126829,0.860402,1.344096,0.25673,-0.019878,0.217001,0.002077,-0.326266,0.7586,-0.895647,0.2386,0.02267
7.000483,-0.310693,0.781203,0.040393,-0.037083,0.325841,0.943833,-0.104441,0.116348,0.6286,0.476749,-0.19042,0.096104,-0.017049,-0.357025,-0.627782,1.002382,-0.11263,-0.03743,0.045482,-0.001602,0.093254,0.119443,-0.016935,0.116628,0.853555,1.352501,0.227599,-0.04081,0.224176,-0.007756,-0.323186,0.753883,-0.889915,0.237974,0.032979
7.007777,-0.310512,0.777642,0.051531,-0.037268,0.366176,0.92837,-0.109173,0.070545,0.553218,0.480198,-0.194052,0.095702,-0.108544,-0.392788,-0.523111,1.156631,-0.053,-0.041205,0.038659,-0.017092,0.099361,0.109295,-0.007688,0.110908,0.841487,1.354773,0.19899,-0.059243,0.22981,-0.015489,-0.31514,0.753295,-0.889458,0.236647,0.038268
7.015835,-0.310873,0.77491,0.059605,-0.03753,0.406031,0.911141,-0.116136,0.033621,0.475851,0.489006,-0.196405,0.092783,-0.204187,-0.368872,-0.388315,1.258712,-0.053368,-0.008556,0.033471,-0.028764,0.105872,0.097643,0.002863,0.108521,0.828711,1.354086,0.180166,-0.067465,0.231761,-0.019855,-0.307512,0.760191,-0.892097,0.237061,0.036679
7.024612,-0.31162,0.773633,0.063922,-0.037655,0.444387,0.892758,-0.123795,0.004794,0.398449,0.495478,-0.194333,0.087411,-0.281007,-0.29879,-0.247466,1.307498,-0.087781,0.022621,0.033378,-0.035499,0.11076,0.084471,0.015291,0.101666,0.817319,1.362082,0.174668,-0.057653,0.231337,-0.020774,-0.299749,0.773146,-0.897917,0.243792,0.035701
7.034158,-0.312596,0.773857,0.065967,-0.037868,0.481844,0.872949,-0.127524,-0.019901,0.320621,0.492207,-0.185221,0.07954,-0.318478,-0.222309,-0.120802,1.305581,-0.107947,0.04056,0.036567,-0.039108,0.113217,0.071927,0.023823,0.097628,0.809557,1.370886,0.182065,-0.038973,0.231381,-0.018954,-0.292008,0.785147,-0.905645,0.252018,0.039806
7.044351,-0.313885,0.775017,0.066423,-0.037776,0.520594,0.850378,-0.131737,-0.042569,0.237862,0.485312,-0.171155,0.069708,-0.320559,-0.15497,-0.005975,1.257867,-0.127865,0.056423,0.039035,-0.041823,0.114243,0.057294,0.027905,0.099378,0.804383,1.368434,0.191981,-0.031337,0.232797,-0.014839,-0.287183,0.790124,-0.90868,0.252999,0.043618
7.05499,-0.31538,0.776516,0.065885,-0.036425,0.562481,0.823376,-0.141192,-0.067468,0.146132,0.481298,-0.155084,0.05757,-0.296854,-0.092389,0.110196,1.177153,-0.159527,0.059219,0.038659,-0.044414,0.114073,0.038072,0.031089,0.100618,0.802553,1.35775,0.20272,-0.037443,0.238477,-0.008908,-0.287901,0.785555,-0.904468,0.24775,0.043714
7.065697,-0.316768,0.778369,0.064628,-0.034472,0.606706,0.791545,-0.150564,-0.096671,0.045857,0.474868,-0.137215,0.043637,-0.250586,-0.039649,0.228839,1.069142,-0.172461,0.0511,0.03521,-0.046602,0.112886,0.016287,0.037668,0.092627,0.801608,1.3475,0.207711,-0.051139,0.24841,1.0000000000000002e-06,-0.295992,0.772747,-0.891947,0.241216,0.037123
7.076197,-0.318025,0.780305,0.063938,-0.031781,0.651299,0.755455,-0.157924,-0.131663,-0.059615,0.467785,-0.119059,0.02905,-0.184089,0.00555,0.359605,0.944362,-0.170528,0.030379,0.030161,-0.048584,0.111468,-0.007363,0.049165,0.073247,0.80376,1.344977,0.206001,-0.064869,0.261988,0.009713,-0.30803,0.754937,-0.872926,0.233524,0.023936
7.086318,-0.319399,0.781618,0.063005,-0.028334,0.695358,0.715336,-0.165562,-0.170766,-0.168437,0.463041,-0.102258,0.01125,-0.098385,0.053875,0.51907,0.830546,-0.179487,0.03704,0.024825,-0.04951,0.10957,-0.033923,0.064014,0.047944,0.808063,1.346157,0.201618,-0.076149,0.276895,0.017919,-0.319401,0.738178,-0.850493,0.224153,0.009944
7.095889,-0.321985,0.782339,0.063089,-0.02273,0.735435,0.674268,-0.178728,-0.215041,-0.270572,0.467942,-0.089748,-0.013722,-0.018563,0.065355,0.62412,0.742236,-0.225504,0.057926,0.024502,-0.04879,0.108566,-0.061059,0.077156,0.02047,0.810473,1.349455,0.194284,-0.079959,0.287774,0.016353,-0.323413,0.728127,-0.834377,0.219518,0.001647
7.105283,-0.32528,0.781723,0.061769,-0.016685,0.7689,0.636159,-0.19328,-0.25446,-0.361154,0.468549,-0.076426,-0.052922,0.025774,0.031978,0.59851,0.657455,-0.278154,0.064718,0.032856,-0.04659,0.109281,-0.084494,0.090498,-0.00219,0.807809,1.35496,0.193027,-0.073972,0.290519,0.004785,-0.314432,0.727357,-0.832238,0.219594,0.002411
7.115349,-0.329287,0.780693,0.058729,-0.012116,0.796804,0.601255,-0.207658,-0.283521,-0.443659,0.465925,-0.064663,-0.102665,0.042352,-0.010042,0.484854,0.592003,-0.311309,0.058331,0.045507,-0.043388,0.111437,-0.097355,0.100393,-0.003293,0.797346,1.343461,0.202646,-0.063392,0.284467,-0.013612,-0.29524,0.739921,-0.844589,0.22323,0.013072
7.126504,-0.333606,0.779969,0.054183,-0.008412,0.820765,0.568629,-0.217275,-0.300033,-0.520578,0.448805,-0.05216,-0.15983,0.05232,-0.037597,0.368932,0.538769,-0.33114,0.050786,0.05646,-0.040187,0.1147,-0.09518,0.106539,0.015772,0.775256,1.315424,0.210432,-0.041149,0.267893,-0.036791,-0.269308,0.759964,-0.869084,0.229496,0.027325
7.138374,-0.338202,0.779413,0.049252,-0.004928,0.842914,0.535766,-0.224306,-0.308422,-0.591065,0.419556,-0.038701,-0.214247,0.061917,-0.050126,0.280826,0.492246,-0.343133,0.044187,0.063755,-0.036696,0.118975,-0.079365,0.105437,0.04976,0.746581,1.271469,0.227469,-0.014499,0.247346,-0.062026,-0.244376,0.779915,-0.898125,0.236501,0.046094
7.150512,-0.343394,0.778707,0.043789,-0.000935,0.862956,0.503377,-0.236259,-0.310617,-0.642682,0.384692,-0.03128,-0.240524,0.067317,-0.059479,0.202688,0.448137,-0.354416,0.039336,0.068029,-0.03219,0.124137,-0.057038,0.100595,0.086105,0.715869,1.214047,0.239303,0.00903,0.223632,-0.08724,-0.227256,0.792401,-0.923872,0.24296,0.06342
7.162349,-0.349382,0.779852,0.037915,0.003928,0.880915,0.471736,-0.260339,-0.304086,-0.660132,0.343079,-0.034731,-0.243931,0.066391,-0.069285,0.129179,0.407714,-0.361061,0.038552,0.069147,-0.026174,0.129762,-0.032301,0.096058,0.121009,0.689415,1.144617,0.24461,0.029044,0.200439,-0.112306,-0.220389,0.791128,-0.94075,0.239319,0.071732
7.173614,-0.355533,0.783937,0.031875,0.007904,0.896841,0.441133,-0.294097,-0.280591,-0.629005,0.306599,-0.052257,-0.240136,0.066035,-0.077219,0.060411,0.367865,-0.357449,0.038866,0.066538,-0.018108,0.135423,-0.005286,0.100592,0.14122,0.67649,1.087786,0.250852,0.037242,0.181151,-0.132708,-0.228121,0.777405,-0.942776,0.232713,0.069526
7.184437,-0.361261,0.786388,0.025833,0.008566,0.911527,0.410339,-0.338794,-0.224656,-0.507663,0.281815,-0.087936,-0.212644,0.072319,-0.078303,-0.00762,0.320237,-0.335868,0.037387,0.059222,-0.006868,0.14068,0.020485,0.109513,0.156279,0.680298,1.042997,0.266617,0.043447,0.16565,-0.146563,-0.244782,0.756437,-0.933784,0.225756,0.049452
7.194633,-0.366458,0.788041,0.019149,0.00699,0.924623,0.380339,-0.39231,-0.133948,-0.290855,0.278205,-0.142577,-0.149692,0.08012,-0.07313,-0.073446,0.270127,-0.307415,0.035282,0.048822,0.006384,0.144079,0.044875,0.120942,0.162467,0.704548,1.020509,0.296297,0.049362,0.15166,-0.152493,-0.268769,0.732732,-0.912663,0.221714,0.017458
7.204053,-0.371083,0.788736,0.012713,0.004459,0.9353300000000001,0.35352,-0.429889,-0.007805,0.001501,0.287706,-0.202445,-0.108066,0.077133,-0.065272,-0.130628,0.242058,-0.286821,0.03245,0.037914,0.019035,0.145286,0.073406,0.133528,0.159786,0.74069,1.016472,0.341885,0.047213,0.134386,-0.145243,-0.29068,0.711457,-0.882405,0.226155,-0.017914
7.21237,-0.375007,0.78832,0.006588,0.000658,0.943132,0.332353,-0.440468,0.13204,0.298535,0.329676,-0.228693,-0.086829,0.0575,-0.056942,-0.175787,0.250174,-0.283029,0.028652,0.029996,0.030002,0.14468,0.100273,0.148902,0.145208,0.791212,1.036113,0.388411,0.026206,0.123282,-0.144651,-0.315901,0.689,-0.848219,0.218179,-0.034813
7.219077,-0.377995,0.787346,0.001866,-0.003896,0.948402,0.317041,-0.423767,0.257724,0.523271,0.401746,-0.231659,-0.030379,0.037782,-0.048773,-0.209631,0.26819,-0.285157,0.024225,0.025866,0.037448,0.142245,0.135771,0.15972,0.121814,0.837432,1.063327,0.430179,-0.011932,0.108632,-0.138516,-0.33121,0.679297,-0.826568,0.210002,-0.048682
7.22375,-0.3802,0.786229,0.000248,-0.007907,0.952829,0.303404,-0.400172,0.34527,0.634672,0.495207,-0.244518,-0.001879,0.028138,-0.044979,-0.238688,0.285902,-0.292034,0.021848,0.025875,0.040047,0.138675,0.177789,0.172284,0.083021,0.877203,1.108334,0.457454,-0.061441,0.097306,-0.130112,-0.33933,0.67543,-0.811265,0.204719,-0.056046
7.226526,-0.382135,0.785403,0.001354,-0.010452,0.9572290000000001,0.28914,-0.385685,0.38895,0.636889,0.594403,-0.250708,-0.001718,0.029315,-0.04756,-0.267327,0.298016,-0.299889,0.022798,0.029456,0.038781,0.134555,0.220887,0.183111,0.035093,0.903411,1.160831,0.455862,-0.113727,0.09335,-0.122122,-0.339551,0.67337,-0.805383,0.198284,-0.057531
7.227872,-0.384384,0.785139,0.002463,-0.010892,0.962152,0.272286,-0.370766,0.399259,0.598237,0.670716,-0.248218,-0.017732,0.034438,-0.057011,-0.300116,0.304107,-0.305318,0.027319,0.032735,0.037111,0.128312,0.260174,0.1918,-0.010679,0.916461,1.212886,0.424403,-0.155801,0.096724,-0.114463,-0.336254,0.670407,-0.804011,0.18923,-0.056996
7.228208,-0.387143,0.785434,0.002389,-0.010052,0.967732,0.251769,-0.345419,0.39023,0.560016,0.712031,-0.237657,-0.016721,0.040187,-0.070928,-0.339453,0.306575,-0.308547,0.034339,0.035032,0.036517,0.119392,0.293566,0.196166,-0.044996,0.921575,1.262024,0.382429,-0.178527,0.108099,-0.101273,-0.338698,0.666722,-0.795434,0.182028,-0.063865
7.227771,-0.390521,0.786419,0.00062,-0.008252,0.973502,0.228529,-0.306788,0.369938,0.533546,0.714217,-0.197044,-0.01755,0.044387,-0.088012,-0.383789,0.306946,-0.309191,0.043214,0.038672,0.037286,0.108721,0.317423,0.187751,-0.050016,0.9173500000000001,1.288266,0.342569,-0.197316,0.126066,-0.083116,-0.344325,0.665215,-0.779874,0.174427,-0.070867
7.226508,-0.394575,0.787971,-0.003106,-0.006314,0.978632,0.2055,-0.260323,0.337593,0.512074,0.677224,-0.133319,-0.039974,0.045125,-0.106663,-0.427719,0.308243,-0.308152,0.053788,0.044792,0.039552,0.097882,0.335858,0.166845,-0.028561,0.902843,1.295498,0.31675,-0.214225,0.143734,-0.064003,-0.346301,0.671629,-0.766926,0.169996,-0.076016
7.224334,-0.398885,0.788422,-0.005654,-0.00254,0.982246,0.187494,-0.22503,0.2605,0.429535,0.592529,-0.164776,-0.054271,0.052432,-0.127001,-0.464198,0.298744,-0.301421,0.06554,0.054764,0.040226,0.088705,0.354343,0.131469,0.018058,0.881451,1.280453,0.299833,-0.230225,0.1534,-0.04914,-0.3404,0.693252,-0.764235,0.18237,-0.072379
7.221129,-0.40316,0.788839,-0.007528,0.00517,0.985605,0.168819,-0.175939,0.186571,0.392258,0.46075,-0.173926,-0.046032,0.070125,-0.151263,-0.502351,0.270523,-0.283483,0.078533,0.061254,0.037365,0.080094,0.371919,0.086065,0.068919,0.854622,1.26196,0.286163,-0.239035,0.152106,-0.044139,-0.323434,0.728184,-0.779708,0.20682,-0.058123
7.217161,-0.407569,0.791551,-0.008452,0.013824,0.988462,0.150601,-0.131117,0.125833,0.37846,0.344502,-0.136701,-0.033558,0.090894,-0.177009,-0.540067,0.241464,-0.261759,0.092353,0.065669,0.029546,0.074384,0.387177,0.03889,0.119773,0.823675,1.243681,0.27809,-0.227886,0.141873,-0.045168,-0.290348,0.772834,-0.819742,0.240633,-0.023757
7.213013,-0.412324,0.793469,-0.007792,0.021963,0.990932,0.132329,-0.096735,0.073637,0.360345,0.259807,-0.096518,-0.020734,0.108523,-0.206577,-0.575941,0.230994,-0.247336,0.106917,0.070515,0.018272,0.072521,0.396246,-0.001179,0.158512,0.79995,1.234044,0.270933,-0.212672,0.129919,-0.04557,-0.247892,0.814877,-0.873672,0.273629,0.02514
7.208836,-0.417138,0.794208,-0.007692,0.028654,0.993044,0.113941,-0.075227,0.030807,0.334769,0.204245,-0.072331,-0.008753,0.120274,-0.235886,-0.609089,0.235847,-0.239952,0.120605,0.075509,0.006042,0.072186,0.396673,-0.031589,0.187036,0.777784,1.229846,0.262214,-0.19745,0.121732,-0.039625,-0.207467,0.840148,-0.925517,0.280788,0.075454
7.204543,-0.422048,0.794219,-0.007635,0.034159,0.994703,0.09665000000000001,-0.063624,-0.003956,0.307233,0.174966,-0.061627,0.00169,0.12871,-0.264296,-0.635542,0.25037,-0.236731,0.133587,0.079312,-0.005245,0.072661,0.393293,-0.050345,0.199589,0.757245,1.239621,0.25013,-0.187286,0.120048,-0.031467,-0.170774,0.844077,-0.970334,0.265257,0.117233
7.200083,-0.42713,0.79395,-0.006816,0.039118,0.9959730000000001,0.080386,-0.059043,-0.033748,0.280717,0.168486,-0.062653,0.012037,0.135638,-0.295266,-0.659709,0.275724,-0.236534,0.148254,0.082406,-0.014919,0.074182,0.388795,-0.062985,0.203805,0.736651,1.257111,0.239029,-0.180673,0.124918,-0.022986,-0.151104,0.828825,-0.9976680000000001,0.237876,0.139629
7.195269,-0.432098,0.794849,-0.005227,0.042682,0.996914,0.065684,-0.059076,-0.057289,0.256869,0.180244,-0.073378,0.022017,0.139169,-0.327034,-0.676446,0.315869,-0.229554,0.158412,0.084312,-0.023493,0.077086,0.382582,-0.075186,0.211383,0.717863,1.26937,0.232009,-0.169981,0.132609,-0.010533,-0.155795,0.801521,-0.996601,0.212689,0.143905
7.19047,-0.43698,0.794798,-0.002317,0.044585,0.99759,0.053121,-0.062014,-0.074634,0.235849,0.207012,-0.092955,0.031141,0.132213,-0.360807,-0.678558,0.377205,-0.214905,0.158362,0.084267,-0.031522,0.082172,0.375842,-0.087381,0.220813,0.704963,1.27624,0.228581,-0.15806,0.140269,0.001884,-0.171665,0.770879,-0.978866,0.195908,0.133302
7.185622,-0.441613,0.794322,0.001806,0.046215,0.998005,0.042985,-0.065819,-0.088906,0.219209,0.243319,-0.119065,0.039479,0.104287,-0.404452,-0.658379,0.479517,-0.188463,0.141849,0.081382,-0.039585,0.08991,0.367623,-0.100787,0.234942,0.699341,1.272843,0.231121,-0.141993,0.143536,0.009597,-0.185762,0.742823,-0.958436,0.187266,0.116831
7.180538,-0.445939,0.79282,0.00672,0.049385,0.99809,0.036515,-0.067635,-0.103801,0.209659,0.281709,-0.148222,0.047178,0.052246,-0.459749,-0.61838,0.617518,-0.144613,0.09009,0.075116,-0.048811,0.099773,0.355803,-0.112652,0.244993,0.70605,1.267853,0.238829,-0.128422,0.141839,0.006478,-0.187971,0.718878,-0.949743,0.182177,0.104512
7.175033,-0.450024,0.789263,0.012058,0.052913,0.998001,0.032394,-0.061798,-0.119028,0.20399,0.309286,-0.174217,0.054559,-0.014211,-0.511849,-0.564107,0.762581,-0.101016,-0.008731,0.066156,-0.060147,0.110423,0.33945,-0.117674,0.245956,0.723007,1.268859,0.247083,-0.120808,0.13716,-0.002291,-0.181413,0.698039,-0.950732,0.181071,0.097068
7.168115,-0.45393,0.785218,0.018642,0.055895,0.997852,0.028622,-0.042362,-0.135005,0.197263,0.318678,-0.193033,0.062081,-0.083077,-0.559435,-0.517152,0.896188,-0.050504,-0.134682,0.05589,-0.073212,0.120803,0.318582,-0.111978,0.235601,0.749245,1.281381,0.257051,-0.122309,0.134165,-0.011883,-0.171372,0.67945,-0.954907,0.180365,0.090512
7.160404,-0.457438,0.781766,0.025967,0.057989,0.997725,0.022517,-0.016317,-0.150226,0.185019,0.319844,-0.207204,0.069047,-0.159207,-0.576744,-0.44938,1.009305,-0.028812,-0.169848,0.042084,-0.085453,0.130811,0.291912,-0.096023,0.211874,0.784211,1.309848,0.266168,-0.132768,0.133593,-0.021098,-0.162878,0.663091,-0.958173,0.180222,0.08573
7.151965,-0.460624,0.779691,0.032889,0.05637,0.99777,0.013974,0.012431,-0.15848,0.166415,0.316294,-0.218005,0.074469,-0.247802,-0.534537,-0.351732,1.09881,-0.049164,-0.152887,0.026517,-0.09327,0.139032,0.258573,-0.070338,0.173346,0.822535,1.357264,0.268788,-0.149616,0.137355,-0.023713,-0.165026,0.648618,-0.950406,0.179453,0.075224
7.1429,-0.463484,0.778787,0.03768,0.052255,0.997899,0.006841,0.036878,-0.159534,0.149295,0.315404,-0.230102,0.077648,-0.328832,-0.455437,-0.260777,1.149537,-0.063851,-0.121666,0.014993,-0.09656,0.144102,0.222053,-0.041059,0.125971,0.857104,1.415785,0.267097,-0.171801,0.145849,-0.020943,-0.175655,0.637296,-0.932465,0.177227,0.063326
7.133394,-0.466043,0.778472,0.040127,0.046934,0.998089,0.002308,0.054368,-0.155392,0.137126,0.320302,-0.245039,0.079272,-0.393273,-0.367515,-0.19655,1.155745,-0.061244,-0.075463,0.009324,-0.09623300000000001,0.14577,0.186728,-0.012911,0.076595,0.876306,1.475015,0.252693,-0.189945,0.158412,-0.017738,-0.188335,0.629444,-0.9142070000000002,0.178973,0.055586
7.123542,-0.46841,0.778328,0.040224,0.04158,0.998325,-0.000846,0.064879,-0.149435,0.128569,0.330177,-0.262444,0.080896,-0.438808,-0.287121,-0.159505,1.112938,-0.057756,-0.055745,0.007674,-0.093871,0.145187,0.154605,0.007733,0.043023,0.875838,1.515244,0.233563,-0.191463,0.17302,-0.015077,-0.200228,0.624794,-0.897915,0.179409,0.049604
7.113321,-0.470782,0.778343,0.038401,0.036106,0.998604,-0.003376,0.073489,-0.143113,0.121325,0.336457,-0.278339,0.082741,-0.465979,-0.227748,-0.151396,1.025031,-0.053009,-0.039513,0.007712,-0.090688,0.143577,0.126333,0.01834,0.034726,0.861618,1.522696,0.219205,-0.179227,0.188904,-0.011976,-0.210642,0.623437,-0.88279,0.179178,0.045195
7.102678,-0.473177,0.778271,0.034982,0.031357,0.998874,-0.006649,0.082342,-0.138721,0.112696,0.336344,-0.291148,0.084781,-0.47595,-0.188647,-0.169063,0.895779,-0.044646,-0.036682,0.007977,-0.087943,0.141726,0.099398,0.021889,0.048662,0.845417,1.499233,0.204614,-0.154929,0.205997,-0.00765,-0.215407,0.623566,-0.871771,0.184371,0.04137
7.091487,-0.475611,0.777711,0.030518,0.02776,0.999087,-0.011093,0.092964,-0.137188,0.101619,0.32984,-0.301199,0.086856,-0.469629,-0.162138,-0.209241,0.731457,-0.028565,-0.041522,0.008289,-0.086464,0.139802,0.072252,0.022373,0.066672,0.826951,1.460212,0.190541,-0.129221,0.223962,-0.006144,-0.219331,0.630435,-0.865935,0.192909,0.040462
7.0796,-0.478172,0.776402,0.025119,0.025541,0.999228,-0.016151,0.106029,-0.138844,0.089204,0.317099,-0.309193,0.089041,-0.451587,-0.137735,-0.266042,0.542155,0.002694,-0.043828,0.009096000000000002,-0.086312,0.137919,0.044625,0.024497,0.077217,0.811907,1.421177,0.176482,-0.113439,0.243409,-0.004926,-0.221739,0.642487,-0.865215,0.202305,0.041794
7.066966,-0.48099,0.774439,0.01889,0.024145,0.999304,-0.021252,0.121653,-0.142558,0.076806,0.298291,-0.315333,0.091514,-0.435335,-0.101387,-0.312066,0.356663,0.028499,-0.043089,0.010062,-0.086636,0.136216,0.018448,0.029893,0.076768,0.799259,1.390808,0.162161,-0.100934,0.263327,-0.002434,-0.222947,0.65894,-0.866926,0.21028,0.0442
7.05338,-0.484092,0.772062,0.013206,0.02272,0.999348,-0.02476,0.139829,-0.146027,0.067675,0.280474,-0.321552,0.093723,-0.435462,-0.051393,-0.32289,0.217044,0.026343,-0.020038,0.012156,-0.085582,0.135309,-0.001484,0.040024,0.06354,0.790437,1.376515,0.14929,-0.093146,0.283628,-0.000783,-0.219439,0.681575,-0.874114,0.220959,0.048822
7.038745,-0.487256,0.769204,0.008429,0.021865,0.999405,-0.025328,0.157389,-0.14964,0.064424,0.271929,-0.332541,0.095862,-0.459956,-0.001019,-0.301384,0.1579,0.009514,0.027592,0.015941,-0.082908,0.13653,-0.015501,0.049855,0.04701,0.783184,1.370482,0.141205,-0.089523,0.302281,-0.003761,-0.207275,0.707763,-0.888129,0.226335,0.059615
7.022948,-0.490324,0.766391,0.00463,0.020303,0.9994360000000002,-0.026352,0.173219,-0.150548,0.061955,0.274047,-0.345565,0.096189,-0.48068,0.044421,-0.25406,0.134105,0.016071,0.043309,0.018543,-0.079379,0.138803,-0.023121,0.057634,0.032211,0.777649,1.365342,0.136993,-0.08686,0.319971,-0.011744,-0.185901,0.734945,-0.911335,0.224285,0.078143
7.005977,-0.493291,0.764548,0.002911,0.018561,0.999391,-0.029409,0.188867,-0.149342,0.058926,0.287044,-0.354146,0.095612,-0.487863,0.07219,-0.22643,0.143221,0.007065,0.006612,0.018921,-0.075426,0.142055,-0.023794,0.06522,0.01299,0.777436,1.368252,0.136588,-0.086158,0.338407,-0.021077,-0.164582,0.758245,-0.939296,0.219096,0.100452
6.987205,-0.49634,0.76669,0.00308,0.017243,0.999171,-0.036743,0.206821,-0.148213,0.052474,0.313799,-0.354012,0.095434,-0.483119,0.077994,-0.2286,0.181422,-0.003872,-0.015838,0.016135,-0.070445,0.145145,-0.021232,0.068348,-0.005906,0.78228,1.369548,0.139349,-0.084496,0.359095,-0.026296,-0.155155,0.771982,-0.96206,0.21271,0.116246
6.967098,-0.499577,0.766002,0.004804,0.015659,0.998595,-0.050402,0.224169,-0.144283,0.035931,0.344913,-0.339521,0.093099,-0.474255,0.066056,-0.249178,0.238349,-0.004934,-0.072149,0.009548,-0.063655,0.147541,-0.016285,0.069331,-0.024883,0.793235,1.369004,0.143007,-0.082253,0.382935,-0.021543,-0.167186,0.775873,-0.969345,0.211929,0.118557
6.945484,-0.503093,0.762229,0.0073,0.013985,0.997602,-0.067385,0.244679,-0.137543,0.01411,0.377359,-0.300355,0.082217,-0.451903,0.042556,-0.288422,0.274964,0.024076,-0.147427,0.00084,-0.054779,0.148736,-0.007311,0.071798,-0.043958,0.808569,1.373423,0.153882,-0.086024,0.407783,-0.005729,-0.199782,0.772482,-0.956549,0.216735,0.108854
6.923424,-0.506925,0.760428,0.01098,0.01331,0.996528,-0.081447,0.26046,-0.132127,-0.003578,0.425376,-0.24435,0.070133,-0.440213,0.014594,-0.320954,0.340509,0.052208,-0.183796,-0.008754,-0.043366,0.149579,0.012809,0.071878,-0.052164,0.819594,1.373423,0.168752,-0.09181,0.428469,0.010179,-0.235787,0.76873,-0.938163,0.225835,0.094605
6.901777,-0.511077,0.761037,0.015285,0.012225,0.995554,-0.092137,0.254744,-0.126559,-0.01563,0.510538,-0.164122,0.048593,-0.440862,-0.008788,-0.338486,0.425083,0.020059,-0.205582,-0.016911,-0.028912,0.150696,0.045934,0.071264,-0.049903,0.820738,1.36941,0.184634,-0.095809,0.43994,0.023812,-0.268738,0.770931,-0.917618,0.233487,0.081273
6.880536,-0.515396,0.759651,0.018712,0.008905,0.994611,-0.101585,0.217684,-0.119269,-0.030105,0.642337,-0.08012,-0.007154,-0.439628,-0.025561,-0.353707,0.505,-0.041172,-0.2103,-0.022087,-0.012474,0.152083,0.085148,0.071291,-0.038001,0.814405,1.360914,0.205329,-0.101753,0.441858,0.035345,-0.289392,0.778658,-0.9055280000000001,0.240171,0.071488
6.859637,-0.519487,0.758336,0.021877,0.004326,0.99324,-0.113916,0.148897,-0.109794,-0.045145,0.824483,-0.009918,-0.12353,-0.424329,-0.037424,-0.372055,0.558738,-0.102952,-0.201508,-0.02636,0.003567,0.153574,0.123642,0.072124,-0.020318,0.803102,1.345077,0.221704,-0.108769,0.436092,0.043629,-0.293745,0.788566,-0.908226,0.244278,0.063795
6.838624,-0.523529,0.758488,0.02604,0.000927,0.991494,-0.12752,0.065662,-0.095049,-0.052405,1.009936,0.05841,-0.198581,-0.391364,-0.044982,-0.390199,0.582909,-0.151686,-0.19155,-0.030064,0.018284,0.155306,0.159719,0.075087,-0.004041,0.791499,1.327721,0.228023,-0.117245,0.419898,0.046028,-0.286105,0.800886,-0.920056,0.242145,0.060323
6.817766,-0.527861,0.760375,0.030746,-0.002298,0.989994,-0.137699,-0.024582,-0.064064,-0.047811,1.160183,0.087659,-0.15427,-0.34729,-0.045306,-0.406063,0.584859,-0.186921,-0.18162,-0.031045,0.033073,0.157796,0.19391,0.079478,0.008221,0.779587,1.314548,0.232475,-0.122608,0.392477,0.041684,-0.270583,0.814205,-0.940072,0.239472,0.063532
6.797083,-0.532483,0.763357,0.03475,-0.004504,0.989467,-0.140457,-0.114615,-0.010766,-0.027656,1.263722,0.032512,-0.108312,-0.299371,-0.037117,-0.410913,0.571258,-0.211679,-0.171693,-0.027075,0.048125,0.160215,0.226463,0.080905,0.018278,0.77012,1.307433,0.238901,-0.124111,0.351455,0.032287,-0.255273,0.822605,-0.961774,0.236993,0.066253
6.77666,-0.537193,0.766526,0.038584,-0.007666,0.990134,-0.134491,-0.195246,0.05679,0.000209,1.3191,-0.006383,-0.067031,-0.250097,-0.017154,-0.403264,0.546769,-0.228769,-0.163088,-0.016516,0.062097,0.161835,0.260353,0.079335,0.032253,0.762176,1.300727,0.246687,-0.122186,0.299145,0.022571,-0.241578,0.828976,-0.983932,0.237234,0.061596
6.756416,-0.541881,0.769497,0.041577,-0.011305,0.99165,-0.121545,-0.263309,0.12235,0.02963,1.323034,-0.00774,-0.028166,-0.201868,0.009776000000000002,-0.383083,0.516832,-0.241901,-0.155318,-0.000519,0.07436,0.162388,0.299617,0.076317,0.051366,0.750158,1.288551,0.252117,-0.119992,0.240017,0.015042,-0.233949,0.836213,-1.003571,0.231547,0.053311
6.736249,-0.546518,0.772087,0.043566,-0.015051,0.993495,-0.10413,-0.317972,0.181176,0.062911,1.279846,-0.004813,0.006304,-0.155881,0.038157,-0.353158,0.487215,-0.254448,-0.147686,0.018685,0.084912,0.162009,0.331438,0.06136,0.067522,0.740218,1.279132,0.266956,-0.12238,0.164574,0.019262,-0.22319,0.8428,-1.012843,0.233099,0.043982
6.716119,-0.551005,0.77432,0.04443,-0.018111,0.99515,-0.085874,-0.361419,0.226001,0.100618,1.197198,-0.015564,0.028598,-0.113587,0.062274,-0.318305,0.463142,-0.269439,-0.139424,0.039196,0.093656,0.16082,0.356738,0.052374,0.080128,0.733638,1.271183,0.273022,-0.129001,0.093801,0.021425,-0.209552,0.842164,-1.014771,0.225785,0.037251
6.695951,-0.555105,0.776382,0.044134,-0.020791,0.996429,-0.068915,-0.390715,0.256109,0.145457,1.074306,-0.023491,0.067369,-0.073551,0.082308,-0.283237,0.441256,-0.28587,-0.131301,0.058393,0.100833,0.159112,0.371607,0.046958,0.087353,0.734739,1.269147,0.275101,-0.137029,0.028876,0.021438,-0.190837,0.832929,-1.013637,0.209814,0.031578
6.675653,-0.558682,0.778257,0.042754,-0.022412,0.997346,-0.054506,-0.403103,0.267482,0.195897,0.908446,-0.022901,0.078346,-0.03186,0.097273,-0.251576,0.413515,-0.300064,-0.12309,0.074009,0.10605,0.157371,0.379583,0.041967,0.090094,0.736965,1.273006,0.274112,-0.146084,-0.032444,0.023039,-0.167292,0.81712,-1.007777,0.190027,0.024618
6.655112,-0.561662,0.778817,0.041144,-0.023565,0.9978880000000001,-0.044408,-0.402275,0.251298,0.236089,0.706179,0.003184,0.065939,0.014094,0.108221,-0.227455,0.378301,-0.311886,-0.114757,0.085279,0.108974,0.155463,0.380545,0.037607,0.089554,0.739845,1.281788,0.270985,-0.159131,-0.084812,0.024683,-0.140958,0.795749,-0.997317,0.167518,0.015095
6.634295,-0.563886,0.777342,0.038971,-0.023706,0.998158,-0.039994,-0.39509,0.200378,0.237762,0.481531,0.056984,0.027747,0.062855,0.115556,-0.2122,0.336828,-0.321588,-0.107042,0.092496,0.109254,0.153086,0.376021,0.035684,0.085203,0.739965,1.297598,0.266022,-0.170387,-0.125831,0.02586,-0.117156,0.768451,-0.977875,0.143876,0.007987
6.613168,-0.565454,0.77436,0.035371,-0.023848,0.998297,-0.039794,-0.390927,0.130983,0.186669,0.262041,0.117317,-0.044326,0.107674,0.12182,-0.205016,0.298473,-0.331883,-0.100593,0.096163,0.106789,0.15027,0.368386,0.035633,0.081986,0.7324,1.314561,0.256705,-0.177687,-0.154628,0.025879,-0.09431,0.73481,-0.954049,0.116679,-5.3e-05
6.591575,-0.5668,0.770116,0.032837,-0.025267,0.998221,-0.042871,-0.416986,0.073203,0.113221,0.144404,0.101073,-0.109128,0.145467,0.128344,-0.205335,0.281013,-0.352232,-0.095697,0.09676,0.103353,0.149109,0.362375,0.036755,0.085263,0.715049,1.323592,0.243998,-0.183083,-0.171229,0.024433,-0.071334,0.698023,-0.9297470000000002,0.093342,-0.00973
6.569419,-0.568291,0.765148,0.031768,-0.025795,0.99784,-0.051383,-0.442159,0.026497,0.05754,0.10071,0.03095,-0.203424,0.181837,0.131226,-0.215507,0.276222,-0.379853,-0.090649,0.094521,0.100273,0.148308,0.356158,0.036959,0.09157,0.693137,1.324478,0.231019,-0.186422,-0.173611,0.016863,-0.051187,0.661396,-0.907534,0.078757,-0.022505
6.546827,-0.570094,0.759854,0.032042,-0.025737,0.997065,-0.064587,-0.464278,-0.004514,0.053998,0.13889,0.024702,-0.195248,0.215411,0.131434,-0.235258,0.284444,-0.409617,-0.084456,0.090319,0.097348,0.148548,0.348649,0.038194,0.096126,0.670329,1.322965,0.216271,-0.183485,-0.162907,0.005241,-0.035842,0.629708,-0.887166,0.076906,-0.037894
6.52357,-0.572169,0.755305,0.034237,-0.026355,0.996155,-0.076213,-0.469876,-0.017147,0.089151,0.206599,0.089155,-0.147282,0.249598,0.133052,-0.254209,0.299047,-0.426637,-0.078936,0.087744,0.093098,0.148323,0.344217,0.039758,0.106545,0.647289,1.314038,0.202143,-0.174892,-0.143434,-0.005687,-0.017836,0.610048,-0.875394,0.091479,-0.052626
6.499988,-0.574481,0.753583,0.036726,-0.024543,0.996042,-0.077134,-0.472012,-0.020513,0.109111,0.287695,0.106806,-0.067043,0.279957,0.128273,-0.256823,0.31853,-0.421297,-0.077047,0.091314,0.085632,0.148054,0.345982,0.03724,0.12582,0.622365,1.297606,0.19161,-0.163305,-0.124213,-0.014292,0.008271,0.609139,-0.8718,0.113574,-0.051821
6.47519,-0.577233,0.75827,0.038051,-0.021453,0.996883,-0.065691,-0.456508,-0.010375,0.142258,0.335705,0.130919,0.035615,0.305231,0.117247,-0.239757,0.35174,-0.387773,-0.073923,0.09863400000000001,0.075491,0.145861,0.359092,0.028072,0.156071,0.595197,1.274033,0.189315,-0.148978,-0.112425,-0.022266,0.044056,0.63143,-0.879848,0.140935,-0.039115
6.450306,-0.580105,0.759105,0.039059,-0.017101,0.9977450000000002,-0.051832,-0.43187,0.003384,0.181649,0.373793,0.15709,0.123914,0.316122,0.098258,-0.216529,0.403775,-0.331179,-0.067891,0.108148,0.062565,0.14291,0.371546,0.014219,0.188935,0.580385,1.250381,0.19515,-0.132207,-0.098409,-0.027607,0.071401,0.669915,-0.884594,0.173586,-0.020884
6.426283,-0.582768,0.762092,0.041024,-0.010706,0.998289,-0.040276,-0.415997,0.010404,0.20872,0.430755,0.107663,0.14719,0.300861,0.069757,-0.196949,0.502547,-0.243413,-0.062114,0.117051,0.045842,0.142828,0.373994,-0.003063,0.222889,0.591401,1.22492,0.214193,-0.112314,-0.07687,-0.034459,0.085734,0.716085,-0.890689,0.213007,-0.000295
6.403051,-0.58509,0.763909,0.041727,-0.003963,0.998655,-0.030507,-0.399565,0.013313,0.228922,0.480201,0.048377,0.144528,0.246386,0.034688,-0.180567,0.659425,-0.141669,-0.030891,0.121792,0.026763,0.145272,0.359329,-0.019482,0.255924,0.632655,1.197024,0.249403,-0.102113,-0.049147,-0.039808,0.085251,0.762876,-0.895307,0.249897,0.019583
6.380491,-0.587432,0.767561,0.04055,0.001851,0.998943,-0.021547,-0.370302,0.012266,0.247754,0.494266,0.004762,0.140258,0.163577,-0.005747,-0.170573,0.849024,-0.044758,0.02165,0.121617,0.008907,0.146612,0.327995,-0.028218,0.274689,0.69646,1.185274,0.293074,-0.104127,-0.019525,-0.044857,0.074713,0.806345,-0.900283,0.279312,0.03854
6.35828,-0.589704,0.770891,0.039746,0.006462,0.999091,-0.013956,-0.333146,0.00772,0.262415,0.489969,-0.02953,0.135142,0.067526,-0.050033,-0.162221,1.028079,0.054768,0.044872,0.114659,-0.006741,0.147163,0.289589,-0.021482,0.254785,0.770069,1.216946,0.331749,-0.127948,0.011327,-0.052763,0.058874,0.844434,-0.908386,0.302121,0.057996
6.336291,-0.591719,0.774402,0.039409,0.010666,0.999117,-0.009942,-0.290525,-0.002209,0.270305,0.472694,-0.056216,0.129879,-0.027896,-0.095212,-0.158823,1.166766,0.076084,0.036018,0.101375,-0.021031,0.147685,0.250022,0.001915,0.180636,0.834723,1.307868,0.337308,-0.158821,0.044591,-0.064338,0.042273,0.869078,-0.9196510000000001,0.312717,0.07418
6.314372,-0.593529,0.777924,0.03976,0.013753,0.999067,-0.009773,-0.24395,-0.01486,0.270603,0.44826,-0.078622,0.124441,-0.119055,-0.135404,-0.161629,1.262644,0.017821,-0.000201,0.083593,-0.033715,0.148247,0.209475,0.033657,0.077684,0.876467,1.429469,0.300119,-0.174527,0.082046,-0.076223,0.020751,0.875735,-0.923642,0.30751,0.085942
6.292469,-0.595254,0.780995,0.040257,0.016712,0.99897,-0.012616,-0.196464,-0.030063,0.265181,0.421732,-0.098945,0.118988,-0.202688,-0.177118,-0.170638,1.317129,-0.014902,-0.027529,0.062793,-0.043514,0.148135,0.165957,0.05243,0.00452,0.891401,1.51745,0.254576,-0.166854,0.12644,-0.08835,-0.005077,0.866416,-0.922702,0.295762,0.084455
6.270538,-0.596958,0.783338,0.04075,0.019984,0.998806,-0.018099,-0.149899,-0.047269,0.254634,0.396736,-0.118425,0.113544,-0.273782,-0.220214,-0.185559,1.324501,-0.010677,-0.031252,0.040574,-0.050453,0.146592,0.122083,0.056485,-0.02593,0.893664,1.553893,0.21595,-0.146026,0.175884,-0.093525,-0.036535,0.843547,-0.910984,0.287595,0.070513
6.24847,-0.598738,0.78492,0.040797,0.023368,0.998567,-0.025577,-0.104285,-0.065464,0.239901,0.372736,-0.138833,0.110019,-0.333544,-0.251051,-0.202444,1.285652,-0.008015,-0.044683,0.019339,-0.055479,0.143731,0.079889,0.045209,-0.019589,0.88254,1.535507,0.191927,-0.130178,0.229582,-0.096835,-0.076549,0.815663,-0.885761,0.275925,0.052599
6.22624,-0.600492,0.785823,0.039654,0.026745,0.9983320000000001,-0.032332,-0.060928,-0.081904,0.225137,0.350343,-0.160754,0.106832,-0.382852,-0.263792,-0.218383,1.202614,-0.020566,-0.052355,0.001046,-0.059085,0.13975,0.038804,0.029506,-0.000977,0.865305,1.487935,0.17609,-0.118445,0.2817,-0.096367,-0.118265,0.789413,-0.855223,0.265312,0.034977
6.203782,-0.60218,0.78624,0.037725,0.029705,0.998174,-0.036636,-0.017358,-0.095184,0.213048,0.32641,-0.182301,0.102731,-0.417049,-0.260328,-0.232818,1.074373,-0.026777,-0.059555,-0.013537,-0.061597,0.134509,-0.000559,0.01797,0.012523,0.846511,1.433124,0.161563,-0.109818,0.327593,-0.092442,-0.154133,0.769517,-0.829519,0.261525,0.020143
6.181172,-0.603772,0.785912,0.034744,0.032504,0.998117,-0.038702,0.023279,-0.105805,0.204222,0.304974,-0.204481,0.097303,-0.434455,-0.241019,-0.243211,0.897869,-0.01725,-0.06077,-0.024165,-0.063287,0.128609,-0.037021,0.01675,0.006716,0.825906,1.393708,0.147179,-0.098059,0.364558,-0.084439,-0.184915,0.756818,-0.808091,0.262843,0.014051
6.158441,-0.605374,0.784163,0.030356,0.034639,0.998154,-0.039598,0.058486,-0.113901,0.19724,0.288518,-0.228821,0.090777,-0.433562,-0.204241,-0.240244,0.674327,0.002885,-0.039789,-0.031294,-0.064111,0.122094,-0.070428,0.023034,-0.013858,0.802915,1.369596,0.135207,-0.084904,0.392882,-0.074811,-0.207414,0.750565,-0.799809,0.266628,0.009418
6.13547,-0.606989,0.780732,0.025045,0.036143,0.9982430000000002,-0.039726,0.090949,-0.120223,0.191581,0.274289,-0.253322,0.08318,-0.419453,-0.151109,-0.205814,0.427022,0.029348,-0.021353,-0.036848,-0.063921,0.114733,-0.09813,0.034501,-0.041289,0.77728,1.355666,0.128018,-0.071838,0.414638,-0.063264,-0.222943,0.747171,-0.803517,0.270524,0.003926
6.11222,-0.608454,0.776562,0.020199,0.036209,0.9983900000000001,-0.038719,0.123204,-0.122765,0.1878,0.263193,-0.277537,0.075527,-0.407513,-0.100416,-0.155731,0.221914,0.050481,-0.012924,-0.040341,-0.062433,0.10851,-0.11839,0.052945,-0.074466,0.751064,1.351957,0.120534,-0.062749,0.431048,-0.04886,-0.234801,0.745591,-0.812025,0.270271,0.0009140000000000002
6.088633,-0.609258,0.771632,0.017463,0.037406,0.9985830000000001,-0.033594,0.152904,-0.123851,0.191281,0.26912,-0.309778,0.067781,-0.415118,-0.068483,-0.147836,0.126721,0.016328,0.029265,-0.039692,-0.060677,0.105438,-0.127613,0.070445,-0.096759,0.723053,1.340697,0.119193,-0.052829,0.443093,-0.036742,-0.243987,0.742985,-0.824693,0.264737,-0.006498
6.06487,-0.609415,0.767256,0.015938,0.035479,0.998962,-0.0237,0.178474,-0.115255,0.204127,0.289216,-0.336203,0.054793,-0.432547,-0.044793,-0.171802,0.133739,0.006251,0.025005,-0.037536,-0.058339,0.10449,-0.122407,0.089328,-0.102198,0.693161,1.314197,0.11778,-0.047434,0.446187,-0.025937,-0.244417,0.742909,-0.84464,0.257545,-0.015939
6.040554,-0.60903,0.764141,0.015838,0.031572,0.9992470000000001,-0.016055,0.201428,-0.100079,0.216086,0.321743,-0.349152,0.039217,-0.440691,-0.024371,-0.180643,0.188521,0.060713,-0.076214,-0.038613,-0.053386,0.104048,-0.106525,0.108424,-0.102324,0.668838,1.288359,0.118019,-0.046358,0.444074,-0.013925,-0.245545,0.741241,-0.862273,0.248493,-0.028497
6.014853,-0.60838,0.764291,0.018045,0.026421,0.9993820000000002,-0.014561,0.226774,-0.081153,0.220137,0.368436,-0.336688,0.024631,-0.446247,-0.011956,-0.1765,0.276033,0.096028,-0.11262,-0.043511,-0.045454,0.103968,-0.084408,0.120756,-0.099471,0.658779,1.262902,0.127091,-0.048986,0.443603,0.001393,-0.254178,0.734579,-0.874293,0.24523,-0.044631
5.989119,-0.607571,0.764311,0.022569,0.020094,0.999361,-0.019069,0.24149,-0.055422,0.214559,0.43319,-0.289509,0.014744,-0.437108,-0.015307,-0.201237,0.359758,0.101017,-0.130816,-0.04909,-0.035095,0.103892,-0.062155,0.130291,-0.103166,0.666468,1.246106,0.137553,-0.0503,0.447902,0.02431,-0.274688,0.722588,-0.869415,0.242085,-0.059169
5.963764,-0.606798,0.765318,0.027974,0.011703,0.999187,-0.026562,0.230298,-0.017833,0.204764,0.545177,-0.208539,-0.003236,-0.427239,-0.015552,-0.225278,0.443886,0.041021,-0.145439,-0.054756,-0.021943,0.105904,-0.043343,0.138263,-0.107018,0.692502,1.23985,0.157332,-0.05043,0.451898,0.051214,-0.29872,0.711181,-0.853758,0.233443,-0.070461
5.939084,-0.605979,0.764165,0.033551,0.002142,0.998827,-0.034856,0.18468,0.029582,0.193221,0.709624,-0.103133,-0.00921,-0.41028,-0.010019,-0.245543,0.513222,-0.031132,-0.142742,-0.058894,-0.00714,0.109085,-0.027372,0.145626,-0.108395,0.733744,1.248046,0.19215,-0.055185,0.451838,0.074492,-0.315229,0.708179,-0.842228,0.224661,-0.072666
5.91505,-0.605289,0.762959,0.038224,-0.008159,0.998254,-0.044288,0.110326,0.081291,0.172645,0.90522,-0.014308,-0.054795,-0.376823,0.000868,-0.268272,0.542913,-0.085494,-0.139096,-0.06007,0.008348,0.11196,-0.011188,0.149237,-0.104175,0.777204,1.261703,0.227945,-0.066137,0.443329,0.092476,-0.32198,0.712937,-0.836813,0.217191,-0.065355
5.89115,-0.605163,0.763255,0.042396,-0.016075,0.997593,-0.05246,0.023764,0.122747,0.140814,1.084685,0.075901,-0.104026,-0.33184,0.012232,-0.287456,0.546691,-0.126568,-0.13485,-0.056422,0.023807,0.1146,0.006367,0.14603,-0.093607,0.81292,1.273869,0.260764,-0.076098,0.425749,0.098624,-0.316301,0.720203,-0.843399,0.211938,-0.051449
5.867597,-0.605866,0.764786,0.046854,-0.021714,0.997032,-0.0571,-0.061883,0.145377,0.106441,1.218486,0.09841200000000001,-0.096549,-0.283529,0.0236,-0.298459,0.542159,-0.160262,-0.129862,-0.047973,0.03746,0.117651,0.029428,0.136961,-0.075933,0.835163,1.275485,0.285272,-0.082229,0.401067,0.094029,-0.301134,0.727429,-0.859857,0.211992,-0.035186
5.844401,-0.607193,0.767153,0.051577,-0.02386,0.9967990000000002,-0.056226,-0.140478,0.15398,0.085528,1.305055,0.049317,-0.073581,-0.233427,0.034029,-0.297138,0.53146,-0.187322,-0.124546,-0.035469,0.047311,0.12097,0.06163,0.127447,-0.056342,0.845298,1.273189,0.297646,-0.089118,0.371596,0.082412,-0.280964,0.730749,-0.881307,0.211084,-0.019308
5.821691,-0.608888,0.769737,0.05562,-0.024451,0.996851,-0.050957,-0.212123,0.161406,0.07749,1.348301,0.026994,-0.059217,-0.184345,0.044827,-0.286531,0.517,-0.209768,-0.11929,-0.020522,0.053377,0.124073,0.1008,0.11881,-0.033564,0.844188,1.269744,0.303912,-0.095204,0.336543,0.069033,-0.260647,0.731162,-0.900325,0.210082,-0.002892
5.799516,-0.610714,0.772113,0.058856,-0.024587,0.997037,-0.04299,-0.274218,0.175147,0.080411,1.347416,0.021368,-0.054025,-0.136487,0.05619,-0.269585,0.499777,-0.230297,-0.113591,-0.0044,0.056855,0.126519,0.14356,0.108165,-0.004771,0.834549,1.26141,0.306685,-0.09642800000000001,0.299214,0.055706,-0.240287,0.727073,-0.915594,0.205305,0.011127
5.777898,-0.612562,0.774016,0.06095,-0.024924,0.997259,-0.033729,-0.327897,0.192205,0.090328,1.302918,0.010357,-0.044557,-0.092013,0.067223,-0.249288,0.483854,-0.250913,-0.107336,0.01196,0.059228,0.128241,0.185862,0.095546,0.024449,0.820438,1.250733,0.305446,-0.09201,0.261263,0.043855,-0.223414,0.716016,-0.923136,0.197607,0.019654
5.756753,-0.614401,0.775547,0.061285,-0.025566,0.9974980000000001,-0.024256,-0.370676,0.218489,0.113832,1.215014,-0.007189,-0.023723,-0.051315,0.076831,-0.228661,0.468419,-0.271484,-0.100697,0.027659,0.061465,0.128954,0.221525,0.078753,0.0492,0.807275,1.241563,0.308854,-0.087953,0.221464,0.032403,-0.214828,0.704881,-0.924298,0.183317,0.018905
5.736002,-0.616157,0.776893,0.059992,-0.026718,0.9977220000000001,-0.015407,-0.395598,0.25087,0.156351,1.081318,-0.030056,-0.008971,-0.012068,0.085754,-0.208861,0.448968,-0.289869,-0.09366,0.041468,0.063789,0.128259,0.251634,0.067171,0.07244,0.801875,1.232637,0.310035,-0.087278,0.18417,0.023933,-0.211753,0.686673,-0.919944,0.168581,0.014257
5.715611,-0.617704,0.778004,0.0576,-0.02819,0.997914,-0.007452,-0.397307,0.278874,0.219626,0.894762,-0.028416,0.00733,0.027967,0.094613,-0.189752,0.421943,-0.304147,-0.087658,0.052286,0.066316,0.12616,0.271161,0.052499,0.086066,0.806493,1.235845,0.316739,-0.09435,0.143293,0.01319,-0.201615,0.67455,-0.909253,0.156004,0.004659
5.695497,-0.618937,0.778209,0.053862,-0.029559,0.99811,-0.001198,-0.378492,0.284303,0.289398,0.658543,0.009943,0.011589,0.069455,0.103001,-0.172351,0.38481,-0.312814,-0.08161,0.05937,0.068414,0.122607,0.28295,0.042648,0.090995,0.818167,1.25088,0.320841,-0.108719,0.103147,5.2e-05,-0.188011,0.669296,-0.900384,0.149625,-0.003625
5.675484,-0.61994,0.776808,0.049221,-0.03069,0.998306,0.004473,-0.353574,0.253916,0.325362,0.403428,0.077662,-0.012323,0.110938,0.110091,-0.156247,0.343247,-0.317664,-0.075499,0.063847,0.068756,0.118069,0.289122,0.035168,0.093129,0.828948,1.269622,0.320712,-0.125169,0.063893,-0.011816,-0.171559,0.672198,-0.894805,0.149604,-0.008627
5.655541,-0.620694,0.774552,0.045038,-0.030452,0.998474,0.009695,-0.351227,0.200842,0.288283,0.215385,0.112079,-0.038742,0.152015,0.113639,-0.141833,0.30357,-0.31901,-0.070556,0.067746,0.065876,0.114907,0.290436,0.032274,0.091812,0.83599,1.292382,0.316236,-0.140496,0.029357,-0.020244,-0.154687,0.680671,-0.891173,0.150205,-0.009008
5.635378,-0.621866,0.771274,0.043914,-0.030968,0.998507,0.009821,-0.36682,0.154441,0.217962,0.132092,0.082786,-0.115643,0.189448,0.113983,-0.137611,0.288505,-0.333217,-0.06482,0.06914,0.061565,0.11472,0.287205,0.035825,0.087122,0.840207,1.318833,0.305459,-0.152521,0.006961,-0.028462,-0.135962,0.690173,-0.894657,0.152252,-0.007365
5.61525,-0.623504,0.767686,0.044494,-0.029508,0.998573,0.001419,-0.387034,0.120359,0.175779,0.151794,0.087336,-0.083408,0.222821,0.107065,-0.148779,0.290776,-0.351809,-0.058184,0.067608,0.057777,0.118084,0.27297,0.039849,0.079799,0.842466,1.346451,0.294199,-0.153895,-0.000583,-0.039577,-0.123046,0.695248,-0.898758,0.154725,-0.006763
5.594962,-0.625375,0.763982,0.046927,-0.028235,0.998448,-0.010111,-0.401639,0.091106,0.139897,0.219646,0.13416,-0.007108,0.251303,0.09946700000000001,-0.167782,0.310605,-0.366816,-0.053567,0.067305,0.053354,0.123728,0.251896,0.042853,0.078538,0.842187,1.36638,0.289924,-0.147211,0.007978,-0.046782,-0.116292,0.696,-0.895777,0.152593,-0.008944
5.574279,-0.627398,0.760613,0.050248,-0.02649,0.998229,-0.017649,-0.416681,0.061906,0.092651,0.310878,0.148249,0.030427,0.279093,0.091032,-0.181941,0.334325,-0.362326,-0.050711,0.070501,0.047701,0.12946,0.230726,0.040563,0.089576,0.834999,1.371536,0.293669,-0.137963,0.026043,-0.049263,-0.108989,0.698124,-0.890098,0.151075,-0.010585
5.552986,-0.629828,0.763668,0.052223,-0.023647,0.998218,-0.016579,-0.410247,0.050677,0.082242,0.371262,0.165756,0.041256,0.299659,0.07885,-0.182632,0.369837,-0.333235,-0.053725,0.074525,0.041449,0.132192,0.218345,0.029119,0.114813,0.814896,1.35517,0.295945,-0.124878,0.041959,-0.051352,-0.095662,0.708839,-0.887105,0.154844,-0.002119
5.532069,-0.63221,0.767898,0.053657,-0.018577,0.998324,-0.011182,-0.391505,0.047124,0.097253,0.406557,0.146985,0.066865,0.30522,0.059009,-0.175902,0.418326,-0.277665,-0.057253,0.078751,0.033108,0.132859,0.214169,0.011301,0.145359,0.788925,1.324769,0.294277,-0.10886,0.059298,-0.05516,-0.079934,0.724792,-0.889723,0.164776,0.009812
5.511293,-0.634529,0.771551,0.054882,-0.011927,0.998407,-0.00539,-0.363297,0.040421,0.11499,0.427181,0.104056,0.071047,0.29127,0.031562,-0.169736,0.49875,-0.199743,-0.056175,0.082188,0.021077,0.133728,0.212168,-0.009367,0.175989,0.766202,1.28644,0.295254,-0.089999,0.082924,-0.059148,-0.067437,0.740309,-0.903492,0.185291,0.01759
5.491464,-0.636733,0.773878,0.054482,-0.003623,0.998507,-0.001505,-0.335756,0.026953,0.131086,0.436052,0.06713,0.072348,0.237988,-0.006088,-0.168195,0.638519,-0.10645,-0.052537,0.083781,0.005992,0.135804,0.205541,-0.029053,0.199768,0.755008,1.246086,0.293885,-0.07442,0.116541,-0.057922,-0.070451,0.744383,-0.924353,0.213223,0.015089
5.472309,-0.638737,0.776054,0.051682,0.004074,0.998655,0.001207,-0.309983,0.012732,0.145128,0.434498,0.037118,0.072326,0.156305,-0.051171,-0.173577,0.814454,-0.019559,-0.020203,0.082328,-0.009532,0.137237,0.192372,-0.038631,0.212184,0.762597,1.220805,0.287051,-0.06394,0.146261,-0.04831,-0.085973,0.748216,-0.933889,0.244781,-0.000751
5.453408,-0.6404,0.777539,0.049418,0.010689,0.998712,0.004243,-0.282419,0.000264,0.157513,0.430777,0.007535,0.071486,0.057234,-0.099766,-0.17204,0.995024,0.075002,0.017694,0.076208,-0.024588,0.138824,0.165574,-0.039278,0.204067,0.782577,1.222292,0.284789,-0.066292,0.17461,-0.028873,-0.107873,0.751229,-0.929947,0.271618,-0.018036
