hanqing-shi/Humanoids-Motion-Generation/dataset/data_joint/walk/walk2_subject3_seg3.csv
root_x,root_y,root_z,root_qx,root_qy,root_qz,root_qw,left_hip_pitch_joint,left_hip_roll_joint,left_hip_yaw_joint,left_knee_joint,left_ankle_pitch_joint,left_ankle_roll_joint,right_hip_pitch_joint,right_hip_roll_joint,right_hip_yaw_joint,right_knee_joint,right_ankle_pitch_joint,right_ankle_roll_joint,waist_yaw_joint,waist_roll_joint,waist_pitch_joint,left_shoulder_pitch_joint,left_shoulder_roll_joint,left_shoulder_yaw_joint,left_elbow_joint,left_wrist_roll_joint,left_wrist_pitch_joint,left_wrist_yaw_joint,right_shoulder_pitch_joint,right_shoulder_roll_joint,right_shoulder_yaw_joint,right_elbow_joint,right_wrist_roll_joint,right_wrist_pitch_joint,right_wrist_yaw_joint
2.056221,-0.403722,0.724484,-0.007085,-0.059078,-0.106422,0.992539,0.117951,0.200955,0.14327,1.21339,-0.073763,-0.247586,-0.38589,-0.185109,-0.616758,0.795363,-0.349106,-0.247666,-0.135256,-0.023003,0.168869,-0.142697,0.293908,-0.35862,0.102829,0.52621,0.161585,0.175966,0.500428,-0.305225,0.036069,0.6563,-0.785026,0.369533,-0.17727
2.08529,-0.412558,0.725488,-0.011132,-0.061981,-0.101348,0.992856,0.025642,0.25556,0.105195,1.343147,-0.053227,-0.245761,-0.344382,-0.179693,-0.627131,0.82562,-0.400671,-0.24744,-0.142978,-0.013634,0.170821,-0.127476,0.282996,-0.400352,0.16679,0.58079,0.206702,0.184107,0.47555,-0.248186,-0.027097,0.663894,-0.800682,0.393442,-0.183561
2.112676,-0.41928,0.729093,-0.014529,-0.063517,-0.110638,0.991723,-0.065361,0.288547,0.073458,1.417717,-0.115737,-0.204274,-0.301621,-0.154796,-0.616564,0.819235,-0.427797,-0.245684,-0.134764,-0.001609,0.174494,-0.101179,0.281928,-0.443833,0.243305,0.650184,0.231795,0.194465,0.43315,-0.185207,-0.083439,0.657052,-0.798488,0.40235,-0.190493
2.13875,-0.424211,0.735323,-0.016031,-0.06401,-0.125533,0.9898920000000001,-0.161875,0.292183,0.056981,1.43957,-0.165004,-0.114281,-0.255531,-0.127554,-0.592873,0.788274,-0.435487,-0.236412,-0.117666,0.009086,0.178737,-0.057793,0.274064,-0.469143,0.33134,0.698516,0.250297,0.208451,0.384735,-0.146315,-0.077313,0.646289,-0.818765,0.38739,-0.188082
2.163898,-0.427801,0.742787,-0.016453,-0.062698,-0.144013,0.98745,-0.249921,0.28169,0.053536,1.39931,-0.206548,-0.054839,-0.21254,-0.103979,-0.560225,0.749994,-0.430066,-0.218618,-0.097175,0.016297,0.182165,-0.000254,0.250632,-0.452409,0.425437,0.699655,0.279001,0.240901,0.332663,-0.144418,0.001881,0.636016,-0.887812,0.340587,-0.170428
2.188587,-0.430802,0.750486,-0.017684,-0.060107,-0.164803,0.984334,-0.32292,0.27128,0.059797,1.302238,-0.251989,-0.022875,-0.170329,-0.080874,-0.523576,0.706794,-0.419845,-0.196328,-0.076869,0.020648,0.183579,0.062541,0.219415,-0.402527,0.521668,0.658887,0.313324,0.259482,0.281095,-0.160201,0.10006,0.603962,-0.970152,0.273113,-0.169774
2.213285,-0.434127,0.758728,-0.020142,-0.055873,-0.186302,0.980696,-0.379044,0.267522,0.071895,1.158659,-0.26444,-0.016494,-0.128466,-0.056907,-0.485279,0.663434,-0.411669,-0.17208,-0.058237,0.024194,0.182365,0.122894,0.192546,-0.335903,0.617175,0.612535,0.357346,0.272054,0.233575,-0.1701,0.177255,0.551013,-1.018421,0.214832,-0.175802
2.238355,-0.438055,0.763124,-0.024279,-0.050568,-0.207083,0.976714,-0.413615,0.26826,0.084836,0.973176,-0.242701,-0.014647,-0.082183,-0.030952,-0.447495,0.612601,-0.413024,-0.14787,-0.042468,0.028172,0.178243,0.179622,0.17758,-0.281234,0.703756,0.585323,0.400419,0.272545,0.19212,-0.168026,0.214433,0.485478,-0.995555,0.162691,-0.178471
2.263913,-0.442472,0.762962,-0.029619,-0.044188,-0.22835,0.972125,-0.432875,0.255587,0.072065,0.762019,-0.200625,-0.047064,-0.034009,-0.005399,-0.407439,0.559644,-0.428017,-0.123475,-0.029391,0.032295,0.171998,0.237054,0.180578,-0.257673,0.786076,0.587218,0.419285,0.245982,0.157083,-0.164972,0.249359,0.415864,-0.940216,0.121509,-0.178004
2.290058,-0.447505,0.762569,-0.034465,-0.036964,-0.250278,0.9668540000000002,-0.435316,0.237019,0.032986,0.542392,-0.136704,-0.107628,0.014385,0.017594,-0.364157,0.506196,-0.44612,-0.09871,-0.019013,0.03591,0.16327,0.297666,0.196769,-0.259228,0.85684,0.613846,0.411965,0.200131,0.128087,-0.166449,0.285824,0.348037,-0.888121,0.094028,-0.167964
2.315872,-0.45226,0.761175,-0.038344,-0.031029,-0.274035,0.960454,-0.417982,0.223095,-0.00909,0.34953,-0.096257,-0.188816,0.058919,0.031597,-0.316231,0.463264,-0.464083,-0.071793,-0.010876,0.03972,0.154344,0.359224,0.207114,-0.258564,0.90428,0.642907,0.3894,0.168873,0.093724,-0.179404,0.330756,0.289575,-0.856157,0.082972,-0.158985
2.341068,-0.455745,0.759067,-0.0421,-0.025694,-0.298002,0.95329,-0.403758,0.211518,-0.024861,0.259582,-0.107748,-0.244945,0.08872,0.033853,-0.268215,0.446324,-0.479282,-0.041925,-0.005012,0.04469,0.147496,0.416527,0.205019,-0.225249,0.927935,0.647027,0.373006,0.153742,0.059307,-0.196715,0.374532,0.243979,-0.838773,0.07596,-0.161225
2.365303,-0.458212,0.757395,-0.042031,-0.022357,-0.318886,0.946597,-0.40446,0.217277,0.003345,0.300606,-0.065782,-0.243251,0.104976,0.020408,-0.224444,0.452953,-0.493374,-0.014159,-0.000269,0.048684,0.142603,0.459408,0.191201,-0.187102,0.93666,0.648103,0.357019,0.156753,0.031556,-0.222159,0.409019,0.218871,-0.837561,0.084766,-0.164469
2.389584,-0.460356,0.757464,-0.036721,-0.022625,-0.338266,0.940062,-0.389469,0.216579,0.029261,0.334326,0.008503,-0.150847,0.122401,-0.00959,-0.183945,0.462032,-0.494669,0.011197,0.008787,0.049349,0.1379,0.474995,0.172452,-0.166894,0.948173,0.661221,0.350987,0.141223,0.015364,-0.25046,0.430472,0.214718,-0.823744,0.109137,-0.166474
2.414325,-0.461825,0.760261,-0.030275,-0.025609,-0.352733,0.934883,-0.366175,0.200946,0.072234,0.377951,-0.017596,-0.095111,0.135949,-0.050964,-0.156093,0.490763,-0.471816,0.035517,0.018262,0.045888,0.134285,0.469159,0.161415,-0.158315,0.955778,0.686062,0.348363,0.124354,0.020935,-0.27492,0.436287,0.230046,-0.812158,0.144549,-0.165391
2.439303,-0.462941,0.763228,-0.023761,-0.030125,-0.36462,0.930366,-0.338465,0.182301,0.116719,0.419052,-0.076229,-0.077138,0.126811,-0.09885,-0.125804,0.559029,-0.422913,0.05443,0.02843,0.039375,0.132538,0.445314,0.158671,-0.153058,0.9520980000000001,0.717557,0.342579,0.116086,0.039615,-0.2894,0.428478,0.263475,-0.799561,0.186832,-0.167349
2.463095,-0.464013,0.766136,-0.015307,-0.035443,-0.378285,0.924884,-0.299134,0.160362,0.167363,0.433508,-0.119458,-0.058342,0.091018,-0.148869,-0.084773,0.658372,-0.348042,0.078947,0.039706,0.032099,0.132046,0.409163,0.149263,-0.124721,0.929592,0.726895,0.336728,0.121029,0.060901,-0.301104,0.419441,0.31696,-0.793691,0.23475,-0.165221
2.485199,-0.464943,0.767922,-0.005121,-0.040497,-0.398055,0.916453,-0.257661,0.139433,0.227224,0.436084,-0.154098,-0.040453,0.023655,-0.202193,-0.03783,0.787935,-0.265911,0.126161,0.052261,0.023765,0.133142,0.3716,0.135028,-0.086603,0.890541,0.726021,0.325429,0.136156,0.073107,-0.31597,0.419513,0.38219,-0.78904,0.275034,-0.144671
2.50653,-0.466569,0.770953,0.003126,-0.044954,-0.419191,0.906779,-0.208451,0.118916,0.287792,0.419764,-0.181895,-0.026531,-0.055879,-0.258171,-0.008376,0.923791,-0.188611,0.175144,0.064286,0.014142,0.135354,0.335132,0.119059,-0.036366,0.835051,0.708441,0.312812,0.162934,0.08925,-0.334902,0.425991,0.444716,-0.808411,0.303747,-0.118347
2.526104,-0.469272,0.772289,0.009287,-0.049531,-0.437846,0.897637,-0.160775,0.098378,0.339634,0.399623,-0.205563,-0.016747,-0.132286,-0.316487,-0.009256,1.0358,-0.143503,0.158677,0.073105,0.003097,0.138859,0.289552,0.113907,0.003885,0.776562,0.688947,0.299944,0.175272,0.082338,-0.354564,0.443386,0.520805,-0.822741,0.321999,-0.098851
2.54349,-0.473079,0.772804,0.01376,-0.053318,-0.450726,0.890962,-0.123752,0.079279,0.375908,0.38774,-0.226983,-0.010666,-0.197095,-0.366168,-0.032364,1.10876,-0.139524,0.093758,0.075205,-0.009393,0.142887,0.246936,0.120459,0.040961,0.724279,0.670401,0.265656,0.192471,0.089499,-0.365584,0.445469,0.587204,-0.832328,0.338334,-0.094167
2.5591,-0.477663,0.773185,0.016905,-0.055718,-0.45757,0.887265,-0.093769,0.059982,0.397873,0.375772,-0.244005,-0.005367,-0.24817,-0.391943,-0.061494,1.141397,-0.161734,0.036771,0.068888,-0.020695,0.145708,0.181731,0.12763,0.073969,0.678959,0.659419,0.266319,0.202218,0.12307,-0.362754,0.426454,0.637403,-0.841351,0.358166,-0.107664
2.573075,-0.482993,0.773577,0.018733,-0.055864,-0.461515,0.885174,-0.071727,0.045793,0.410884,0.369064,-0.2608,-0.001937,-0.293112,-0.387033,-0.085328,1.138088,-0.174734,0.001374,0.05561,-0.028699,0.146845,0.132373,0.138574,0.086371,0.627149,0.650545,0.248318,0.207989,0.151577,-0.347036,0.373564,0.672502,-0.826945,0.370908,-0.127833
2.585644,-0.488942,0.77392,0.019822,-0.054071,-0.464533,0.883681,-0.057314,0.037906,0.419795,0.370624,-0.279337,-0.001215,-0.333487,-0.358949,-0.10442,1.101578,-0.187208,-0.018991,0.037904,-0.03335,0.147264,0.08694,0.153974,0.079063,0.576348,0.639136,0.228043,0.203337,0.188437,-0.328584,0.306001,0.683252,-0.800405,0.369205,-0.150298
2.59738,-0.495305,0.774265,0.020856,-0.051321,-0.467081,0.882478,-0.045531,0.031954,0.427081,0.373608,-0.298434,-0.001468,-0.366835,-0.335985,-0.139248,1.030989,-0.195077,-0.00913,0.019902,-0.035355,0.14674,0.047871,0.174694,0.054498,0.52506,0.622965,0.204089,0.189201,0.227858,-0.312429,0.243966,0.681526,-0.781097,0.36626,-0.171306
2.608697,-0.502056,0.774612,0.02215,-0.047909,-0.469576,0.881313,-0.032436,0.025302,0.434121,0.371279,-0.316572,-0.001682,-0.382747,-0.324291,-0.20115,0.918713,-0.205678,-0.010076,0.003831,-0.036081,0.144303,0.014748,0.202126,0.016431,0.477595,0.612248,0.183034,0.175866,0.266026,-0.298423,0.201745,0.675925,-0.778116,0.355375,-0.181502
2.619758,-0.509265,0.774712,0.023708,-0.044263,-0.47256,0.879867,-0.015994,0.017339,0.441577,0.361885,-0.332824,-0.002357,-0.384832,-0.316871,-0.283643,0.776281,-0.200847,-0.010526,-0.009886,-0.036131,0.139822,-0.010883,0.230171,-0.023282,0.437009,0.610548,0.176291,0.169574,0.299848,-0.283614,0.17342,0.674411,-0.785332,0.348989,-0.184232
2.630613,-0.516874,0.774243,0.025955,-0.040355,-0.476043,0.878112,0.003792,0.006649,0.449641,0.343752,-0.345761,-0.003046,-0.378625,-0.301383,-0.368301,0.611937,-0.180579,-0.00472,-0.020754,-0.035211,0.133838,-0.030491,0.243939,-0.050235,0.402016,0.593184,0.175823,0.166422,0.32806,-0.267077,0.153325,0.676852,-0.797498,0.34453,-0.183781
2.64108,-0.524913,0.773345,0.027982,-0.035913,-0.479174,0.876538,0.026275,-0.004559,0.456613,0.317464,-0.354119,-0.004304,-0.370641,-0.276321,-0.445219,0.449069,-0.155146,-0.002181,-0.02809,-0.033322,0.127118,-0.04444,0.252541,-0.073852,0.376605,0.585301,0.183703,0.166671,0.351945,-0.247791,0.141161,0.680244,-0.81502,0.338166,-0.175175
2.650913,-0.533507,0.772069,0.029735,-0.03172,-0.482125,0.875023,0.047612,-0.013483,0.462756,0.294918,-0.362292,-0.007129,-0.366166,-0.251223,-0.513555,0.309573,-0.121362,-0.002946,-0.033368,-0.030577,0.120945,-0.051199,0.252211,-0.094495,0.362038,0.583984,0.195589,0.171224,0.369204,-0.226534,0.129102,0.684174,-0.833687,0.338995,-0.170886
2.660123,-0.542779,0.770032,0.033233,-0.029661,-0.487016,0.872256,0.066512,-0.022933,0.473028,0.285394,-0.376337,-0.011708,-0.35965,-0.245936,-0.609128,0.22369,-0.114102,-0.026638,-0.035595,-0.028598,0.115507,-0.048047,0.247869,-0.117886,0.35579,0.597218,0.205537,0.169303,0.381109,-0.207623,0.118701,0.68719,-0.852366,0.339856,-0.166294
2.668809,-0.552487,0.767993,0.036346,-0.027818,-0.494272,0.868102,0.085388,-0.030554,0.487453,0.278388,-0.3908,-0.017262,-0.35657,-0.258879,-0.725764,0.225984,-0.104564,-0.064536,-0.03579,-0.027109,0.111286,-0.035597,0.239941,-0.139604,0.355938,0.616619,0.218145,0.170121,0.383584,-0.19004,0.112805,0.68906,-0.871077,0.338945,-0.162445
2.676994,-0.563201,0.766072,0.03862,-0.027442,-0.499541,0.864994,0.106002,-0.037064,0.497334,0.275647,-0.406583,-0.023776,-0.353812,-0.278443,-0.801081,0.2804,-0.090535,-0.119806,-0.03893,-0.024608,0.108131,-0.014958,0.230563,-0.170416,0.363437,0.641627,0.225188,0.168318,0.382121,-0.17452,0.107789,0.686906,-0.886014,0.335212,-0.163828
2.684516,-0.575498,0.764425,0.038632,-0.028594,-0.498138,0.865765,0.129014,-0.038193,0.494392,0.279065,-0.423749,-0.033353,-0.349452,-0.288066,-0.803504,0.336304,-0.104585,-0.187021,-0.047079,-0.02084,0.105224,0.009934,0.220358,-0.208372,0.381441,0.667381,0.22535,0.15975,0.38336,-0.161777,0.106041,0.681497,-0.901432,0.328616,-0.162221
2.690661,-0.588858,0.764509,0.03562,-0.029216,-0.493382,0.868592,0.154496,-0.030583,0.484333,0.279764,-0.430673,-0.046251,-0.332966,-0.283938,-0.793997,0.354137,-0.129134,-0.234462,-0.054884,-0.016594,0.101631,0.033608,0.21304,-0.248765,0.414645,0.694987,0.235043,0.14058,0.385808,-0.14279,0.099922,0.670803,-0.90532,0.317441,-0.166328
2.69597,-0.602939,0.766456,0.029747,-0.027961,-0.48997,0.870783,0.179191,-0.011894,0.476974,0.281094,-0.423429,-0.062602,-0.300761,-0.26858,-0.808491,0.34491,-0.125296,-0.243294,-0.059297,-0.009482,0.097173,0.058871,0.204552,-0.27831,0.45548,0.71163,0.250487,0.125751,0.384951,-0.124351,0.097789,0.664048,-0.908337,0.308326,-0.166814
2.700973,-0.61789,0.771359,0.02319,-0.026042,-0.489096,0.871533,0.196545,0.014289,0.471465,0.304755,-0.401992,-0.080928,-0.267253,-0.247715,-0.816884,0.33515,-0.128498,-0.234732,-0.061005,0.001663,0.093391,0.090814,0.194434,-0.297146,0.502489,0.719951,0.264912,0.118928,0.374307,-0.113803,0.103256,0.667481,-0.920833,0.310621,-0.161482
2.705364,-0.632894,0.773949,0.015562,-0.023385,-0.490842,0.870796,0.202771,0.048172,0.464345,0.345797,-0.372036,-0.099651,-0.232555,-0.219803,-0.820416,0.321537,-0.132951,-0.215051,-0.060322,0.01474,0.090416,0.126489,0.185331,-0.306014,0.556513,0.721186,0.28637,0.111402,0.354112,-0.105225,0.110846,0.678912,-0.933365,0.315947,-0.149416
2.709189,-0.647506,0.776272,0.006613,-0.020388,-0.492765,0.869898,0.192545,0.091438,0.449482,0.417992,-0.338156,-0.119976,-0.199911,-0.187864,-0.823254,0.308265,-0.141097,-0.201755,-0.058235,0.027773,0.089079,0.160586,0.182542,-0.309257,0.611906,0.71661,0.307681,0.09484600000000001,0.328773,-0.097181,0.116519,0.688657,-0.943372,0.319002,-0.137854
2.712469,-0.661543,0.777392,-0.002159,-0.017909,-0.495356,0.868503,0.166093,0.139673,0.428561,0.520451,-0.296163,-0.143121,-0.17348,-0.160089,-0.823639,0.308294,-0.159632,-0.194283,-0.055166,0.040422,0.089605,0.190881,0.185535,-0.310214,0.663997,0.708847,0.329777,0.069649,0.300791,-0.08874,0.116395,0.691005,-0.945547,0.316097,-0.13625
2.715297,-0.674697,0.776873,-0.010956,-0.014786,-0.499225,0.866277,0.119061,0.192816,0.398343,0.654113,-0.243928,-0.167008,-0.156262,-0.135151,-0.820658,0.322098,-0.185586,-0.189697,-0.050358,0.052835,0.092124,0.218062,0.198193,-0.310823,0.704423,0.707917,0.348149,0.034667,0.266216,-0.079198,0.116722,0.688924,-0.943785,0.31349,-0.138338
2.717938,-0.68717,0.775127,-0.019223,-0.011795,-0.504495,0.86312,0.059262,0.246112,0.360214,0.802025,-0.177259,-0.205428,-0.14219,-0.11091,-0.813187,0.337752,-0.212492,-0.184766,-0.04476,0.064895,0.095927,0.240045,0.215661,-0.312318,0.738437,0.712712,0.365578,0.008988,0.237087,-0.081052,0.117222,0.684485,-0.941184,0.297183,-0.144234
2.721241,-0.699247,0.774843,-0.026986,-0.009634,-0.511763,0.858648,-0.008526,0.289891,0.307226,0.952414,-0.110423,-0.232786,-0.125063,-0.085833,-0.801094,0.345907,-0.234581,-0.178367,-0.038607,0.076365,0.100745,0.253925,0.222143,-0.303661,0.766963,0.717247,0.38718,0.006945,0.201106,-0.082913,0.12091,0.675415,-0.939139,0.284931,-0.145743
2.724942,-0.710811,0.774285,-0.032698,-0.009685,-0.519084,0.854043,-0.079615,0.322444,0.255207,1.084222,-0.034546,-0.245048,-0.099581,-0.061748,-0.788092,0.335823,-0.247146,-0.169205,-0.032145,0.085777,0.105755,0.265323,0.226518,-0.285554,0.791708,0.714605,0.397844,0.014623,0.171484,-0.091813,0.120495,0.654338,-0.938765,0.263794,-0.149256
2.729209,-0.721083,0.773672,-0.037794,-0.009541,-0.52616,0.849492,-0.146489,0.344935,0.208003,1.186144,-0.000359,-0.247235,-0.078321,-0.043007,-0.773874,0.329951,-0.257299,-0.160134,-0.02568,0.09337500000000001,0.110844,0.270363,0.22793,-0.267982,0.814429,0.714392,0.408614,0.021286,0.147628,-0.101929,0.117933,0.629239,-0.939335,0.253769,-0.159071
2.734175,-0.730165,0.77307,-0.042085,-0.0097,-0.534554,0.84403,-0.207189,0.350189,0.149184,1.255047,-0.032489,-0.243889,-0.063121,-0.031383,-0.755157,0.334455,-0.269145,-0.151255,-0.01738,0.099659,0.11606,0.270879,0.228227,-0.248899,0.826661,0.71437,0.413979,0.028661,0.130554,-0.107948,0.108842,0.600809,-0.926498,0.247284,-0.169785
2.739745,-0.73856,0.772931,-0.044062,-0.01062,-0.543508,0.83818,-0.261114,0.350443,0.101851,1.294443,-0.069097,-0.222795,-0.050068,-0.026256,-0.733369,0.339632,-0.280008,-0.141843,-0.008538,0.103927,0.120805,0.26868,0.227148,-0.234706,0.828072,0.715471,0.409296,0.032991,0.120442,-0.116136,0.102196,0.570995,-0.910335,0.244494,-0.178049
2.745873,-0.746461,0.773044,-0.045226,-0.011652,-0.553167,0.83176,-0.309386,0.347486,0.059131,1.305899,-0.077273,-0.200313,-0.038044,-0.023892,-0.709279,0.344526,-0.289971,-0.131616,0.001289,0.106443,0.125063,0.265491,0.224727,-0.219513,0.816034,0.711855,0.399343,0.040221,0.114714,-0.127705,0.104336,0.543238,-0.89659,0.241208,-0.181827
2.752364,-0.754002,0.773143,-0.046034,-0.012399,-0.563869,0.824487,-0.349891,0.338028,0.01711,1.292291,-0.087266,-0.180043,-0.028009,-0.022723,-0.682532,0.350311,-0.299808,-0.120788,0.010952,0.10762,0.129025,0.262428,0.220608,-0.203435,0.793767,0.704499,0.387414,0.05521,0.110834,-0.141857,0.115373,0.519845,-0.884144,0.23706,-0.181592
2.759017,-0.761328,0.772953,-0.047164,-0.012458,-0.574875,0.816786,-0.384838,0.322902,-0.026439,1.261154,-0.118072,-0.155673,-0.020428,-0.021407,-0.654718,0.358811,-0.310664,-0.109807,0.018966,0.108185,0.13272,0.260051,0.214079,-0.18685,0.76485,0.693245,0.372423,0.076165,0.108266,-0.159989,0.13449,0.503416,-0.876794,0.231145,-0.176263
2.765852,-0.768695,0.772393,-0.048715,-0.011592,-0.585624,0.809034,-0.41327,0.310559,-0.06806,1.214182,-0.150221,-0.135927,-0.01463,-0.019649,-0.627184,0.369791,-0.322992,-0.09836,0.024359,0.10876,0.135679,0.257957,0.204879,-0.172226,0.734111,0.680642,0.357596,0.101056,0.1081,-0.177534,0.153126,0.494021,-0.872023,0.230149,-0.169882
2.772935,-0.776207,0.77145,-0.050961,-0.009726,-0.596002,0.801305,-0.432323,0.299986,-0.105401,1.147523,-0.180475,-0.106245,-0.01051,-0.017204,-0.600261,0.383678,-0.336685,-0.08643,0.027366,0.10963,0.13772,0.255598,0.195816,-0.165059,0.704225,0.67089,0.344712,0.124657,0.112438,-0.188253,0.164324,0.490585,-0.866211,0.234228,-0.167387
2.780212,-0.784007,0.770388,-0.053069,-0.007298,-0.606043,0.793626,-0.439361,0.278062,-0.148177,1.059259,-0.214366,-0.096559,-0.006653,-0.014651,-0.573961,0.396493,-0.349784,-0.07406,0.028537,0.110509,0.138747,0.252623,0.189692,-0.170133,0.675526,0.665733,0.332774,0.141037,0.121564,-0.189479,0.163881,0.495175,-0.854725,0.248082,-0.165854
2.787727,-0.792194,0.769218,-0.055194,-0.004076,-0.615916,0.785865,-0.432289,0.241176,-0.206884,0.951298,-0.251249,-0.118137,-0.003512,-0.01182,-0.547968,0.409361,-0.362964,-0.061063,0.027137,0.111124,0.13887,0.250015,0.1871,-0.181904,0.64539,0.659315,0.320505,0.148802,0.134632,-0.186022,0.1597,0.506358,-0.845827,0.262482,-0.169934
2.795387,-0.800857,0.768166,-0.05717,-0.000345,-0.625758,0.777919,-0.410992,0.206111,-0.265998,0.821334,-0.276748,-0.166189,0.000705,-0.008297,-0.522374,0.419058,-0.374976,-0.047711,0.022967,0.111268,0.137988,0.255432,0.191193,-0.195451,0.613092,0.65412,0.302929,0.14756,0.147194,-0.182251,0.15865,0.527319,-0.833037,0.280429,-0.170938
2.803048,-0.809943,0.767596,-0.058663,0.003213,-0.636124,0.769347,-0.376498,0.180319,-0.311282,0.669899,-0.279683,-0.21065,0.008555,-0.004009,-0.496269,0.420884,-0.383792,-0.034157,0.016945,0.11062,0.135786,0.263769,0.194576,-0.209924,0.57567,0.650392,0.288823,0.145605,0.159485,-0.175697,0.163403,0.557719,-0.829521,0.30342,-0.170076
2.810638,-0.818915,0.76776,-0.059495,0.005764,-0.646561,0.760517,-0.335075,0.161685,-0.335594,0.519605,-0.25848,-0.238616,0.020616,-0.000619,-0.470182,0.413842,-0.388154,-0.020701,0.009212,0.108769,0.132826,0.270678,0.196844,-0.2259,0.544982,0.647302,0.281298,0.142565,0.175641,-0.174627,0.170042,0.592778,-0.833008,0.325611,-0.160471
2.817957,-0.826887,0.769353,-0.055173,0.005608,-0.657313,0.751575,-0.29949,0.151443,-0.334322,0.450896,-0.205757,-0.210773,0.034311,-0.005144,-0.44364,0.388546,-0.378069,-0.00872,0.000854,0.104308,0.13027,0.265475,0.191595,-0.242003,0.532022,0.644015,0.275256,0.136598,0.192258,-0.178349,0.178424,0.62289,-0.840974,0.352911,-0.142097
2.827169,-0.834022,0.769518,-0.055723,0.007408,-0.664576,0.745103,-0.297374,0.152194,-0.304694,0.479334,-0.231892,-0.188954,0.034934,-0.014414,-0.42112,0.402052,-0.384242,0.007551,-0.00862,0.100004,0.130975,0.253065,0.194871,-0.255034,0.533512,0.640289,0.274217,0.136109,0.220595,-0.183681,0.170932,0.648835,-0.842526,0.367667,-0.123187
2.83636,-0.840943,0.770456,-0.052477,0.006403,-0.671699,0.738936,-0.287898,0.147358,-0.269723,0.489034,-0.237042,-0.182434,0.038035,-0.031224,-0.398681,0.405043,-0.384039,0.02392,-0.016387,0.093365,0.131804,0.241134,0.193299,-0.26529,0.544696,0.63745,0.278769,0.130985,0.251958,-0.188764,0.156683,0.675473,-0.848959,0.388533,-0.112512
2.846085,-0.847807,0.771798,-0.048743,0.003877,-0.682556,0.729196,-0.270749,0.143363,-0.224899,0.49274,-0.240248,-0.168226,0.041811,-0.05001,-0.368085,0.40267,-0.377547,0.040761,-0.020924,0.085348,0.131631,0.236078,0.189844,-0.263128,0.556425,0.631501,0.286533,0.127982,0.280215,-0.194905,0.146643,0.704703,-0.856977,0.403154,-0.100808
2.856216,-0.854757,0.772821,-0.04474,0.001127,-0.697005,0.715669,-0.24472,0.140829,-0.173253,0.486509,-0.246406,-0.146361,0.042429,-0.069194,-0.328568,0.399941,-0.367343,0.057715,-0.022484,0.076784,0.13036,0.240236,0.186234,-0.251515,0.563905,0.626385,0.294583,0.131096,0.299564,-0.209326,0.1538,0.738044,-0.877258,0.413614,-0.075788
2.866226,-0.86158,0.774791,-0.040443,-0.001329,-0.713131,0.699862,-0.215022,0.139325,-0.119263,0.470584,-0.2544,-0.12849,0.038814,-0.087511,-0.283224,0.398301,-0.354735,0.07378,-0.021757,0.067629,0.128474,0.249587,0.181199,-0.231871,0.570742,0.618128,0.295418,0.143998,0.310787,-0.228718,0.165133,0.763049,-0.898632,0.412866,-0.044753
2.876091,-0.868325,0.777968,-0.036419,-0.003574,-0.730756,0.681657,-0.182055,0.13899,-0.060997,0.44916,-0.261109,-0.114676,0.032551,-0.10386,-0.232431,0.39957,-0.339877,0.088576,-0.020213,0.057923,0.126224,0.261394,0.177622,-0.210026,0.583756,0.610673,0.295435,0.160583,0.316931,-0.249705,0.172095,0.774619,-0.918182,0.397765,-0.023922
2.885495,-0.874565,0.779798,-0.032613,-0.005986,-0.749437,0.661245,-0.148851,0.139046,0.001471,0.42596,-0.267529,-0.103077,0.020644,-0.118579,-0.17754,0.404311,-0.326815,0.102003,-0.019198,0.047881,0.124103,0.27449,0.175746,-0.19172,0.604845,0.60668,0.300533,0.170793,0.320056,-0.265248,0.161857,0.772483,-0.924995,0.38992,-0.011984
2.894411,-0.880357,0.78096,-0.02944,-0.008218,-0.767667,0.64012,-0.117725,0.138735,0.064178,0.404571,-0.274143,-0.092679,0.005035,-0.130612,-0.121791,0.413257,-0.315446,0.114008,-0.019672,0.037286,0.121952,0.283215,0.178691,-0.18344,0.635164,0.609146,0.309554,0.166385,0.320877,-0.274693,0.140995,0.754553,-0.922908,0.382589,-0.016038
2.902908,-0.885776,0.781785,-0.026622,-0.010267,-0.785462,0.618252,-0.087387,0.136857,0.126195,0.382797,-0.280214,-0.08282,-0.01284,-0.140037,-0.065987,0.422892,-0.303993,0.125078,-0.020974,0.026707,0.119225,0.288538,0.186664,-0.183042,0.671574,0.618502,0.320184,0.15155,0.319151,-0.277182,0.116982,0.724235,-0.912225,0.370301,-0.028182
2.910963,-0.890767,0.782382,-0.024109,-0.011911,-0.802967,0.595416,-0.058233,0.13395,0.187671,0.360694,-0.285465,-0.073945,-0.032178,-0.147927,-0.017097,0.431278,-0.29163,0.134908,-0.022241,0.016784,0.115873,0.295225,0.198493,-0.185838,0.705228,0.631048,0.332574,0.130118,0.312236,-0.268408,0.100555,0.694084,-0.89843,0.359001,-0.048921
2.918526,-0.895147,0.782686,-0.021362,-0.012493,-0.819455,0.572609,-0.035731,0.131201,0.246568,0.343713,-0.290963,-0.066168,-0.05395,-0.154442,0.022113,0.438563,-0.279333,0.143334,-0.023283,0.007849,0.112185,0.289013,0.209255,-0.187561,0.744806,0.645622,0.349463,0.108211,0.30867,-0.270429,0.087521,0.647168,-0.884551,0.340568,-0.058931
2.925636,-0.898789,0.78262,-0.018708,-0.012027,-0.834287,0.550882,-0.023254,0.130445,0.300746,0.338993,-0.29938,-0.058553,-0.077684,-0.159824,0.048406,0.445845,-0.268181,0.149227,-0.023852,-0.000396,0.108666,0.282316,0.22225,-0.184735,0.776721,0.659495,0.361693,0.091397,0.30525,-0.267665,0.076785,0.598637,-0.870046,0.318958,-0.067718
2.932241,-0.9018600000000001,0.782434,-0.016758,-0.010998,-0.84792,0.529745,-0.015397,0.132324,0.351948,0.341531,-0.30912,-0.051579,-0.10132,-0.164332,0.061202,0.452294,-0.2557,0.153592,-0.023651,-0.008115,0.105897,0.264831,0.227573,-0.173265,0.805356,0.671825,0.389832,0.086664,0.301072,-0.251273,0.071304,0.560151,-0.859492,0.303763,-0.083715
2.938237,-0.904421,0.782426,-0.015381,-0.009367,-0.860892,0.508469,-0.00795,0.136566,0.402104,0.343834,-0.317806,-0.045827,-0.125376,-0.168411,0.057411,0.457801,-0.238504,0.155449,-0.022367,-0.014769,0.104139,0.245988,0.230703,-0.149336,0.835306,0.681109,0.415965,0.09472100000000001,0.297747,-0.227011,0.070312,0.530948,-0.852673,0.297879,-0.104929
2.943582,-0.906534,0.782682,-0.014919,-0.006958,-0.873809,0.48599,0.001478,0.143912,0.453186,0.343802,-0.324883,-0.041693,-0.1502,-0.172782,0.03117,0.463786,-0.216459,0.152552,-0.019486,-0.020488,0.103086,0.224617,0.232258,-0.124521,0.865057,0.694772,0.438948,0.104513,0.295081,-0.198855,0.079151,0.514093,-0.849355,0.29394,-0.11893
2.948126,-0.908196,0.783082,-0.015057,-0.003913,-0.886101,0.46323,0.012,0.153773,0.503702,0.342033,-0.3301,-0.039466,-0.172431,-0.17555,-0.006699,0.467152,-0.194741,0.145041,-0.01615,-0.025619,0.101933,0.2006,0.23269,-0.100875,0.888186,0.710685,0.458675,0.111058,0.292466,-0.173994,0.101044,0.507644,-0.85542,0.285894,-0.12404
2.951886,-0.909448,0.783445,-0.015454,-0.000744,-0.898006,0.439711,0.023783,0.165027,0.554537,0.339338,-0.334097,-0.039122,-0.191656,-0.175132,-0.042731,0.467491,-0.177095,0.135908,-0.013488,-0.030419,0.100217,0.177735,0.23166,-0.078784,0.896364,0.723848,0.463744,0.111385,0.289755,-0.156212,0.132868,0.508759,-0.869492,0.274179,-0.123111
2.954928,-0.910261,0.783756,-0.015887,0.002623,-0.90884,0.416834,0.034694,0.17771,0.60324,0.33842,-0.338045,-0.040442,-0.210963,-0.167331,-0.058777,0.468735,-0.160779,0.128625,-0.012033,-0.035153,0.098208,0.161978,0.233149,-0.055428,0.89396,0.733011,0.451745,0.119264,0.292026,-0.146205,0.168632,0.510111,-0.893445,0.259018,-0.122971
2.957249,-0.910728,0.784116,-0.016071,0.006016,-0.918594,0.394831,0.044849,0.19086,0.649562,0.338481,-0.341827,-0.043268,-0.231071,-0.152023,-0.050934,0.472198,-0.144786,0.128095,-0.011618,-0.039332,0.096321,0.143256,0.230749,-0.034023,0.876329,0.736383,0.430629,0.130942,0.297169,-0.136272,0.19084,0.511266,-0.913556,0.244592,-0.130076
2.958953,-0.91085,0.784829,-0.016418,0.009726,-0.927401,0.373582,0.054248,0.205533,0.693293,0.340463,-0.345458,-0.046501,-0.251392,-0.129324,-0.022254,0.477817,-0.130075,0.137226,-0.011775,-0.043306,0.094617,0.124982,0.228162,-0.017354,0.850604,0.738795,0.410607,0.145107,0.307086,-0.126087,0.19842,0.513577,-0.928936,0.233811,-0.143731
2.960028,-0.910402,0.787621,-0.016617,0.013525,-0.935205,0.353458,0.061347,0.222022,0.733752,0.346011,-0.348777,-0.050241,-0.272064,-0.110336,0.003974,0.482318,-0.126839,0.175182,-0.011756,-0.047334,0.092707,0.105257,0.22395,-0.005163,0.819436,0.73794,0.389399,0.157403,0.320416,-0.111612,0.185057,0.513622,-0.924031,0.233011,-0.162773
2.960319,-0.909531,0.788381,-0.016172,0.016333,-0.942087,0.33458,0.066539,0.238308,0.771183,0.355437,-0.353417,-0.054801,-0.289007,-0.099037,0.009413,0.488451,-0.134858,0.243575,-0.01074,-0.05093,0.090412,0.083033,0.218524,-0.005005,0.788857,0.739506,0.372156,0.158596,0.334998,-0.105959,0.167735,0.516353,-0.916594,0.235767,-0.174745
2.959983,-0.908364,0.788834,-0.015664,0.019158,-0.948667,0.315307,0.07377,0.254326,0.809684,0.361538,-0.355888,-0.059875,-0.305334,-0.0742,-0.017893,0.494222,-0.141824,0.24754,-0.005457,-0.053051,0.087349,0.051656,0.205416,-0.010619,0.760354,0.738903,0.364349,0.153767,0.353208,-0.104635,0.154258,0.521949,-0.913448,0.248477,-0.179332
2.958977,-0.907087,0.789435,-0.015119,0.023032,-0.9539240000000001,0.298781,0.081075,0.270622,0.843043,0.363521,-0.355925,-0.065458,-0.319581,-0.065268,-0.046614,0.493029,-0.144498,0.247704,-0.000176,-0.053252,0.08415,0.024125,0.196793,-0.027161,0.728704,0.74164,0.356652,0.138253,0.363659,-0.110752,0.137975,0.533029,-0.90767,0.270315,-0.168455
2.957279,-0.905779,0.790238,-0.013745,0.027582,-0.9575920000000001,0.286474,0.08679,0.28455,0.868496,0.359119,-0.3524,-0.070899,-0.329144,-0.09131,-0.091356,0.480504,-0.140882,0.247693,0.001893,-0.052898,0.08103,-0.003373,0.191419,-0.052726,0.692432,0.745768,0.348814,0.111929,0.368521,-0.118423,0.123144,0.5494,-0.902553,0.297012,-0.146058
2.954775,-0.904425,0.790878,-0.012038,0.03082,-0.960014,0.277989,0.091839,0.294597,0.886428,0.353243,-0.347987,-0.076565,-0.331233,-0.137028,-0.151071,0.459779,-0.129569,0.24737,-0.001013,-0.053229,0.078049,-0.026017,0.186061,-0.07901,0.650161,0.747805,0.340798,0.090415,0.37075,-0.126946,0.110926,0.568493,-0.89926,0.322377,-0.114671
2.951367,-0.903117,0.791203,-0.010116,0.032742,-0.96125,0.273541,0.095912,0.301484,0.896703,0.347655,-0.343816,-0.082609,-0.328221,-0.181002,-0.210233,0.434315,-0.119043,0.239922,-0.007855,-0.054079,0.075871,-0.042336,0.184298,-0.106786,0.602886,0.749689,0.32909,0.072556,0.36533,-0.136919,0.102511,0.597304,-0.899908,0.342102,-0.083506
2.94702,-0.901834,0.791108,-0.008093,0.032952,-0.962073,0.270675,0.100649,0.305444,0.903521,0.343384,-0.340452,-0.089167,-0.327647,-0.210923,-0.260357,0.411417,-0.116441,0.202407,-0.015274,-0.05405,0.074346,-0.056438,0.178729,-0.138976,0.559991,0.753889,0.317365,0.068528,0.364459,-0.146977,0.09577,0.622326,-0.906617,0.362006,-0.057787
2.941598,-0.900539,0.790676,-0.006479,0.032433,-0.962857,0.267979,0.107684,0.309778,0.909992,0.34111,-0.338339,-0.097789,-0.328494,-0.230924,-0.293281,0.391049,-0.120736,0.169447,-0.022264,-0.052875,0.07276,-0.065358,0.170274,-0.168089,0.522173,0.752415,0.303844,0.079916,0.363209,-0.156864,0.095767,0.645646,-0.9192380000000001,0.37177,-0.037496
2.935116,-0.899141,0.790012,-0.004851,0.031635,-0.963941,0.264184,0.117041,0.314876,0.9189790000000002,0.339168,-0.336187,-0.108757,-0.330279,-0.247174,-0.32553,0.374832,-0.126708,0.155909,-0.027969,-0.05085,0.07077,-0.067685,0.161709,-0.195011,0.490194,0.747041,0.290904,0.095537,0.359206,-0.163496,0.096609,0.666822,-0.931669,0.374604,-0.020849
2.927516,-0.897529,0.789085,-0.002904,0.030203,-0.965263,0.259513,0.127872,0.319826,0.9297550000000001,0.337364,-0.333124,-0.121573,-0.33037,-0.267027,-0.380685,0.363329,-0.133136,0.145396,-0.031449,-0.04841,0.067961,-0.065064,0.153869,-0.220679,0.466008,0.740433,0.28126,0.116741,0.353654,-0.165899,0.094114,0.683308,-0.943571,0.375985,-0.013101
2.918569,-0.895724,0.787799,-0.001086,0.028157,-0.966564,0.254871,0.141435,0.324758,0.941247,0.335151,-0.330126,-0.136997,-0.324672,-0.28791,-0.45436,0.354481,-0.144568,0.128569,-0.033535,-0.045951,0.064108,-0.058415,0.145133,-0.246924,0.450183,0.72806,0.275836,0.130315,0.348704,-0.161889,0.083124,0.6908,-0.948943,0.3732,-0.020323
2.90827,-0.893711,0.786047,0.001046,0.025074,-0.967806,0.250444,0.156657,0.328146,0.952582,0.332571,-0.327363,-0.154204,-0.314681,-0.306995,-0.536914,0.347784,-0.156703,0.097227,-0.035355,-0.043894,0.059597,-0.048693,0.139866,-0.277069,0.444742,0.718305,0.272995,0.136537,0.343728,-0.151968,0.064283,0.689704,-0.94593,0.369565,-0.031485
2.896442,-0.891334,0.78389,0.003258,0.021356,-0.968847,0.246715,0.173652,0.330964,0.962301,0.328568,-0.322926,-0.173496,-0.299132,-0.319546,-0.614178,0.340844,-0.166462,0.074223,-0.038684,-0.0422,0.054418,-0.03637,0.137362,-0.308386,0.449748,0.708243,0.274079,0.137051,0.3378,-0.138241,0.044558,0.682638,-0.939901,0.365651,-0.044471
2.882932,-0.888462,0.781301,0.004919,0.01711,-0.969334,0.2451,0.193024,0.333602,0.967765,0.321745,-0.315093,-0.194783,-0.279868,-0.321987,-0.672697,0.336393,-0.172969,0.056613,-0.043695,-0.04033,0.04854,-0.023325,0.137853,-0.344708,0.466408,0.700086,0.279164,0.129022,0.332338,-0.122293,0.026298,0.670996,-0.931013,0.35701,-0.05688
2.867574,-0.884965,0.778065,0.005254,0.014225,-0.969103,0.24619,0.215715,0.340121,0.968044,0.309833,-0.301679,-0.217962,-0.265062,-0.308117,-0.680728,0.336115,-0.160115,0.018828,-0.05149,-0.037306,0.042379,-0.009392,0.144081,-0.385094,0.492891,0.694924,0.284406,0.115429,0.327266,-0.106864,0.017117,0.660641,-0.927035,0.344253,-0.071009
2.850979,-0.880372,0.77748,0.003806,0.014948,-0.968644,0.247975,0.241356,0.355699,0.969147,0.292908,-0.279171,-0.239644,-0.246869,-0.280003,-0.671643,0.326922,-0.116621,-0.035189,-0.059788,-0.032897,0.036493,0.004606,0.158611,-0.424672,0.526953,0.692966,0.292425,0.095028,0.319989,-0.089068,0.018844,0.655022,-0.929324,0.327793,-0.084537
2.83335,-0.874801,0.777444,0.001137,0.018156,-0.96827,0.249242,0.261167,0.382935,0.966687,0.288917,-0.252073,-0.247283,-0.226313,-0.249881,-0.673309,0.326996,-0.098367,-0.06958,-0.067203,-0.026139,0.032168,0.021278,0.17543,-0.45632,0.567426,0.696558,0.305487,0.077392,0.307926,-0.072892,0.030584,0.658055,-0.936446,0.312845,-0.092212
2.813942,-0.868498,0.777092,-0.004077,0.021727,-0.967954,0.250154,0.276728,0.42458,0.957698,0.310593,-0.220884,-0.247663,-0.204194,-0.225331,-0.678875,0.358056,-0.131724,-0.063352,-0.075039,-0.016915,0.030407,0.044072,0.185571,-0.471194,0.618524,0.700835,0.327957,0.064359,0.293713,-0.061398,0.043966,0.665447,-0.948108,0.307853,-0.093385
2.794016,-0.861556,0.777071,-0.009622,0.025541,-0.967131,0.252808,0.285276,0.478503,0.93787,0.348949,-0.176627,-0.247674,-0.174357,-0.196165,-0.691211,0.374916,-0.171298,-0.059894,-0.083017,-0.007093,0.029059,0.068402,0.185281,-0.463297,0.671552,0.694487,0.356568,0.054712,0.279354,-0.052244,0.053537,0.666325,-0.958795,0.303493,-0.091981
2.774312,-0.854398,0.776683,-0.015257,0.030778,-0.965923,0.256538,0.287406,0.542342,0.905673,0.397364,-0.12539,-0.24752,-0.140135,-0.159069,-0.708127,0.376223,-0.206286,-0.066344,-0.089269,0.003428,0.027484,0.091555,0.186782,-0.447835,0.718777,0.689369,0.38912,0.036496,0.261432,-0.041378,0.053999,0.658573,-0.959679,0.301644,-0.095112
2.755585,-0.847975,0.776863,-0.020825,0.036189,-0.964855,0.259444,0.281944,0.611743,0.85216,0.458508,-0.073792,-0.243495,-0.107417,-0.121074,-0.722422,0.373969,-0.237025,-0.072473,-0.091587,0.015952,0.026323,0.099874,0.195752,-0.442447,0.768044,0.687883,0.40908,0.013881,0.254892,-0.038907,0.057545,0.648412,-0.952212,0.289048,-0.10533
2.738001,-0.842496,0.775678,-0.026132,0.039564,-0.9643290000000002,0.260424,0.265825,0.668295,0.818237,0.526063,-0.031658,-0.159136,-0.077254,-0.087806,-0.730284,0.370778,-0.264036,-0.077238,-0.092407,0.030586,0.025516,0.111665,0.208509,-0.441703,0.803381,0.69297,0.413031,-0.002562,0.240246,-0.057673,0.076919,0.652649,-0.957506,0.266262,-0.104107
2.721773,-0.838238,0.774026,-0.032088,0.042208,-0.964741,0.257806,0.226325,0.697757,0.751218,0.600543,-0.035765,-0.016732,-0.048801,-0.056961,-0.729054,0.36802,-0.287397,-0.080536,-0.087193,0.046792,0.02598,0.119187,0.213005,-0.429629,0.832065,0.694708,0.419097,-0.007233,0.209428,-0.090485,0.11621,0.668063,-0.980594,0.248936,-0.090105
2.706774,-0.835283,0.772646,-0.039313,0.042483,-0.96732,0.246865,0.148564,0.666884,0.576448,0.685274,-0.083205,-0.012574,-0.020425,-0.029646,-0.711173,0.364947,-0.306825,-0.082047,-0.070694,0.06162,0.029176,0.124596,0.21869,-0.403692,0.849534,0.690767,0.422679,-0.005088,0.170852,-0.138715,0.175034,0.683392,-1.021766,0.226042,-0.074654
2.692693,-0.833365,0.77198,-0.044963,0.039901,-0.9701900000000001,0.234773,0.064162,0.587936,0.383289,0.759388,-0.145774,-0.04576,0.006221,-0.011246,-0.688483,0.3611,-0.322743,-0.081862,-0.054245,0.072837,0.032479,0.129225,0.22394,-0.363777,0.850771,0.679671,0.423419,0.004849,0.129493,-0.191233,0.231796,0.691567,-1.054285,0.200814,-0.064214
2.679312,-0.832237,0.771945,-0.048268,0.035773,-0.972245,0.226119,-0.003426,0.503266,0.250905,0.807384,-0.202194,-0.075982,0.030584,-0.001038,-0.670306,0.356133,-0.335462,-0.079959,-0.043505,0.080287,0.034671,0.136173,0.234481,-0.320772,0.835971,0.666915,0.411701,0.015773,0.093087,-0.24741,0.280211,0.689462,-1.079375,0.174534,-0.061225
2.666409,-0.831545,0.772135,-0.049714,0.031643,-0.973743,0.219891,-0.053211,0.440251,0.193174,0.820871,-0.251553,-0.090019,0.051889,0.005257,-0.656492,0.351589,-0.346394,-0.077142,-0.037244,0.08529,0.036663,0.143442,0.24267,-0.275638,0.807862,0.654116,0.395795,0.030148,0.061684,-0.306925,0.320788,0.6708,-1.088085,0.151269,-0.057325
2.653807,-0.83091,0.7721,-0.049885,0.029068,-0.9750740000000001,0.214238,-0.097227,0.400369,0.183589,0.809545,-0.294535,-0.079042,0.069185,0.012415,-0.644493,0.349155,-0.356597,-0.074784,-0.032335,0.088752,0.039691,0.153998,0.253539,-0.230339,0.766848,0.641622,0.3753,0.049828,0.039098,-0.364796,0.347082,0.634609,-1.070515,0.131275,-0.060066
2.641335,-0.830031,0.771748,-0.04887,0.028224,-0.976323,0.208827,-0.138859,0.373972,0.204974,0.776855,-0.323816,-0.047283,0.082579,0.022112,-0.633503,0.348446,-0.365964,-0.073507,-0.027378,0.091718,0.043618,0.173577,0.269381,-0.183342,0.715282,0.624527,0.342656,0.076636,0.0272,-0.423967,0.359789,0.587936,-1.035387,0.121221,-0.066175
2.628974,-0.828917,0.771037,-0.04798,0.028497,-0.977691,0.202501,-0.183616,0.339869,0.220085,0.736785,-0.339989,-0.024181,0.093832,0.033452,-0.621074,0.351351,-0.374674,-0.073108,-0.021361,0.094223,0.047611,0.188773,0.282352,-0.150728,0.673978,0.613839,0.313546,0.099584,0.022433,-0.48276,0.366538,0.541613,-0.992546,0.121287,-0.068159
2.616596,-0.827738,0.770233,-0.046736,0.029166,-0.979158,0.195485,-0.233295,0.291765,0.212707,0.69715,-0.336331,-0.019383,0.104338,0.045367,-0.607403,0.354404,-0.381504,-0.073218,-0.015018,0.095293,0.051238,0.199127,0.297082,-0.129135,0.643782,0.610914,0.293801,0.117278,0.020141,-0.53982,0.373594,0.503936,-0.952182,0.130546,-0.067013
2.604174,-0.826622,0.770121,-0.044834,0.028967,-0.980684,0.188176,-0.284604,0.234198,0.189084,0.658227,-0.308117,-0.029903,0.116987,0.056854,-0.592706,0.350573,-0.383992,-0.073567,-0.009184,0.093879,0.05425,0.205628,0.312069,-0.117139,0.624274,0.615164,0.284589,0.12081,0.017794,-0.592726,0.383352,0.477612,-0.921053,0.145602,-0.074692
2.591588,-0.825596,0.773111,-0.041908,0.027476,-0.982276,0.180617,-0.327142,0.18382,0.183732,0.613367,-0.26049,-0.000933,0.132917,0.068403,-0.577447,0.340109,-0.380539,-0.073566,-0.004876,0.090797,0.056146,0.210814,0.323308,-0.10936,0.612507,0.622189,0.279865,0.110047,0.015232,-0.649386,0.411796,0.463625,-0.922323,0.158474,-0.094161
2.579188,-0.824989,0.773745,-0.03771,0.025655,-0.984102,0.171647,-0.363427,0.147625,0.202162,0.564145,-0.200406,-0.017696,0.14487,0.075978,-0.559669,0.328719,-0.378962,-0.072409,-0.001022,0.086805,0.057381,0.218699,0.330249,-0.098872,0.604078,0.632051,0.278509,0.092835,0.012243,-0.701491,0.450326,0.456621,-0.938924,0.161463,-0.121868
2.566592,-0.824725,0.773216,-0.032902,0.02383,-0.986216,0.160395,-0.393833,0.115311,0.22029,0.511003,-0.152745,-0.06776,0.15414,0.081282,-0.538045,0.321179,-0.3805,-0.071961,0.003884,0.081422,0.058005,0.234052,0.324573,-0.071443,0.592266,0.629775,0.282869,0.08084,0.010002,-0.74334,0.494119,0.455588,-0.956948,0.162572,-0.136694
2.553492,-0.824707,0.772154,-0.02766,0.0216,-0.988541,0.146819,-0.422329,0.074488,0.20881,0.459447,-0.114085,-0.114547,0.163432,0.084872,-0.512618,0.314836,-0.383843,-0.072402,0.010178,0.074057,0.057858,0.256804,0.308943,-0.036612,0.574124,0.622869,0.280628,0.079821,0.010551,-0.768395,0.528326,0.45255,-0.959592,0.156746,-0.150671
2.539753,-0.824863,0.770866,-0.021995,0.019128,-0.990711,0.132824,-0.445331,0.028941,0.176515,0.402753,-0.084879,-0.152816,0.174123,0.087546,-0.486278,0.306943,-0.387531,-0.072925,0.016611,0.065239,0.056137,0.283118,0.288181,-0.009438,0.561054,0.624048,0.277987,0.083329,0.018566,-0.774147,0.542027,0.448357,-0.946912,0.153005,-0.164125
2.525246,-0.825173,0.769542,-0.015793,0.01627,-0.992658,0.118811,-0.460056,-0.013245,0.135446,0.344067,-0.066863,-0.190204,0.186677,0.089054,-0.459734,0.296114,-0.390138,-0.072644,0.022157,0.055164,0.051861,0.310124,0.256392,0.01837,0.555741,0.620939,0.276268,0.084563,0.03814,-0.754369,0.524779,0.442345,-0.919803,0.161703,-0.172577
2.509862,-0.825669,0.768213,-0.008958,0.013979,-0.9943630000000001,0.104724,-0.465029,-0.040879,0.112022,0.289226,-0.051263,-0.211133,0.199997,0.090521,-0.432839,0.283874,-0.391359,-0.071256,0.025464,0.043807,0.045714,0.334869,0.214778,0.045872,0.559592,0.618395,0.271289,0.085614,0.069619,-0.70168,0.469515,0.435725,-0.880459,0.181542,-0.175789
2.493534,-0.82629,0.767022,-0.00199,0.011898,-0.995784,0.090938,-0.465366,-0.053054,0.117832,0.262925,-0.049992,-0.210584,0.211512,0.090022,-0.406095,0.277764,-0.3911,-0.069245,0.027189,0.031747,0.038873,0.349057,0.162828,0.069998,0.568408,0.616004,0.278823,0.093214,0.111281,-0.610934,0.373455,0.428633,-0.82637,0.213674,-0.179536
2.476069,-0.826991,0.766217,0.004139,0.010014,-0.996985,0.076832,-0.462283,-0.051915,0.139153,0.281129,-0.050512,-0.187274,0.220941,0.087141,-0.378146,0.282395,-0.386283,-0.067335,0.028221,0.019236,0.031676,0.367166,0.111876,0.093049,0.589894,0.611065,0.27728,0.103757,0.160805,-0.497684,0.256519,0.415322,-0.777049,0.239307,-0.183778
2.457244,-0.827846,0.765733,0.008523,0.007987,-0.998097,0.060553,-0.452591,-0.050296,0.145764,0.326796,-0.054559,-0.12463,0.230153,0.081195,-0.345292,0.298225,-0.378105,-0.065745,0.029696,0.006144,0.023887,0.383536,0.070543,0.104615,0.627056,0.623909,0.267356,0.112134,0.210667,-0.375799,0.144242,0.404419,-0.761572,0.262702,-0.194372
2.436964,-0.828941,0.765517,0.010569,0.002728,-0.999034,0.042575,-0.429413,-0.056921,0.155538,0.344296,-0.078431,-0.001713,0.24177,0.065685,-0.310816,0.320131,-0.352553,-0.062957,0.031069,-0.007605,0.015302,0.387447,0.039486,0.116584,0.685585,0.658826,0.252193,0.111791,0.255545,-0.257776,0.052556,0.403087,-0.768397,0.2695,-0.205965
2.415673,-0.830569,0.767499,0.010628,-0.00469,-0.999594,0.026002,-0.394672,-0.061624,0.182313,0.342306,-0.079004,0.09594200000000001,0.247541,0.041407,-0.278567,0.361085,-0.304124,-0.059776,0.030641,-0.022715,0.007055,0.385593,0.00961,0.137752,0.741569,0.687192,0.245342,0.109204,0.299316,-0.160601,-0.015268,0.407437,-0.784258,0.260656,-0.210246
2.3928,-0.832231,0.767804,0.007581,-0.011593,-0.999837,0.011541,-0.359279,-0.062349,0.206411,0.365899,-0.116778,0.117554,0.239088,0.013123,-0.247034,0.443345,-0.240418,-0.061004,0.029286,-0.039304,0.000571,0.378597,-0.014085,0.173849,0.78672,0.697435,0.240798,0.098431,0.34109,-0.114242,-0.027651,0.431846,-0.833138,0.237585,-0.189141
2.369438,-0.834193,0.769462,0.002469,-0.018111,-0.999825,-0.004051,-0.318361,-0.061625,0.233062,0.388141,-0.164915,0.119942,0.203767,-0.022173,-0.215514,0.572703,-0.139225,-0.066761,0.028299,-0.053548,-0.003728,0.366473,-0.027608,0.210912,0.815765,0.704642,0.233334,0.085447,0.374758,-0.112043,-0.00887,0.462692,-0.914106,0.199275,-0.159274
2.346008,-0.837089,0.770578,-0.003254,-0.023502,-0.999434,-0.023832,-0.271084,-0.060159,0.265921,0.401395,-0.212306,0.118471,0.131223,-0.066097,-0.177886,0.759309,-0.030226,-0.030031,0.030196,-0.061949,-0.005619,0.355682,-0.030177,0.234726,0.817408,0.710255,0.222453,0.076234,0.394036,-0.13561,0.002281,0.478791,-0.983288,0.166089,-0.127839
2.322815,-0.840466,0.77031,-0.008929,-0.026642,-0.998507,-0.046845,-0.216985,-0.058525,0.303707,0.399344,-0.254741,0.117404,0.036365,-0.116737,-0.144979,0.961054,0.05856,0.025972,0.034395,-0.064826,-0.005251,0.347148,-0.014958,0.244637,0.811872,0.720681,0.182834,0.068988,0.405662,-0.175942,-0.008794,0.461251,-1.000395,0.131229,-0.111452
2.300868,-0.843227,0.768701,-0.014128,-0.031843,-0.9971120000000001,-0.067481,-0.174245,-0.062345,0.341168,0.408866,-0.29694,0.115782,-0.060827,-0.181575,-0.12925,1.134843,0.025436,0.061485,0.037351,-0.06783,-0.000403,0.326993,0.013733,0.239894,0.79392,0.736882,0.145965,0.060461,0.410913,-0.249772,-0.015054,0.437938,-0.995717,0.101081,-0.090834
2.279346,-0.844938,0.767075,-0.020171,-0.036502,-0.995738,-0.082262,-0.129696,-0.070217,0.369266,0.413804,-0.334164,0.111611,-0.155066,-0.226401,-0.108015,1.257888,-0.053136,0.05081,0.034649,-0.071757,0.005988,0.297336,0.058494,0.220051,0.776009,0.766002,0.126319,0.048043,0.415776,-0.344798,0.002012,0.425317,-0.997504,0.069465,-0.086943
2.25794,-0.845431,0.766787,-0.024987,-0.03601,-0.994949,-0.090302,-0.080088,-0.074242,0.382312,0.401634,-0.36014,0.104468,-0.241308,-0.239261,-0.091566,1.312296,-0.100953,0.030629,0.025991,-0.073031,0.012008,0.264612,0.122243,0.198525,0.748626,0.78869,0.107237,0.031283,0.414872,-0.446885,0.029616,0.419234,-0.995506,0.044691,-0.088458
2.236666,-0.844767,0.767416,-0.027846,-0.032829,-0.994595,-0.094482,-0.029144,-0.075544,0.386014,0.377965,-0.3781,0.095204,-0.316553,-0.229881,-0.089777,1.298452,-0.138125,-0.02471,0.012584,-0.069634,0.016671,0.232167,0.19344,0.184846,0.715285,0.795983,0.09598400000000001,0.017465,0.410789,-0.539995,0.057202,0.423488,-0.99453,0.035654,-0.090408
2.215663,-0.843317,0.768363,-0.028223,-0.027675,-0.994642,-0.095528,0.018073,-0.073491,0.383076,0.350407,-0.391923,0.084926,-0.381266,-0.210553,-0.105499,1.227624,-0.172281,-0.063994,-0.004187,-0.061354,0.020266,0.194638,0.262157,0.170288,0.675033,0.787427,0.099631,-0.000843,0.409586,-0.612239,0.072983,0.426539,-0.992263,0.037613,-0.098585
2.194982,-0.841464,0.76885,-0.025559,-0.022026,-0.995146,-0.09244500000000001,0.05483,-0.068897,0.374821,0.330361,-0.407815,0.076534,-0.437283,-0.184316,-0.135726,1.111415,-0.188675,-0.089067,-0.023051,-0.049755,0.022826,0.160544,0.335482,0.156106,0.634292,0.770083,0.102355,-0.014977,0.408922,-0.654647,0.069832,0.4313,-0.976562,0.047953,-0.11807
2.174382,-0.839644,0.768527,-0.020146,-0.016127,-0.9961080000000002,-0.084282,0.083402,-0.064184,0.357992,0.312717,-0.4245,0.069492,-0.481422,-0.155537,-0.175538,0.953784,-0.177094,-0.097841,-0.041231,-0.036592,0.02479,0.120459,0.405276,0.137283,0.59573,0.741988,0.100689,-0.029519,0.416605,-0.669798,0.056955,0.433983,-0.953388,0.057371,-0.135512
2.153471,-0.837804,0.766591,-0.013204,-0.010966,-0.99718,-0.073065,0.105239,-0.059385,0.33495,0.302924,-0.4467,0.062664,-0.518637,-0.112591,-0.19869,0.772042,-0.16637,-0.077122,-0.057954,-0.023865,0.02652,0.076583,0.475803,0.110933,0.559891,0.718585,0.101402,-0.034114,0.433785,-0.665996,0.051533,0.431075,-0.941246,0.058411,-0.15231
2.131706,-0.836073,0.7635,-0.005488,-0.006547,-0.99795,-0.063432,0.130602,-0.05618,0.313468,0.286816,-0.467123,0.055391,-0.546411,-0.058004,-0.191337,0.572462,-0.158021,-0.037782,-0.071148,-0.011413,0.026364,0.037573,0.544839,0.077226,0.523785,0.698403,0.097995,-0.037714,0.454546,-0.642765,0.054965,0.42747,-0.933208,0.057015,-0.169563
2.109024,-0.834376,0.759627,0.00209,-0.003852,-0.99848,-0.054937,0.160666,-0.05632,0.29417,0.263929,-0.480919,0.047182,-0.563504,-0.011498,-0.176926,0.373013,-0.148066,0.01493,-0.079517,-0.000202,0.023953,0.007644,0.603369,0.040762,0.487877,0.671161,0.096588,-0.038529,0.478923,-0.602337,0.057776,0.425612,-0.925035,0.05854,-0.17773
2.085444,-0.832454,0.754759,0.008579,-0.003839,-0.998839,-0.047253,0.192965,-0.060262,0.27565,0.243042,-0.492149,0.037445,-0.575114,0.010826,-0.192751,0.214044,-0.147146,0.094666,-0.082996,0.007689,0.02077,-0.007571,0.655244,-0.002143,0.449575,0.640082,0.096546,-0.040796,0.512044,-0.552956,0.049712,0.424905,-0.919659,0.054694,-0.18896
2.061164,-0.830015,0.749109,0.013793,-0.006969,-0.9990270000000001,-0.041311,0.222485,-0.067193,0.258683,0.234395,-0.502651,0.026291,-0.596071,0.002922,-0.257865,0.179437,-0.154877,0.164296,-0.083091,0.011582,0.019173,-0.010474,0.690919,-0.046032,0.41273,0.61848,0.092481,-0.04315,0.543366,-0.487664,0.029181,0.425934,-0.913397,0.053142,-0.20077
2.035726,-0.826955,0.744142,0.015791,-0.008012,-0.999251,-0.034414,0.255493,-0.0663,0.23994,0.236355,-0.510173,0.011494,-0.614063,-0.017087,-0.310938,0.248039,-0.138055,0.106043,-0.085833,0.015416,0.018663,-0.001527,0.724955,-0.091566,0.38187,0.611848,0.092425,-0.050888,0.569217,-0.40872,-0.002673,0.430083,-0.909329,0.059087,-0.212582
2.008101,-0.823284,0.743353,0.014696,-0.00867,-0.999544,-0.024927,0.297198,-0.061404,0.218239,0.245289,-0.50436,-0.002809,-0.598251,-0.031121,-0.348541,0.318729,-0.154493,0.042624,-0.091852,0.020006,0.015867,0.016704,0.739571,-0.129945,0.361579,0.610196,0.107371,-0.061673,0.590571,-0.318062,-0.056458,0.434713,-0.897096,0.069889,-0.228756
1.979329,-0.81861,0.74362,0.011397,-0.006862,-0.9998840000000001,-0.007395,0.33196,-0.041868,0.18479,0.268202,-0.472794,-0.027269,-0.557761,-0.032016,-0.351675,0.361201,-0.152003,0.053629,-0.101446,0.025457,0.009453,0.031198,0.72227,-0.15025,0.349346,0.602277,0.129526,-0.070705,0.606057,-0.207848,-0.138923,0.439627,-0.873586,0.084613,-0.254056
1.950122,-0.813414,0.746467,0.009564,0.002552,-0.999891,0.010937,0.35174,-0.003259,0.145175,0.299649,-0.39214,-0.053223,-0.488069,-0.009496,-0.381408,0.302308,-0.026933,-0.076052,-0.110539,0.033913,0.000516,0.051457,0.657417,-0.146434,0.359337,0.590419,0.165387,-0.051512,0.600086,-0.083658,-0.228543,0.434122,-0.834721,0.116322,-0.270807
1.920493,-0.807615,0.749206,0.004172,0.012945,-0.999702,0.020247,0.34771,0.04121,0.109009,0.395898,-0.299004,-0.114825,-0.429408,0.021104,-0.397398,0.291109,0.005343,-0.180314,-0.12091,0.049072,-0.00463,0.094558,0.546628,-0.08021,0.387727,0.559402,0.22338,-0.008549,0.575896,0.008954,-0.309201,0.442614,-0.804803,0.147884,-0.273329
1.891503,-0.802464,0.751751,-0.003822,0.024789,-0.999418,0.023105,0.299115,0.083366,0.060784,0.576658,-0.186602,-0.200189,-0.388105,0.048249,-0.40688,0.326506,-0.041024,-0.198393,-0.128686,0.06615,-0.001861,0.158964,0.397738,0.033865,0.413476,0.52549,0.278066,0.045478,0.53546,0.06667,-0.368332,0.470076,-0.806442,0.173713,-0.268303
1.862432,-0.797544,0.755353,-0.012783,0.033902,-0.9987720000000002,0.033775,0.213877,0.124369,0.017816,0.81128,-0.080323,-0.244455,-0.340064,0.062371,-0.427134,0.360611,-0.095612,-0.200485,-0.131803,0.078195,0.003916,0.213223,0.258376,0.10436,0.444426,0.513302,0.29021,0.069325,0.495127,0.101189,-0.416341,0.49621,-0.820606,0.190263,-0.268352
1.83403,-0.79253,0.757673,-0.021715,0.041109,-0.997754,0.048222,0.102602,0.186442,0.003942,1.051396,0.013245,-0.24712,-0.280225,0.078318,-0.452017,0.367005,-0.143933,-0.205865,-0.129412,0.084885,0.01088,0.249991,0.201045,0.050466,0.509661,0.577549,0.282401,0.062835,0.462792,0.105361,-0.422723,0.518813,-0.841944,0.173623,-0.253144
1.806446,-0.788368,0.759718,-0.031156,0.046337,-0.9971040000000002,0.051626,-0.01153,0.261073,-0.006915,1.260287,0.076506,-0.238833,-0.213427,0.103735,-0.45873,0.353599,-0.179597,-0.203161,-0.116537,0.091719,0.019298,0.284238,0.204501,-0.071274,0.594048,0.712327,0.247287,0.040935,0.435945,0.04646,-0.353759,0.550559,-0.940206,0.148396,-0.220894
1.780777,-0.78526,0.761352,-0.037783,0.049906,-0.997001,0.045515,-0.134145,0.297233,-0.036069,1.432529,0.064034,-0.190211,-0.156888,0.129914,-0.44724,0.340563,-0.207061,-0.197539,-0.094633,0.09851,0.029358,0.325046,0.183021,-0.091311,0.646144,0.755285,0.223344,0.035414,0.396786,-0.044491,-0.268934,0.562869,-1.047635,0.113991,-0.186227
1.757109,-0.782872,0.763054,-0.041678,0.05167,-0.99709,0.037476,-0.257254,0.294699,-0.071803,1.555309,0.010536,-0.099209,-0.105908,0.152102,-0.428939,0.320561,-0.224953,-0.191021,-0.066484,0.101833,0.039066,0.362128,0.150359,-0.020411,0.672697,0.702688,0.223038,0.03182,0.376326,-0.128489,-0.240862,0.540598,-1.061636,0.060237,-0.175043
1.734856,-0.780994,0.765114,-0.043752,0.050155,-0.997356,0.029168,-0.37102,0.271907,-0.09316,1.612909,-0.043568,-0.046892,-0.056662,0.166216,-0.407767,0.29386,-0.23603,-0.183619,-0.035991,0.100755,0.046497,0.392459,0.160902,0.007423,0.682322,0.705299,0.210859,0.022213,0.363121,-0.219975,-0.232311,0.492056,-1.034821,0.021418,-0.163206
1.713503,-0.779593,0.767047,-0.043736,0.04692,-0.997723,0.020852,-0.468315,0.231811,-0.100379,1.602705,-0.091461,-0.037694,-0.013661,0.17315,-0.385009,0.270878,-0.246387,-0.17522,-0.007551,0.095788,0.05118,0.42545,0.198289,0.001491,0.678241,0.742949,0.185483,0.008606,0.362682,-0.333594,-0.216984,0.437125,-1.008888,-0.004903,-0.143392
1.69261,-0.778179,0.76834,-0.040964,0.042136,-0.998187,0.013031,-0.548969,0.174557,-0.100051,1.531241,-0.131241,-0.03924,0.016741,0.172975,-0.361635,0.262822,-0.262283,-0.167282,0.015241,0.087543,0.053761,0.465132,0.225443,0.029487,0.661619,0.735606,0.169459,0.001699,0.369623,-0.460081,-0.201801,0.385937,-0.98504,-0.017738,-0.128648
1.67185,-0.776284,0.768377,-0.036287,0.03772,-0.998614,0.005548,-0.607936,0.130303,-0.085308,1.399441,-0.161018,-0.032879,0.034146,0.170316,-0.34097,0.273727,-0.284798,-0.161311,0.031852,0.077019,0.055256,0.512857,0.256076,0.065257,0.63837,0.709335,0.162757,-0.000689,0.378026,-0.570362,-0.188649,0.350844,-0.945002,-0.009803,-0.131338
1.650646,-0.77373,0.766346,-0.031374,0.036924,-0.998823,-0.002259,-0.641837,0.106178,-0.060466,1.217674,-0.18792,-0.039613,0.042514,0.172939,-0.322284,0.305363,-0.318409,-0.156548,0.042534,0.067013,0.056156,0.560558,0.298115,0.085576,0.62315,0.712938,0.163624,0.000868,0.385319,-0.681202,-0.173974,0.328254,-0.92219,0.001582,-0.127736
1.628794,-0.770286,0.762923,-0.025894,0.038154,-0.9988840000000001,-0.010189,-0.644695,0.106387,-0.011586,0.980672,-0.204374,-0.068808,0.055413,0.182702,-0.302953,0.328399,-0.352217,-0.151353,0.047483,0.059805,0.055135,0.603699,0.330489,0.109513,0.620954,0.721739,0.179939,0.000244,0.384387,-0.773746,-0.160548,0.315849,-0.905073,0.013988,-0.127162
1.606306,-0.766202,0.758729,-0.019497,0.04055,-0.998824,-0.018089,-0.619494,0.107364,0.051732,0.700656,-0.204102,-0.119688,0.078425,0.198732,-0.280337,0.330068,-0.382816,-0.145268,0.04836,0.055764,0.051486,0.637885,0.34229,0.141309,0.627312,0.708255,0.188429,-0.007727,0.378533,-0.839023,-0.149861,0.305818,-0.877969,0.022459,-0.125467
1.583734,-0.761849,0.75483,-0.011623,0.042074,-0.998667,-0.02753,-0.581952,0.087383,0.095319,0.414934,-0.190786,-0.193566,0.108565,0.214549,-0.253948,0.310614,-0.400046,-0.138223,0.047345,0.052931,0.046068,0.663597,0.339052,0.175049,0.641549,0.684595,0.189899,-0.011833,0.380366,-0.880839,-0.140776,0.28437,-0.857616,0.02431,-0.124197
1.561369,-0.757649,0.751343,-0.00451,0.043033,-0.998384,-0.036834,-0.555511,0.043225,0.108264,0.207196,-0.191141,-0.245357,0.142395,0.227275,-0.227291,0.286225,-0.413958,-0.129822,0.043572,0.050041,0.040955,0.683479,0.328124,0.20203,0.657935,0.671198,0.197415,-0.006545,0.379772,-0.91118,-0.127881,0.259124,-0.838703,0.02506,-0.125973
1.539263,-0.753606,0.750266,0.000651,0.043932,-0.998254,-0.03947,-0.558141,-0.000638,0.11284,0.193018,-0.187551,-0.247576,0.169998,0.236463,-0.212195,0.285301,-0.433481,-0.121572,0.03525,0.045594,0.038839,0.691293,0.318333,0.213987,0.676671,0.672606,0.196559,-0.006541,0.387262,-0.933073,-0.123751,0.235489,-0.8142,0.019414,-0.115835
1.516707,-0.749894,0.748948,0.004377,0.042579,-0.998306,-0.039413,-0.55484,0.036334,0.167923,0.296054,-0.144536,-0.247091,0.193742,0.237952,-0.202953,0.293882,-0.446384,-0.114616,0.030915,0.038156,0.03777,0.685476,0.310863,0.218553,0.693431,0.675493,0.191882,-0.012409,0.409466,-0.93801,-0.120256,0.218474,-0.80102,0.016758,-0.113663
1.492689,-0.74696,0.749811,0.004778,0.039637,-0.997914,-0.050739,-0.523695,0.024851,0.149186,0.361486,-0.154265,-0.238288,0.219714,0.228498,-0.181736,0.31565,-0.440752,-0.108859,0.037163,0.028606,0.033034,0.686956,0.299902,0.224679,0.700952,0.680963,0.185279,-0.006679,0.429583,-0.935782,-0.102653,0.206364,-0.803502,0.012007,-0.11153
1.468298,-0.744074,0.754975,0.007241,0.027378,-0.997117,-0.070399,-0.467695,-0.014906,0.12057,0.303967,-0.098695,-0.11506,0.234192,0.196657,-0.14953,0.335629,-0.381818,-0.098576,0.047043,0.016442,0.024907,0.683162,0.261825,0.234221,0.69675,0.67082,0.172877,-0.000241,0.432994,-0.936091,-0.073654,0.198679,-0.826651,0.012288,-0.102095
1.442523,-0.741174,0.760737,0.007168,0.018205,-0.99591,-0.088208,-0.41405,-0.030798,0.139557,0.267294,-0.042091,0.009321,0.221709,0.16446,-0.120965,0.419396,-0.307517,-0.086081,0.053793,0.001758,0.017475,0.677932,0.231533,0.242147,0.696061,0.665137,0.167383,0.008498,0.42762,-0.922557,-0.049694,0.201442,-0.845931,0.0205,-0.094899
1.416023,-0.738363,0.763596,0.004045,0.009070000000000002,-0.994739,-0.101959,-0.368778,-0.043682,0.161118,0.275109,-0.053986,0.077673,0.18675,0.128252,-0.092507,0.55471,-0.21435,-0.018383,0.057622,-0.013784,0.013579,0.650818,0.213843,0.227934,0.701938,0.685622,0.18677,0.009917,0.415766,-0.879858,-0.043847,0.2163,-0.835292,0.046674,-0.091425
1.389832,-0.735318,0.767784,-0.00118,-9.9e-05,-0.993293,-0.115615,-0.334818,-0.053603,0.187114,0.309433,-0.091732,0.122555,0.119815,0.091414,-0.058108,0.750861,-0.106567,0.099214,0.059225,-0.028991,0.013274,0.610792,0.198088,0.219844,0.714999,0.70831,0.20363,0.018538,0.397647,-0.819967,-0.052753,0.227614,-0.803323,0.071051,-0.089931
1.363679,-0.732175,0.769106,-0.008586,-0.007899,-0.991051,-0.13297,-0.296208,-0.058032,0.221337,0.345694,-0.144088,0.137735,0.030083,0.060658,-0.017818,0.965317,-0.003643,0.19459,0.061242,-0.040834,0.014828,0.561046,0.1775,0.225266,0.726389,0.718084,0.213364,0.024223,0.375892,-0.764975,-0.047846,0.237139,-0.803014,0.094871,-0.090429
1.337993,-0.728711,0.769201,-0.017754,-0.016233,-0.98784,-0.1536,-0.246866,-0.065287,0.25918,0.366006,-0.195419,0.145126,-0.070107,0.014873,-0.002682,1.164495,0.058734,0.244986,0.066654,-0.048976,0.017531,0.504224,0.159344,0.228824,0.72793,0.722161,0.214653,0.017402,0.350476,-0.724283,-0.017204,0.253825,-0.807577,0.090478,-0.092911
1.312859,-0.724213,0.768973,-0.026304,-0.023147,-0.985307,-0.167162,-0.194203,-0.077632,0.283822,0.373872,-0.241239,0.145408,-0.162599,-0.050242,0.016775,1.307229,0.011261,0.24064,0.065859,-0.057673,0.021412,0.449788,0.155028,0.220802,0.704447,0.722585,0.194237,0.008867,0.345766,-0.690408,0.022419,0.277592,-0.839768,0.079829,-0.093794
1.288427,-0.718559,0.769246,-0.031742,-0.027872,-0.983925,-0.173515,-0.139833,-0.091504,0.2941,0.362415,-0.274502,0.140404,-0.254512,-0.1018,0.023417,1.387316,-0.051299,0.170226,0.056367,-0.0654,0.026264,0.398907,0.167445,0.209747,0.667451,0.707212,0.174792,-0.001436,0.354268,-0.65172,0.049543,0.300232,-0.86602,0.065001,-0.100362
1.264771,-0.712154,0.769986,-0.034461,-0.028317,-0.984488,-0.169691,-0.090378,-0.102009,0.284026,0.346594,-0.299418,0.135853,-0.336804,-0.141736,0.002738,1.394341,-0.09022500000000001,0.06134,0.037289,-0.069242,0.030515,0.355466,0.204555,0.187284,0.622994,0.695802,0.151394,-0.015525,0.378254,-0.608568,0.053381,0.317938,-0.878585,0.060635,-0.116718
1.241736,-0.705395,0.770516,-0.034757,-0.026607,-0.986266,-0.159256,-0.050601,-0.108332,0.260593,0.339268,-0.324461,0.129672,-0.402568,-0.16881,-0.040295,1.333413,-0.137461,-0.005975,0.011035,-0.067967,0.033672,0.320196,0.261968,0.165484,0.577656,0.694363,0.125789,-0.024079,0.413224,-0.571272,0.050165,0.326405,-0.887887,0.061303,-0.129111
1.218967,-0.698644,0.770325,-0.033291,-0.025043,-0.988192,-0.14745,-0.018393,-0.112581,0.233958,0.341199,-0.352705,0.123813,-0.46001,-0.165888,-0.075104,1.222927,-0.179794,-0.052215,-0.017539,-0.062778,0.036739,0.289022,0.317939,0.15077,0.523684,0.678528,0.103829,-0.02457,0.447691,-0.540622,0.035635,0.326226,-0.893913,0.063676,-0.140205
1.195982,-0.69224,0.769346,-0.030214,-0.023247,-0.989859,-0.136839,0.012359,-0.114838,0.209159,0.342813,-0.383244,0.118501,-0.506999,-0.142696,-0.097255,1.065462,-0.193905,-0.067336,-0.042926,-0.055248,0.038617,0.259939,0.368325,0.142615,0.472506,0.648507,0.103693,-0.027247,0.485601,-0.511893,0.016797,0.322149,-0.887746,0.06999,-0.144425
1.172664,-0.686155,0.767322,-0.026521,-0.02188,-0.991194,-0.127874,0.044868,-0.116298,0.188369,0.340101,-0.414288,0.112162,-0.53452,-0.110102,-0.111657,0.861553,-0.175938,-0.052217,-0.062221,-0.047181,0.038906,0.238022,0.424499,0.140772,0.420257,0.618523,0.107903,-0.026509,0.517335,-0.485956,0.003153,0.32205,-0.886859,0.068185,-0.146546
1.1489,-0.680437,0.764266,-0.021459,-0.021592,-0.992207,-0.120824,0.080581,-0.119752,0.17008,0.32612,-0.440214,0.106363,-0.544305,-0.071906,-0.109799,0.619975,-0.150379,0.00236,-0.074604,-0.03921,0.036902,0.222099,0.480131,0.141138,0.369947,0.600111,0.113872,-0.026398,0.543208,-0.464067,-0.00723,0.32767,-0.898017,0.068153,-0.150651
1.12485,-0.674958,0.760716,-0.014048,-0.02102,-0.993083,-0.114663,0.117899,-0.122986,0.149675,0.298299,-0.456536,0.100836,-0.545767,-0.032453,-0.089222,0.370454,-0.13672,0.069586,-0.08119,-0.031453,0.032405,0.209688,0.523204,0.152293,0.325724,0.575814,0.12288,-0.024692,0.565307,-0.438177,-0.024922,0.339584,-0.904186,0.063764,-0.153691
1.100535,-0.669285,0.755963,-0.00673,-0.02311,-0.993592,-0.110432,0.153453,-0.129893,0.132635,0.273648,-0.472808,0.095724,-0.556556,-0.012767,-0.100999,0.193208,-0.153922,0.149223,-0.082369,-0.025861,0.028078,0.20352,0.542982,0.171586,0.293877,0.559324,0.13591,-0.021958,0.580014,-0.405349,-0.051468,0.355144,-0.903363,0.064184,-0.158848
1.076404,-0.662973,0.750073,-0.000959,-0.028018,-0.993352,-0.111654,0.180522,-0.138938,0.126192,0.270733,-0.495093,0.090858,-0.588209,-0.015736,-0.195627,0.185674,-0.160703,0.23722,-0.076929,-0.023813,0.027057,0.205283,0.549413,0.194599,0.269539,0.547513,0.143542,-0.010812,0.586664,-0.369218,-0.082819,0.368863,-0.902698,0.069731,-0.165307
1.051736,-0.656289,0.745303,0.002903,-0.02864,-0.993822,-0.107187,0.211418,-0.138448,0.112511,0.268879,-0.507614,0.085972,-0.609953,-0.054983,-0.254485,0.272774,-0.127084,0.131579,-0.079219,-0.018781,0.027828,0.213184,0.541478,0.209053,0.260954,0.53437,0.150256,-0.006507,0.586955,-0.323816,-0.119135,0.381547,-0.896018,0.077387,-0.172078
1.025864,-0.648614,0.742814,0.003551,-0.029573,-0.995257,-0.092607,0.24733,-0.132561,0.091968,0.271088,-0.497396,0.076935,-0.588505,-0.086068,-0.304834,0.338543,-0.145326,0.032715,-0.087159,-0.013326,0.024804,0.215896,0.529526,0.191536,0.27366,0.542045,0.157871,-0.007633,0.592185,-0.272243,-0.166005,0.394138,-0.884859,0.08706,-0.181347
0.998545,-0.639778,0.747253,0.002641,-0.028173,-0.997227,-0.068827,0.283606,-0.115629,0.060072,0.28427,-0.461523,0.068665,-0.536578,-0.104808,-0.336919,0.358055,-0.144523,0.050425,-0.09766300000000001,-0.007024,0.016321,0.203934,0.520332,0.133952,0.307437,0.572821,0.153883,-0.007313,0.599817,-0.212279,-0.212904,0.396456,-0.872589,0.106379,-0.191051
0.971092,-0.630399,0.752674,0.004983,-0.018308,-0.998816,-0.044793,0.311019,-0.077585,0.017944,0.287215,-0.390085,0.051973,-0.462074,-0.088144,-0.381991,0.284345,-0.032444,-0.052239,-0.105617,0.003037,0.00415,0.195025,0.518605,0.070618,0.340317,0.600677,0.152341,-0.029913,0.599345,-0.152965,-0.244479,0.409389,-0.866623,0.114347,-0.198012
0.943477,-0.620719,0.756696,0.004709,-0.006499,-0.999399,-0.033736,0.318904,-0.036544,-0.010077,0.344637,-0.313607,0.01492,-0.403018,-0.058593,-0.411388,0.255572,0.011035,-0.134039,-0.109944,0.019983,-0.004284,0.211053,0.508243,0.020891,0.373059,0.627444,0.147047,-0.028908,0.584386,-0.124649,-0.251237,0.441993,-0.883635,0.119443,-0.189195
0.91648,-0.611229,0.760379,0.00076,0.00609,-0.999461,-0.03225,0.296454,0.002849,-0.031259,0.468996,-0.224869,-0.064635,-0.365419,-0.027456,-0.422371,0.282283,-0.026657,-0.160626,-0.111857,0.03979,-0.005486,0.246409,0.478824,-0.002885,0.409307,0.63784,0.152794,-0.014575,0.548064,-0.121967,-0.244055,0.493849,-0.917157,0.134746,-0.173289
0.889965,-0.601775,0.764086,-0.00447,0.017868,-0.99951,-0.025303,0.233215,0.04113,-0.060274,0.662263,-0.13041,-0.181964,-0.332278,-0.008137,-0.442341,0.32978,-0.073642,-0.174469,-0.112367,0.056287,-0.001016,0.268808,0.439981,-0.026762,0.44851,0.634781,0.15767,-0.011205,0.503424,-0.126267,-0.242818,0.537263,-0.950881,0.149552,-0.171775
0.864155,-0.591999,0.765526,-0.011669,0.027731,-0.999501,-0.009597,0.137452,0.078535,-0.087339,0.886529,-0.041821,-0.244325,-0.285035,0.006774,-0.4752,0.356441,-0.122866,-0.180599,-0.112441,0.064731,0.004954,0.26944,0.425081,-0.07639,0.487973,0.655889,0.161172,-0.021756,0.467428,-0.118778,-0.258882,0.54857,-0.946674,0.147327,-0.173528
0.838676,-0.582724,0.766579,-0.020795,0.034875,-0.9991620000000001,0.005137,0.03088,0.137581,-0.071467,1.098906,0.019227,-0.246988,-0.223794,0.025355,-0.503474,0.35667,-0.165843,-0.179592,-0.11219,0.069432,0.012071,0.267357,0.420698,-0.124546,0.515358,0.679958,0.160198,-0.040811,0.440429,-0.123598,-0.264522,0.53483,-0.933788,0.126481,-0.178873
0.813594,-0.574432,0.767397,-0.029764,0.041192,-0.998645,0.011159,-0.074867,0.199359,-0.076298,1.271783,0.003076,-0.235332,-0.159596,0.052355,-0.517093,0.342652,-0.199225,-0.176022,-0.103648,0.075546,0.019762,0.275478,0.40237,-0.128981,0.526325,0.676377,0.16646,-0.044663,0.417655,-0.155033,-0.247852,0.511576,-0.936515,0.104802,-0.176369
0.789465,-0.567119,0.768138,-0.035891,0.045597,-0.99826,0.010492,-0.180858,0.231289,-0.085035,1.396887,-0.049338,-0.128087,-0.101167,0.080906,-0.516626,0.320279,-0.222855,-0.169449,-0.087985,0.08166,0.026374,0.297741,0.369656,-0.095688,0.521339,0.63918,0.173867,-0.039112,0.390174,-0.201335,-0.217375,0.481339,-0.945554,0.089886,-0.1753
0.766347,-0.56067,0.768876,-0.039648,0.047239,-0.998089,0.00379,-0.279441,0.252789,-0.078819,1.460327,-0.074357,-0.036498,-0.048818,0.106478,-0.501997,0.293866,-0.23908,-0.161952,-0.065782,0.084669,0.03102,0.326632,0.336962,-0.052371,0.513948,0.602417,0.182175,-0.024115,0.371146,-0.251753,-0.198872,0.450652,-0.938184,0.079998,-0.170309
0.74418,-0.555113,0.769155,-0.041903,0.048339,-0.997922,-0.007705,-0.363038,0.26141,-0.061299,1.460803,-0.104498,-0.001272,-0.007532,0.127279,-0.475954,0.280957,-0.254794,-0.154576,-0.039864,0.084168,0.034113,0.36225,0.317233,-0.017938,0.509091,0.582807,0.18109,-0.016784,0.354226,-0.295652,-0.194542,0.42171,-0.907882,0.076973,-0.165751
0.722495,-0.549842,0.769318,-0.041686,0.047306,-0.99778,-0.021456,-0.431724,0.227236,-0.05101,1.403045,-0.155271,0.016347,0.025147,0.141013,-0.444091,0.275679,-0.267803,-0.147626,-0.015056,0.079579,0.035209,0.404381,0.308669,0.006722,0.508529,0.582134,0.183244,-0.010657,0.339264,-0.342934,-0.198049,0.398954,-0.872112,0.074536,-0.159233
0.700918,-0.544638,0.768542,-0.03974,0.047137,-0.997568,-0.032502,-0.49019,0.170652,-0.058169,1.303007,-0.201758,0.004479,0.047418,0.150126,-0.41712,0.289007,-0.287312,-0.141028,0.004482,0.071823,0.035065,0.439862,0.303318,0.02653,0.517837,0.587726,0.188485,-0.009087,0.33006,-0.387736,-0.192344,0.378764,-0.85387,0.075425,-0.157187
0.679229,-0.539021,0.76679,-0.03639,0.04649,-0.997351,-0.0425,-0.530119,0.127504,-0.057514,1.152253,-0.221881,-0.017327,0.063139,0.155921,-0.393277,0.312938,-0.313061,-0.135084,0.017589,0.062895,0.03387,0.469514,0.298364,0.044233,0.537216,0.594019,0.195268,-0.009524,0.324593,-0.425304,-0.18537,0.357923,-0.834525,0.074369,-0.158489
0.657261,-0.5328,0.76405,-0.031949,0.046809,-0.997042,-0.051916,-0.547653,0.106566,-0.042014,0.950824,-0.231897,-0.06959,0.081454,0.165537,-0.3713,0.328973,-0.338236,-0.130131,0.025526,0.054559,0.031375,0.487637,0.294447,0.061143,0.569571,0.610315,0.204149,-0.009742,0.322994,-0.460439,-0.18208,0.334473,-0.813716,0.079104,-0.147268
0.634951,-0.526135,0.760368,-0.026944,0.048405,-0.996605,-0.060907,-0.541028,0.09509600000000001,-0.016386,0.706322,-0.242321,-0.107433,0.105054,0.179643,-0.349409,0.334616,-0.362367,-0.125544,0.029794,0.048433,0.027126,0.502873,0.288809,0.081226,0.60171,0.625304,0.213978,-0.011011,0.323051,-0.480739,-0.177005,0.313816,-0.792552,0.076759,-0.144665
0.612523,-0.519335,0.756915,-0.021681,0.049266,-0.9960500000000002,-0.070616,-0.517659,0.083546,0.018776,0.444173,-0.229886,-0.152524,0.137383,0.194326,-0.324209,0.32225,-0.382067,-0.120348,0.031742,0.044002,0.020678,0.515704,0.275714,0.106216,0.62938,0.633245,0.221942,-0.008232,0.324583,-0.494616,-0.168757,0.301011,-0.789322,0.080757,-0.145898
0.590338,-0.51257,0.756056,-0.015364,0.049855,-0.995357,-0.080888,-0.499388,0.073394,0.080522,0.225349,-0.213507,-0.23532,0.17741,0.210395,-0.297106,0.294913,-0.394132,-0.114931,0.029594,0.041361,0.01344,0.518029,0.255227,0.127216,0.646913,0.638097,0.238166,-0.007704,0.322101,-0.492217,-0.163002,0.293759,-0.788767,0.082583,-0.148438
0.568839,-0.506446,0.752719,-0.009759,0.051904,-0.994843,-0.086586,-0.518623,0.035355,0.122661,0.181965,-0.213669,-0.246741,0.208035,0.223288,-0.276011,0.283007,-0.412193,-0.108719,0.02338,0.038604,0.009442,0.524798,0.243682,0.148328,0.660264,0.642149,0.241261,-0.003077,0.334342,-0.474951,-0.167393,0.284058,-0.792879,0.08655,-0.151546
0.54759,-0.500674,0.749762,-0.005304,0.050572,-0.994646,-0.089963,-0.537303,0.071342,0.166139,0.26516,-0.164322,-0.237217,0.229744,0.226023,-0.260476,0.289933,-0.431227,-0.102939,0.022426,0.032912,0.008721,0.518835,0.233961,0.162894,0.670603,0.648929,0.245478,-0.001916,0.346551,-0.449637,-0.176485,0.281843,-0.782021,0.084877,-0.15632
0.525189,-0.495589,0.749101,-0.002988,0.048591,-0.99364,-0.101539,-0.5352,0.076036,0.186026,0.35249,-0.147,-0.165008,0.250137,0.218845,-0.24344,0.31045,-0.43026,-0.099083,0.027904,0.027078,0.008088,0.515063,0.221297,0.182567,0.674141,0.652156,0.243305,0.008168,0.359845,-0.416392,-0.183028,0.281314,-0.762108,0.086999,-0.156521
0.501886,-0.491137,0.752216,-0.001971,0.040505,-0.9915,-0.123624,-0.505839,0.049558,0.158721,0.361481,-0.136389,-0.069882,0.266955,0.193666,-0.206431,0.33179,-0.38749,-0.099048,0.037733,0.018522,0.004358,0.517995,0.192562,0.211439,0.667678,0.641055,0.232943,0.017827,0.362974,-0.402976,-0.161959,0.281766,-0.764152,0.085958,-0.153905
0.477134,-0.487066,0.757011,-0.002546,0.029755,-0.988525,-0.148076,-0.448369,0.031264,0.173623,0.315122,-0.054068,0.03857,0.268671,0.155483,-0.163926,0.38639,-0.32255,-0.092907,0.043592,0.007446,-0.001837,0.525165,0.160399,0.234967,0.664608,0.629973,0.22352,0.026564,0.35868,-0.418901,-0.12286,0.2765,-0.794698,0.07672,-0.147508
0.45165,-0.483301,0.760548,-0.005736,0.019608,-0.985262,-0.169825,-0.394028,0.022451,0.209893,0.302419,-0.027824,0.113987,0.246899,0.112172,-0.12531,0.492504,-0.235579,-0.072302,0.045929,-0.005496,-0.00631,0.528022,0.143961,0.239715,0.67356,0.637909,0.220396,0.025485,0.359786,-0.433231,-0.09949,0.249445,-0.815481,0.065297,-0.144474
0.426828,-0.479539,0.764159,-0.011162,0.009371,-0.981844,-0.189129,-0.35157,0.015229,0.251084,0.317873,-0.058686,0.142928,0.193576,0.066712,-0.082043,0.650774,-0.133636,0.008028,0.045763,-0.019766,-0.007223,0.517036,0.143611,0.227547,0.689863,0.666373,0.217562,0.01502,0.350116,-0.446679,-0.10102,0.205633,-0.791973,0.054461,-0.148308
0.401968,-0.475509,0.768003,-0.016614,-0.000533,-0.977624,-0.209702,-0.310021,0.009917,0.295484,0.340812,-0.108046,0.142226,0.112587,0.026676,-0.031064,0.847367,-0.019163,0.107647,0.044433,-0.033462,-0.005331,0.49614,0.145433,0.229713,0.69634,0.686393,0.217919,0.012266,0.323505,-0.464018,-0.115058,0.14924,-0.742445,0.059906,-0.159526
0.377485,-0.471324,0.770389,-0.023159,-0.007068,-0.97281,-0.230336,-0.25359,0.003135,0.338324,0.337248,-0.149645,0.137404,0.014834,-0.010389,0.004722,1.036289,0.111296,0.202235,0.043861,-0.043877,-0.002138,0.469124,0.146969,0.254105,0.687182,0.686866,0.216832,0.016234,0.277913,-0.469615,-0.134807,0.082702,-0.637106,0.074422,-0.172063
0.354411,-0.466597,0.771763,-0.029714,-0.012797,-0.967714,-0.249966,-0.198455,-0.0062,0.377512,0.328737,-0.185087,0.13455,-0.082451,-0.059621,0.007345,1.187205,0.152834,0.245644,0.043622,-0.052065,0.00259,0.438172,0.144131,0.293709,0.663941,0.664315,0.209875,0.024552,0.218798,-0.477188,-0.149115,0.004418,-0.515073,0.103884,-0.200226
0.333099,-0.461,0.77195,-0.035237,-0.019095,-0.963936,-0.263101,-0.157428,-0.018015,0.405919,0.334722,-0.220788,0.129949,-0.169027,-0.083216,0.04362,1.278752,0.041301,0.245975,0.038134,-0.06094,0.00759,0.407075,0.149644,0.324054,0.629558,0.641898,0.204667,0.030829,0.158661,-0.474841,-0.140911,-0.101891,-0.35931,0.138562,-0.249298
0.31252,-0.454584,0.772158,-0.039213,-0.022808,-0.961706,-0.270304,-0.118755,-0.029405,0.42122,0.336933,-0.250061,0.123905,-0.246586,-0.110632,0.051585,1.312274,-0.052672,0.225848,0.029334,-0.068284,0.011316,0.381475,0.169615,0.327882,0.585291,0.632416,0.187344,0.025307,0.114561,-0.485124,-0.081456,-0.245841,-0.207998,0.151424,-0.28426
0.292302,-0.44751,0.772541,-0.041768,-0.024615,-0.96113,-0.271805,-0.079833,-0.042119,0.423705,0.331557,-0.274268,0.116957,-0.311857,-0.150933,0.019618,1.285787,-0.108354,0.156386,0.016255,-0.073624,0.013465,0.363403,0.196883,0.316108,0.532661,0.628304,0.173463,0.015653,0.090578,-0.530515,0.042883,-0.425229,-0.101186,0.130152,-0.259617
0.272574,-0.43973,0.772748,-0.041539,-0.025807,-0.962281,-0.267626,-0.047432,-0.053942,0.414531,0.32712,-0.299502,0.107877,-0.363586,-0.176641,-0.028151,1.206174,-0.166498,0.079935,0.0006,-0.076884,0.013477,0.350314,0.223349,0.298937,0.476275,0.619044,0.16643,0.003922,0.065199,-0.594835,0.238545,-0.621454,0.008852,0.067625,-0.160113
0.253152,-0.431396,0.772591,-0.040194,-0.026426,-0.963843,-0.262092,-0.017204,-0.062531,0.401439,0.325739,-0.328157,0.098166,-0.40768,-0.176587,-0.06911,1.090066,-0.202967,0.02121,-0.014067,-0.077847,0.011903,0.343366,0.24646,0.281558,0.417354,0.596725,0.16234,-0.012358,0.020962,-0.675323,0.48029,-0.782743,0.095576,0.005126,-0.024214
0.233973,-0.422999,0.772077,-0.036817,-0.025409,-0.965657,-0.255939,0.010614,-0.066569,0.386119,0.32329,-0.356249,0.091001,-0.44408,-0.152482,-0.095355,0.944673,-0.210818,0.017077,-0.024408,-0.076291,0.010155,0.341482,0.270866,0.260288,0.360772,0.585092,0.165785,-0.021175,-0.032967,-0.733716,0.704165,-0.864759,0.187703,0.013659,0.068955
0.215097,-0.414931,0.770798,-0.032862,-0.023505,-0.967694,-0.24887,0.036376,-0.069024,0.368549,0.320452,-0.382616,0.086656,-0.47586,-0.11781,-0.104078,0.78397,-0.190423,0.05262,-0.031107,-0.072835,0.009228,0.336057,0.29067,0.236554,0.311242,0.575758,0.174384,-0.029743,-0.072212,-0.748974,0.726938,-0.834318,0.21427,0.027623,-0.00174
0.196354,-0.407158,0.76893,-0.028353,-0.021881,-0.9698540000000001,-0.241041,0.062611,-0.072904,0.349087,0.310757,-0.404733,0.083029,-0.502568,-0.084042,-0.098771,0.617523,-0.167211,0.096584,-0.035958,-0.067794,0.009144,0.324548,0.310456,0.209797,0.274241,0.565843,0.189161,-0.047347,-0.112205,-0.779838,0.641802,-0.758514,0.096925,0.051704,-0.095875
0.177514,-0.399508,0.766984,-0.022927,-0.020812,-0.972299,-0.231682,0.08917,-0.077878,0.32693,0.294473,-0.419353,0.078808,-0.524517,-0.065165,-0.107192,0.459273,-0.149735,0.138216,-0.038556,-0.06299,0.008652,0.326545,0.32441,0.191417,0.248928,0.564387,0.192432,-0.049969,-0.090955,-0.762777,0.570073,-0.675317,0.157167,0.077204,-0.1632
0.158533,-0.391913,0.764982,-0.016692,-0.019898,-0.97478,-0.221651,0.116202,-0.08269,0.302351,0.272722,-0.427461,0.073932,-0.543954,-0.058456,-0.139498,0.321804,-0.131049,0.16292,-0.03901,-0.059149,0.008109,0.332858,0.332586,0.181102,0.234157,0.568469,0.20608,-0.054588,-0.082531,-0.783344,0.465369,-0.598502,0.119093,0.095213,-0.209384
0.139304,-0.384019,0.762251,-0.011486,-0.02035,-0.976831,-0.212733,0.142492,-0.087748,0.279586,0.257795,-0.437164,0.068176,-0.567522,-0.062111,-0.191662,0.239628,-0.121251,0.225115,-0.038337,-0.056264,0.008685,0.349996,0.328434,0.184067,0.229318,0.567011,0.216255,-0.043494,-0.063102,-0.795972,0.382402,-0.549462,0.070284,0.124724,-0.265466
0.119824,-0.37563,0.758804,-0.007688,-0.021741,-0.978125,-0.206734,0.168288,-0.09169,0.262775,0.251817,-0.448981,0.061273,-0.592626,-0.070643,-0.253447,0.228687,-0.115858,0.244935,-0.038258,-0.053245,0.010649,0.381937,0.314371,0.195854,0.24056,0.56489,0.219772,-0.027028,-0.045404,-0.773514,0.35794,-0.552534,0.113836,0.137639,-0.28696
0.09986,-0.366601,0.755276,-0.005591,-0.022808,-0.97916,-0.20173,0.195269,-0.09258,0.249439,0.253551,-0.456227,0.053202,-0.60718,-0.088078,-0.29806,0.264995,-0.113946,0.216837,-0.041108,-0.048523,0.013321,0.419969,0.298365,0.202625,0.269193,0.571254,0.231521,-0.011478,-0.057563,-0.776825,0.387114,-0.598797,0.073452,0.101577,-0.255059
0.079039,-0.356674,0.752381,-0.004785,-0.024095,-0.980975,-0.192574,0.224019,-0.091507,0.230607,0.259562,-0.457082,0.044005,-0.60629,-0.101641,-0.318959,0.314217,-0.12975,0.151887,-0.044539,-0.042181,0.015104,0.454348,0.291212,0.185856,0.319558,0.599418,0.232765,-0.00038,-0.059721,-0.757473,0.48208,-0.670778,0.089705,0.062236,-0.185636
0.056884,-0.345624,0.75335,-0.004177,-0.024947,-0.983914,-0.176843,0.252903,-0.086117,0.201054,0.274749,-0.451422,0.033147,-0.583897,-0.110895,-0.310521,0.353307,-0.157587,0.116369,-0.047684,-0.034773,0.014467,0.478306,0.293513,0.147662,0.386532,0.65007,0.227909,0.004214,-0.061301,-0.748276,0.602971,-0.746507,0.107183,0.021895,-0.103105
0.034215,-0.333565,0.753938,-0.002786,-0.025647,-0.9876410000000002,-0.154598,0.276628,-0.074241,0.16163,0.289259,-0.433303,0.020259,-0.539191,-0.121035,-0.306422,0.371317,-0.17044,0.089142,-0.049647,-0.0278,0.010342,0.488635,0.298936,0.103729,0.455921,0.703352,0.228168,-0.005066,-0.062857,-0.751353,0.700629,-0.795851,0.079904,-0.015744,-0.021301
0.011118,-0.32085,0.756127,-0.00087,-0.020817,-0.990935,-0.132716,0.305489,-0.049112,0.118092,0.285855,-0.385035,0.004307,-0.474584,-0.121672,-0.347937,0.332226,-0.110083,0.049254,-0.048019,-0.019382,0.001871,0.495581,0.305282,0.080053,0.512909,0.733292,0.228123,-0.025369,-0.034779,-0.71847,0.73457,-0.798271,0.102433,-0.018745,-0.021966
-0.012615,-0.307571,0.758454,0.000678,-0.010758,-0.993528,-0.113077,0.325226,-0.010733,0.071075,0.301861,-0.31678,-0.020263,-0.404178,-0.097368,-0.392391,0.26916,-0.005558,-0.096022,-0.045054,-0.005695,-0.008491,0.501501,0.301921,0.100677,0.549303,0.725971,0.240614,-0.036856,-0.012851,-0.673792,0.66172,-0.753107,0.056204,-0.016806,-0.066954
-0.035463,-0.293983,0.763237,-0.001506,-0.000509,-0.994985,-0.100008,0.321479,0.02892,0.022998,0.374518,-0.238352,-0.076393,-0.359375,-0.076627,-0.420293,0.27349,-0.009592,-0.161474,-0.040353,0.013606,-0.014578,0.51709,0.281597,0.158618,0.570494,0.695655,0.259747,-0.031977,0.014578,-0.606924,0.559207,-0.681703,0.040273,0.01034,-0.140595
-0.058025,-0.280969,0.766163,-0.004879,0.010769,-0.996148,-0.086884,0.281251,0.064614,-0.042559,0.509748,-0.155305,-0.177685,-0.328249,-0.065896,-0.450358,0.319724,-0.053784,-0.163821,-0.03596,0.033068,-0.014721,0.531773,0.264301,0.21531,0.582418,0.662908,0.268035,-0.028493,0.030908,-0.535176,0.46275,-0.622543,0.055452,0.022492,-0.195039
-0.080229,-0.267583,0.769285,-0.009115,0.021146,-0.997823,-0.061798,0.20398,0.094714,-0.104557,0.701572,-0.071524,-0.244471,-0.28733,-0.063482,-0.498515,0.360203,-0.109932,-0.160405,-0.037155,0.046249,-0.010988,0.530935,0.278963,0.216807,0.59505,0.661864,0.265709,-0.053006,0.039436,-0.497719,0.373463,-0.597896,-0.003797,0.012258,-0.212568
-0.101984,-0.254188,0.770798,-0.014695,0.028427,-0.998913,-0.033888,0.099047,0.120068,-0.136478,0.912453,0.013388,-0.247555,-0.232371,-0.057674,-0.551287,0.370775,-0.158275,-0.155562,-0.043973,0.054051,-0.005413,0.523465,0.319646,0.178841,0.600323,0.699368,0.257699,-0.073165,0.050907,-0.459412,0.358487,-0.616782,-0.013006,-0.020412,-0.190882
-0.123628,-0.241715,0.772068,-0.021779,0.032911,-0.999161,-0.010959,-0.012422,0.167597,-0.131137,1.102847,0.055313,-0.247514,-0.170402,-0.045586,-0.595397,0.362181,-0.195406,-0.149597,-0.050134,0.061915,0.000832,0.513047,0.344949,0.155479,0.594163,0.727434,0.254464,-0.07755,0.053953,-0.457791,0.428635,-0.665526,-0.007756,-0.051843,-0.144205
-0.145063,-0.230686,0.772917,-0.029001,0.037385,-0.9988800000000002,-0.000223,-0.109571,0.201007,-0.164484,1.247713,0.015888,-0.24347,-0.110595,-0.022326,-0.620395,0.345107,-0.22267,-0.142155,-0.043723,0.073805,0.007159,0.504804,0.336059,0.171912,0.574146,0.714528,0.256024,-0.075494,0.043158,-0.494333,0.589237,-0.7309,0.012369,-0.089166,-0.043473
-0.165668,-0.22116,0.773673,-0.036391,0.040585,-0.998507,0.003406,-0.197859,0.214852,-0.176996,1.346342,-0.040146,-0.157762,-0.054332,0.003306,-0.628699,0.323846,-0.238503,-0.13314,-0.029575,0.084652,0.014004,0.505346,0.303791,0.210645,0.542681,0.671114,0.26097,-0.066964,0.045975,-0.516115,0.748226,-0.765274,0.1358,-0.074994,0.012784
-0.1852,-0.212999,0.774444,-0.042381,0.041718,-0.99823,-0.001112,-0.274698,0.227581,-0.155074,1.390568,-0.077634,-0.066031,-0.006505,0.02674,-0.61908,0.303315,-0.24481,-0.124283,-0.011675,0.093005,0.020726,0.510083,0.26897,0.229791,0.505109,0.631701,0.260585,-0.063306,0.032241,-0.526896,0.716687,-0.736442,0.099339,-0.068417,-0.028307
-0.203597,-0.206201,0.77464,-0.045921,0.042959,-0.997963,-0.010747,-0.342256,0.227815,-0.124605,1.382452,-0.120026,-0.040255,0.026243,0.044369,-0.59923,0.299792,-0.252345,-0.116711,0.007852,0.098872,0.027191,0.523721,0.248432,0.222133,0.47161,0.614445,0.252629,-0.065663,0.028252,-0.521251,0.639456,-0.667173,0.051559,-0.0363,-0.090628
-0.221372,-0.199982,0.774396,-0.047338,0.042259,-0.997709,-0.023454,-0.397985,0.201255,-0.0948,1.323289,-0.172401,-0.014076,0.050412,0.055502,-0.573458,0.304356,-0.264903,-0.11175,0.025737,0.101702,0.03131,0.54344,0.235377,0.200081,0.449679,0.618867,0.244494,-0.069049,0.029407,-0.499859,0.570488,-0.589913,0.079903,0.002115,-0.138208
-0.23902,-0.193891,0.773124,-0.046238,0.042626,-0.997371,-0.036013,-0.446457,0.168384,-0.069356,1.219492,-0.210191,-0.009627,0.066634,0.065885,-0.547917,0.31853,-0.285728,-0.108572,0.03939,0.101173,0.033789,0.556544,0.224813,0.179744,0.441396,0.629051,0.252063,-0.076493,0.007054,-0.514216,0.50332,-0.531722,0.010132,0.021524,-0.166652
-0.256857,-0.187456,0.770867,-0.042511,0.044034,-0.99697,-0.048003,-0.48258,0.144322,-0.04328,1.069804,-0.231879,-0.037311,0.08017,0.079498,-0.523688,0.330713,-0.311388,-0.105988,0.047965,0.098897,0.034789,0.565747,0.217433,0.168198,0.446046,0.634653,0.262756,-0.081029,-0.002957,-0.513042,0.495353,-0.522688,0.018358,0.030858,-0.172471
-0.275099,-0.180632,0.767718,-0.037309,0.04607,-0.996354,-0.061349,-0.503898,0.125111,-0.019568,0.881852,-0.24567,-0.076782,0.096552,0.097059,-0.497159,0.334394,-0.340788,-0.10198,0.051167,0.09666,0.034221,0.573683,0.212679,0.159183,0.460244,0.643962,0.273236,-0.082554,-0.025838,-0.536869,0.551565,-0.565413,0.0275,0.004309,-0.125947
-0.293447,-0.173497,0.764382,-0.031101,0.046469,-0.995643,-0.074617,-0.507515,0.102529,-0.00369,0.659414,-0.250431,-0.123969,0.117385,0.113377,-0.46989,0.325434,-0.365901,-0.09602,0.051464,0.094039,0.032471,0.580534,0.210134,0.144437,0.482691,0.661073,0.281365,-0.087407,-0.052671,-0.584781,0.677082,-0.646471,0.042066,-0.045177,-0.024208
-0.311475,-0.166288,0.76109,-0.024629,0.047277,-0.994836,-0.086368,-0.501613,0.08332,0.010892,0.432537,-0.243648,-0.169898,0.141213,0.130254,-0.44577,0.308021,-0.381519,-0.09065,0.050698,0.090682,0.030608,0.587298,0.211087,0.129738,0.508607,0.68302,0.288092,-0.093334,-0.061485,-0.624427,0.824625,-0.719436,0.13275,-0.055249,0.066797
-0.328848,-0.159242,0.758126,-0.017746,0.04743,-0.993849,-0.098488,-0.500372,0.068503,0.04349,0.246086,-0.227409,-0.220579,0.163179,0.144488,-0.420702,0.28871,-0.390106,-0.086249,0.048257,0.08707,0.029805,0.586301,0.212914,0.117862,0.52995,0.703135,0.289826,-0.101869,-0.063731,-0.646379,0.8404,-0.725799,0.15098,-0.046601,0.046382
-0.345528,-0.152811,0.755241,-0.011648,0.049717,-0.992899,-0.107445,-0.529009,0.044425,0.099962,0.191356,-0.226842,-0.246397,0.176851,0.157279,-0.398592,0.289192,-0.403782,-0.083031,0.040828,0.083914,0.032267,0.578736,0.217689,0.119563,0.543476,0.714381,0.300552,-0.108534,-0.073059,-0.658433,0.758854,-0.679489,0.033667,-0.025802,-0.029474
-0.362096,-0.146455,0.755989,-0.007567,0.049281,-0.991987,-0.116082,-0.550929,0.074895,0.156713,0.232841,-0.195548,-0.244366,0.192613,0.164189,-0.375946,0.296426,-0.414345,-0.080892,0.037851,0.079381,0.036376,0.569656,0.217638,0.134787,0.551221,0.715644,0.310276,-0.099287,-0.039903,-0.635923,0.699159,-0.623683,0.02723,0.017676,-0.103475
-0.379367,-0.140622,0.755722,-0.00556,0.050558,-0.99032,-0.129148,-0.556618,0.101909,0.192258,0.305735,-0.176578,-0.17691,0.209837,0.168669,-0.350418,0.306945,-0.413914,-0.079246,0.042155,0.074095,0.040231,0.561914,0.215403,0.162291,0.553443,0.707361,0.317995,-0.088359,-0.015998,-0.62163,0.643984,-0.578795,0.008886,0.034972,-0.135651
-0.397909,-0.135259,0.756111,-0.003777,0.050733,-0.987411,-0.149772,-0.538673,0.108723,0.182224,0.357577,-0.182174,-0.125763,0.223741,0.164289,-0.317261,0.327512,-0.405821,-0.077119,0.051514,0.068039,0.040321,0.559227,0.205863,0.200354,0.547074,0.68664,0.325894,-0.075507,-0.005021,-0.629803,0.599611,-0.545059,-0.082839,0.035347,-0.147829
-0.417691,-0.130177,0.758075,-0.00171,0.049002,-0.983518,-0.174038,-0.502589,0.101897,0.156613,0.365127,-0.179386,-0.106682,0.234628,0.152312,-0.273422,0.350826,-0.381509,-0.074511,0.059639,0.060407,0.036351,0.565182,0.190415,0.234061,0.538446,0.666593,0.323912,-0.060987,0.008526,-0.635814,0.585027,-0.526104,-0.157208,0.030012,-0.143159
-0.43848,-0.125043,0.762061,0.000709,0.041242,-0.979733,-0.196016,-0.449328,0.085724,0.159422,0.300956,-0.087634,-0.030762,0.243058,0.128014,-0.227027,0.367355,-0.328944,-0.071066,0.062299,0.04927,0.029509,0.565362,0.166657,0.257449,0.542956,0.650124,0.321075,-0.052248,0.026947,-0.647724,0.587004,-0.523691,-0.203376,0.027623,-0.13377
-0.46012,-0.120058,0.76725,0.000944,0.033873,-0.976773,-0.211581,-0.395156,0.07811,0.193746,0.253605,-0.011841,0.023745,0.242856,0.099363,-0.189571,0.411036,-0.267723,-0.059869,0.059668,0.033371,0.022956,0.553689,0.152742,0.267583,0.568485,0.649346,0.327388,-0.050132,0.058544,-0.660947,0.588974,-0.529594,-0.233336,0.032518,-0.135049
-0.482429,-0.114336,0.771098,-0.001217,0.025355,-0.974983,-0.220825,-0.359279,0.067028,0.219273,0.258947,-0.027149,0.03782,0.227087,0.065301,-0.165775,0.49014,-0.188201,-0.053226,0.054789,0.012649,0.019233,0.524726,0.1505,0.261552,0.606656,0.675361,0.331181,-0.042467,0.104252,-0.663448,0.580601,-0.535205,-0.25536,0.040304,-0.143536
-0.505054,-0.10855,0.772028,-0.00647,0.017472,-0.973102,-0.229622,-0.32428,0.055582,0.241764,0.28962,-0.063253,0.061415,0.18908,0.026644,-0.14407,0.614955,-0.091949,-0.029584,0.050124,-0.0091,0.017243,0.489996,0.152607,0.252971,0.643658,0.713639,0.335018,-0.036854,0.155407,-0.653743,0.565842,-0.535265,-0.279639,0.047693,-0.15182
-0.527505,-0.103313,0.775422,-0.011418,0.010508,-0.9694990000000001,-0.244605,-0.284734,0.046676,0.272786,0.308415,-0.101775,0.086263,0.11949,-0.01451,-0.110693,0.783442,0.015164,0.023161,0.047768,-0.026905,0.01639,0.454052,0.144479,0.259171,0.657907,0.732605,0.323966,-0.021587,0.191913,-0.637447,0.552372,-0.52918,-0.290528,0.05429,-0.153826
-0.549415,-0.098007,0.777074,-0.018309,0.004992,-0.964711,-0.262628,-0.234828,0.038966,0.308364,0.313337,-0.140647,0.096675,0.035244,-0.052035,-0.071617,0.955499,0.120175,0.083376,0.046963,-0.040953,0.017606,0.421459,0.130407,0.268952,0.655452,0.735978,0.309892,-0.002719,0.213014,-0.624081,0.538334,-0.516772,-0.292521,0.06392,-0.157266
-0.570195,-0.09258,0.777591,-0.026019,0.000228,-0.9595570000000002,-0.280309,-0.183608,0.029975,0.343872,0.313636,-0.177856,0.099834,-0.052342,-0.095344,-0.045013,1.108765,0.162375,0.139675,0.046787,-0.053589,0.021952,0.384468,0.121057,0.271175,0.644405,0.725805,0.291045,0.007234,0.210861,-0.625403,0.522294,-0.492489,-0.29453,0.07941,-0.170206
-0.589245,-0.086972,0.77671,-0.033391,-0.006318,-0.955159,-0.294138,-0.146526,0.017442,0.374491,0.328995,-0.216785,0.099088,-0.131544,-0.130694,-0.024263,1.214938,0.065616,0.128378,0.044064,-0.066326,0.027904,0.349188,0.117576,0.254124,0.623938,0.724217,0.263348,0.017161,0.21316,-0.62174,0.493672,-0.461785,-0.288382,0.098006,-0.187521
-0.607405,-0.080796,0.775862,-0.039484,-0.010668,-0.952443,-0.301959,-0.111077,0.004898,0.393867,0.338545,-0.248912,0.096437,-0.204304,-0.155674,-0.021038,1.268403,-0.028069,0.092565,0.03733,-0.076928,0.033051,0.314242,0.121726,0.227736,0.595973,0.728688,0.242811,0.024375,0.216881,-0.608194,0.450413,-0.430528,-0.28067,0.117488,-0.214927
-0.624865,-0.074139,0.775432,-0.042698,-0.01291,-0.95164,-0.30396,-0.079339,-0.006893,0.400148,0.34082,-0.274163,0.09265,-0.266563,-0.185181,-0.049107,1.261354,-0.095439,0.056785,0.026109,-0.083528,0.036115,0.279269,0.128706,0.198309,0.555686,0.730213,0.221464,0.029597,0.219957,-0.590179,0.395628,-0.406789,-0.283833,0.135889,-0.240639
-0.641706,-0.067177,0.774999,-0.043959,-0.014687,-0.95206,-0.30238,-0.052895,-0.018415,0.397595,0.343529,-0.299332,0.088478,-0.318036,-0.204366,-0.094116,1.199785,-0.161948,0.011143,0.011157,-0.086685,0.037703,0.251497,0.135725,0.170557,0.506791,0.72112,0.207187,0.033307,0.22208,-0.563367,0.33984,-0.398733,-0.264834,0.141405,-0.246895
-0.658143,-0.060075,0.774539,-0.043868,-0.015828,-0.952841,-0.299866,-0.028514,-0.028487,0.391082,0.344977,-0.324533,0.083778,-0.360877,-0.207594,-0.139366,1.093924,-0.206788,-0.018178,-0.006025,-0.086936,0.037877,0.234954,0.1445,0.140081,0.449361,0.697099,0.187774,0.027275,0.211224,-0.531662,0.286986,-0.402858,-0.214384,0.153854,-0.231163
-0.674415,-0.05281,0.773858,-0.042386,-0.016443,-0.953514,-0.297899,-0.005119,-0.035609,0.385826,0.345841,-0.350201,0.079023,-0.390941,-0.192353,-0.179423,0.941228,-0.223753,-0.032719,-0.023908,-0.084864,0.037379,0.230682,0.160759,0.105838,0.38841,0.672436,0.175205,0.028132,0.174077,-0.49442,0.235421,-0.419493,-0.169096,0.169784,-0.2089
-0.690648,-0.045561,0.772386,-0.040541,-0.017637,-0.954086,-0.296251,0.01961,-0.044079,0.381663,0.342897,-0.375015,0.075564,-0.413921,-0.162559,-0.197003,0.7595,-0.22227,0.001947,-0.040178,-0.080919,0.036272,0.229031,0.185479,0.064147,0.334384,0.654327,0.168691,0.021438,0.112447,-0.459204,0.19691,-0.448301,-0.110588,0.194585,-0.173671
-0.706868,-0.038345,0.770503,-0.03795,-0.018049,-0.955079,-0.293358,0.047361,-0.052624,0.374437,0.330721,-0.395565,0.071885,-0.427513,-0.119416,-0.187746,0.557063,-0.206825,0.036707,-0.053264,-0.07534,0.034206,0.226557,0.21448,0.025614,0.289835,0.639574,0.163183,0.010152,0.035009,-0.425759,0.161436,-0.490765,-0.048748,0.224053,-0.146011
-0.723004,-0.031254,0.768751,-0.032988,-0.017879,-0.956833,-0.288206,0.074628,-0.061261,0.361682,0.307946,-0.409215,0.06798,-0.439456,-0.077936,-0.16417,0.359703,-0.182086,0.074357,-0.060377,-0.067052,0.031836,0.214554,0.239895,-0.005377,0.260741,0.633757,0.181326,0.001588,-0.04865,-0.413297,0.12175,-0.546921,-0.04309,0.218894,-0.146672
-0.738967,-0.024087,0.766615,-0.027342,-0.019187,-0.9591130000000002,-0.281045,0.097208,-0.071783,0.344567,0.288932,-0.422405,0.064534,-0.462042,-0.056685,-0.152673,0.220011,-0.166452,0.145617,-0.060553,-0.057996,0.029905,0.207248,0.257767,-0.027446,0.241351,0.626796,0.195932,-0.010865,-0.114814,-0.400632,0.079664,-0.609394,-0.029296,0.211491,-0.145798
-0.75455,-0.016466,0.764005,-0.021957,-0.021803,-0.961185,-0.274165,0.113339,-0.081333,0.32643,0.282307,-0.43843,0.060312,-0.502965,-0.063583,-0.184373,0.20394,-0.153516,0.239346,-0.055645,-0.050675,0.029941,0.209651,0.263409,-0.034075,0.229771,0.617665,0.215463,-0.008619,-0.172519,-0.404249,0.030698,-0.66288,-0.015625,0.211298,-0.14002
-0.770024,-0.008213,0.761595,-0.017087,-0.022619,-0.963917,-0.26469,0.128688,-0.085028,0.305794,0.280256,-0.452427,0.054936,-0.550588,-0.083204,-0.20737,0.274633,-0.125012,0.209449,-0.05296,-0.043944,0.031613,0.227347,0.260066,-0.033579,0.221871,0.624483,0.229557,-0.011237,-0.219641,-0.434102,-0.024128,-0.670066,-0.041231,0.216715,-0.145789
-0.786055,0.00143,0.759355,-0.01458,-0.022385,-0.967969,-0.249646,0.148588,-0.084107,0.277706,0.282222,-0.463329,0.046658,-0.572039,-0.104067,-0.229705,0.34706,-0.133236,0.134623,-0.054281,-0.037882,0.03242,0.247226,0.253136,-0.033004,0.23418,0.627943,0.240438,-0.006135,-0.245313,-0.482424,-0.08509,-0.640278,-0.071645,0.244127,-0.142685
-0.80291,0.012294,0.757396,-0.013234,-0.021052,-0.973285,-0.22825,0.170146,-0.078277,0.23894,0.288658,-0.470608,0.036585,-0.568691,-0.122571,-0.252337,0.402926,-0.148647,0.103731,-0.057136,-0.03237,0.031449,0.26846,0.258333,-0.045408,0.27133,0.648271,0.237667,-0.002376,-0.24564,-0.519406,-0.15272,-0.596893,-0.06434,0.276309,-0.142992
-0.82055,0.024424,0.75582,-0.01195,-0.02003,-0.97847,-0.205065,0.191518,-0.068855,0.196213,0.298197,-0.47334,0.023982,-0.539533,-0.133654,-0.277239,0.424312,-0.158839,0.112554,-0.058807,-0.027614,0.027652,0.283995,0.271929,-0.07053,0.321103,0.68662,0.231546,0.000563,-0.229577,-0.570921,-0.214329,-0.561326,-0.058865,0.295618,-0.147633
-0.838745,0.037703,0.755759,-0.009927,-0.019254,-0.983122,-0.181663,0.213583,-0.055866,0.151827,0.302992,-0.465719,0.010348,-0.492007,-0.138887,-0.311725,0.416238,-0.158997,0.124145,-0.058149,-0.023811,0.021634,0.298913,0.286837,-0.094585,0.373405,0.721981,0.227961,-0.006533,-0.194577,-0.617068,-0.26403,-0.569407,-0.045831,0.282069,-0.145847
-0.857453,0.051959,0.761576,-0.005919,-0.013975,-0.987439,-0.157271,0.242322,-0.03111,0.103056,0.290649,-0.43299,-0.004912,-0.432003,-0.12444,-0.34756,0.363569,-0.12004,0.043342,-0.05632,-0.018753,0.012845,0.316239,0.305096,-0.110735,0.417776,0.747106,0.225025,-0.015373,-0.138375,-0.644273,-0.309897,-0.611546,-0.053657,0.251647,-0.135897
-0.87644,0.066988,0.765924,-0.001791,-0.005038,-0.990237,-0.139292,0.265483,0.005403,0.064057,0.285889,-0.38549,-0.023546,-0.373031,-0.091631,-0.383436,0.299234,-0.054528,-0.091467,-0.055325,-0.010114,0.0029,0.345567,0.314721,-0.097028,0.455988,0.74439,0.22636,-0.017509,-0.088603,-0.640849,-0.343733,-0.657496,-0.060226,0.224099,-0.129717
-0.895812,0.08239,0.768079,-0.001491,0.003348,-0.991227,-0.132119,0.276459,0.040407,0.040835,0.323966,-0.329046,-0.041499,-0.327795,-0.061177,-0.400834,0.290278,-0.064113,-0.15063,-0.056754,0.003149,-0.003119,0.39027,0.302399,-0.054599,0.499116,0.72705,0.234674,-0.016152,-0.055305,-0.623348,-0.360037,-0.67265,-0.061321,0.220546,-0.128589
-0.91495,0.097245,0.771056,-0.00421,0.011442,-0.99202,-0.125488,0.264981,0.073318,0.013802,0.406266,-0.254179,-0.074835,-0.290546,-0.043427,-0.42337,0.311497,-0.098,-0.145875,-0.058559,0.01764,-0.004013,0.430373,0.280775,-0.015353,0.554429,0.720209,0.256697,-0.043166,-0.032775,-0.604609,-0.375986,-0.66144,-0.064599,0.224879,-0.13755
-0.9328630000000001,0.111983,0.772591,-0.006817,0.019582,-0.993711,-0.11004,0.214258,0.110488,-0.02634,0.546744,-0.181559,-0.15628,-0.254798,-0.030771,-0.456821,0.333754,-0.13565,-0.150909,-0.062174,0.028966,-0.001824,0.448465,0.279781,-0.016043,0.607944,0.734407,0.25223,-0.074131,-0.010936,-0.594639,-0.401416,-0.639721,-0.070981,0.233281,-0.144696
-0.950228,0.126294,0.77356,-0.0098,0.027216,-0.995462,-0.090656,0.133581,0.148999,-0.060952,0.732335,-0.104066,-0.239288,-0.215209,-0.017483,-0.495232,0.344509,-0.174043,-0.155414,-0.066168,0.037452,0.00193,0.449075,0.308226,-0.055225,0.652138,0.774439,0.237836,-0.108377,0.010362,-0.585437,-0.431668,-0.626621,-0.066884,0.235488,-0.152238
-0.967585,0.140179,0.773046,-0.014536,0.032847,-0.996702,-0.072767,0.037638,0.180798,-0.076319,0.9295310000000001,-0.033455,-0.247165,-0.169413,-0.002159,-0.530155,0.344366,-0.21033,-0.154757,-0.070046,0.045363,0.007924,0.44332,0.335292,-0.083586,0.671172,0.808048,0.223366,-0.115401,0.029507,-0.58242,-0.457215,-0.630462,-0.070483,0.226933,-0.149786
-0.984941,0.153127,0.772322,-0.019879,0.037604,-0.997169,-0.062011,-0.063626,0.21745,-0.08909,1.110336,0.014331,-0.24571,-0.121493,0.019256,-0.553036,0.334787,-0.23961,-0.152209,-0.070652,0.055835,0.015488,0.439755,0.3296,-0.054624,0.667045,0.792992,0.225112,-0.102912,0.036493,-0.578579,-0.471064,-0.64096,-0.07078,0.209169,-0.136946
-1.001994,0.164791,0.771909,-0.025343,0.040482,-0.997129,-0.058752,-0.154505,0.239999,-0.102664,1.241752,0.002658,-0.208931,-0.075273,0.041732,-0.561072,0.32096,-0.260346,-0.148502,-0.064998,0.067937,0.022466,0.440541,0.296663,0.006304,0.648133,0.7456,0.228111,-0.079342,0.031332,-0.575976,-0.476615,-0.638244,-0.074784,0.204301,-0.124896
-1.01831,0.174895,0.771858,-0.029163,0.04155,-0.996754,-0.062493,-0.234075,0.245998,-0.099721,1.316988,-0.055255,-0.129889,-0.038175,0.061026,-0.554827,0.31017,-0.272875,-0.144736,-0.054533,0.078016,0.028215,0.440653,0.260378,0.055108,0.625646,0.697768,0.223303,-0.061803,0.011709,-0.569497,-0.477831,-0.611846,-0.069461,0.219036,-0.127858
-1.034077,0.183675,0.772258,-0.031511,0.039655,-0.9961080000000002,-0.07214,-0.298726,0.246993,-0.071552,1.330063,-0.114281,-0.066272,-0.00931,0.072857,-0.535817,0.304697,-0.281417,-0.13948,-0.039184,0.085549,0.032912,0.439982,0.241426,0.056607,0.605704,0.691286,0.213902,-0.042113,-0.013405,-0.573873,-0.471327,-0.570988,-0.06445,0.237973,-0.135138
-1.049482,0.191754,0.772571,-0.031343,0.037839,-0.995269,-0.083812,-0.353851,0.238736,-0.034171,1.285592,-0.177322,-0.022828,0.011397,0.082919,-0.511787,0.304801,-0.289184,-0.134568,-0.0204,0.090882,0.036818,0.43845,0.240321,0.032391,0.585035,0.713314,0.20447,-0.033665,-0.032724,-0.588889,-0.455641,-0.543114,-0.066922,0.249442,-0.13844
-1.064867,0.199734,0.772636,-0.029175,0.035704,-0.994296,-0.096172,-0.398825,0.216189,0.005455,1.188511,-0.227109,0.012352,0.027367,0.091315,-0.485996,0.308415,-0.298331,-0.129779,-0.000806,0.094059,0.039131,0.436335,0.239622,0.018501,0.558834,0.725533,0.195779,-0.039653,-0.041313,-0.609018,-0.428321,-0.547774,-0.075342,0.237028,-0.139497
-1.080432,0.208018,0.772064,-0.025639,0.034009,-0.993077,-0.109476,-0.430657,0.18793,0.044198,1.047168,-0.256913,0.013827,0.040069,0.099878,-0.459412,0.316896,-0.312791,-0.125436,0.01621,0.095473,0.039954,0.437964,0.227403,0.034609,0.528325,0.704988,0.198961,-0.03933,-0.044364,-0.630001,-0.393617,-0.57559,-0.095443,0.215698,-0.132855
-1.096297,0.216926,0.770919,-0.021079,0.032351,-0.991574,-0.123654,-0.448262,0.151988,0.076981,0.871496,-0.274782,-0.003191,0.054421,0.110037,-0.432156,0.320983,-0.328726,-0.121385,0.029426,0.095294,0.038987,0.443382,0.208619,0.061617,0.49983,0.665534,0.201494,-0.036185,-0.049802,-0.64461,-0.357045,-0.597368,-0.102027,0.194243,-0.123717
-1.112403,0.22647,0.769418,-0.016149,0.031311,-0.989712,-0.138669,-0.459302,0.101695,0.081027,0.684264,-0.278028,-0.033142,0.071399,0.122355,-0.403789,0.321335,-0.345201,-0.117475,0.038906,0.093891,0.037421,0.450871,0.199171,0.076054,0.483166,0.636661,0.203499,-0.034009,-0.058263,-0.661751,-0.330299,-0.583698,-0.108164,0.210296,-0.130124
-1.128465,0.236776,0.7699,-0.011263,0.030709,-0.987876,-0.151757,-0.465951,0.053794,0.073277,0.498944,-0.264129,-0.100347,0.095056,0.138036,-0.377834,0.314254,-0.358066,-0.11412,0.04472,0.0915,0.035295,0.457518,0.206328,0.065785,0.47643,0.642222,0.201597,-0.031094,-0.068221,-0.683851,-0.309427,-0.548257,-0.113817,0.233943,-0.134897
-1.144322,0.247555,0.767764,-0.005686,0.030859,-0.986362,-0.161571,-0.472539,0.012369,0.067899,0.335592,-0.242608,-0.153762,0.120721,0.155656,-0.35554,0.296797,-0.368372,-0.112482,0.048334,0.088541,0.033989,0.458332,0.222907,0.046279,0.47672,0.667043,0.19851,-0.02547,-0.076582,-0.69789,-0.294407,-0.523707,-0.101729,0.248836,-0.139918
-1.160171,0.258545,0.764565,0.000171,0.032525,-0.98504,-0.16923,-0.484104,-0.013856,0.092825,0.220434,-0.208423,-0.23463,0.143384,0.17442,-0.335682,0.285148,-0.377972,-0.112396,0.048607,0.085912,0.034383,0.45761,0.237498,0.037052,0.480548,0.686404,0.199848,-0.019994,-0.078655,-0.705932,-0.282886,-0.53163,-0.107697,0.234705,-0.14631
-1.176196,0.269425,0.761447,0.005043,0.034831,-0.983499,-0.177458,-0.497571,-0.022607,0.144925,0.193536,-0.178189,-0.244342,0.159902,0.190091,-0.31432,0.29053,-0.38616,-0.11377,0.04639,0.083774,0.036231,0.459282,0.240088,0.047747,0.486595,0.689502,0.205034,-0.013559,-0.075287,-0.701254,-0.265669,-0.55907,-0.123694,0.205123,-0.148598
-1.192657,0.280239,0.759399,0.007914,0.036188,-0.9809580000000001,-0.190657,-0.502315,-0.003713,0.196611,0.23776,-0.138325,-0.187314,0.175004,0.200203,-0.28656,0.306682,-0.387415,-0.117189,0.046067,0.080743,0.038873,0.46723,0.229876,0.070488,0.494707,0.680876,0.207357,-0.00029,-0.069542,-0.695643,-0.235346,-0.575659,-0.153296,0.192036,-0.137806
-1.210157,0.290902,0.758891,0.008999,0.037856,-0.976601,-0.211508,-0.483669,0.019651,0.243969,0.288849,-0.107953,-0.118446,0.189636,0.204834,-0.250552,0.334407,-0.379768,-0.120195,0.048399,0.075942,0.039903,0.482125,0.214968,0.095464,0.507405,0.67233,0.208232,0.014189,-0.070685,-0.686867,-0.183974,-0.566188,-0.169659,0.187701,-0.127089
