hanqing-shi/Humanoids-Motion-Generation/dataset/data_joint/walk/walk2_subject4_seg2.csv
root_x,root_y,root_z,root_qx,root_qy,root_qz,root_qw,left_hip_pitch_joint,left_hip_roll_joint,left_hip_yaw_joint,left_knee_joint,left_ankle_pitch_joint,left_ankle_roll_joint,right_hip_pitch_joint,right_hip_roll_joint,right_hip_yaw_joint,right_knee_joint,right_ankle_pitch_joint,right_ankle_roll_joint,waist_yaw_joint,waist_roll_joint,waist_pitch_joint,left_shoulder_pitch_joint,left_shoulder_roll_joint,left_shoulder_yaw_joint,left_elbow_joint,left_wrist_roll_joint,left_wrist_pitch_joint,left_wrist_yaw_joint,right_shoulder_pitch_joint,right_shoulder_roll_joint,right_shoulder_yaw_joint,right_elbow_joint,right_wrist_roll_joint,right_wrist_pitch_joint,right_wrist_yaw_joint
-1.350027,-1.400178,0.784336,-0.009941,0.021142,0.969515,0.243917,-0.154473,-0.142638,0.011097,0.260524,-0.182757,0.102208,0.011115,0.015461,-0.004023,0.714501,-0.096822,0.09966100000000001,0.021608,0.014047,0.082561,0.100697,0.180231,-0.210258,0.752664,0.781412,0.09615000000000001,0.080843,0.140157,-0.129957,-0.000449,0.633959,-0.935197,0.130135,-0.062398
-1.359142,-1.396438,0.781981,-0.006388,0.025382,0.968868,0.246192,-0.137196,-0.153792,0.016628,0.265263,-0.200844,0.104211,-0.035413,-0.00045,-0.002377,0.824889,-0.057546,0.129957,0.027979,0.003729,0.082685,0.096399,0.165395,-0.195676,0.743423,0.776005,0.092835,0.096933,0.122169,-0.152772,0.083096,0.669769,-0.9933940000000001,0.124275,-0.031645
-1.36842,-1.392292,0.781482,-0.002227,0.028956,0.968108,0.248843,-0.116044,-0.163419,0.021444,0.266614,-0.217456,0.105932,-0.083933,-0.013064,0.003098,0.938112,-0.010098,0.16408,0.033576,-0.006598,0.0839,0.085443,0.152344,-0.188299,0.746703,0.773218,0.094764,0.103279,0.117815,-0.170886,0.136843,0.683419,-1.025756,0.105054,-0.001682
-1.377507,-1.387932,0.779916,0.002889,0.03209,0.967228,0.251855,-0.091327,-0.172563,0.02573,0.264886,-0.233633,0.107398,-0.133443,-0.027074,0.006422,1.042982,0.046608,0.197077,0.038375,-0.016646,0.08636,0.076058,0.139394,-0.185857,0.753171,0.770805,0.097086,0.102921,0.118876,-0.175981,0.165568,0.689181,-1.030362,0.089913,0.024805
-1.386334,-1.383347,0.778278,0.007919,0.034234,0.966555,0.25404,-0.065418,-0.180013,0.02756,0.261015,-0.247465,0.108277,-0.181297,-0.04241,0.006681,1.135637,0.104842,0.23327,0.041641,-0.02609,0.089315,0.065609,0.128409,-0.189631,0.764375,0.770428,0.100008,0.096523,0.123206,-0.172225,0.176535,0.689349,-1.01664,0.082185,0.036949
-1.394711,-1.378537,0.776688,0.012695,0.036124,0.966064,0.25545,-0.043128,-0.186421,0.028375,0.262204,-0.259466,0.108336,-0.225449,-0.05351,0.009433,1.212866,0.134058,0.244998,0.042577,-0.034667,0.092107,0.053431,0.119862,-0.202968,0.782719,0.776848,0.104212,0.085448,0.12973,-0.165382,0.178607,0.688052,-0.995048,0.079627,0.034137
-1.402598,-1.373519,0.774972,0.017246,0.038422,0.9656380000000001,0.256454,-0.027483,-0.192748,0.029653,0.273985,-0.273632,0.107849,-0.264538,-0.05283,0.026879,1.266711,0.076786,0.24008,0.040677,-0.042127,0.09483,0.040696,0.111106,-0.223081,0.807573,0.788784,0.11172,0.07581,0.136778,-0.158758,0.177447,0.688955,-0.975704,0.085306,0.02011
-1.410186,-1.368293,0.773235,0.021135,0.040624,0.96529,0.257136,-0.017158,-0.198008,0.031091,0.293508,-0.290077,0.107053,-0.301349,-0.057635,0.041529,1.291927,-0.04978,0.199444,0.03741,-0.048619,0.097323,0.02856,0.100103,-0.244627,0.835707,0.797602,0.117636,0.06425,0.143658,-0.150016,0.171062,0.692266,-0.956363,0.09862000000000001,-0.003812
-1.417837,-1.362812,0.771927,0.024022,0.041433,0.965237,0.25695,-0.005036,-0.200195,0.030051,0.308414,-0.304011,0.105847,-0.336063,-0.074475,0.043174,1.284624,-0.143148,0.153699,0.032488,-0.054178,0.099061,0.017975,0.092755,-0.271844,0.86334,0.811761,0.118122,0.052054,0.149882,-0.135243,0.156709,0.696805,-0.928817,0.114952,-0.042047
-1.425545,-1.357081,0.771035,0.026194,0.041707,0.96544,0.25593,0.009386,-0.200873,0.02694,0.317623,-0.315262,0.104236,-0.366993,-0.090757,0.042196,1.242804,-0.196561,0.096534,0.025277,-0.058614,0.100558,0.012333,0.08965,-0.300733,0.882112,0.83266,0.103953,0.034457,0.154319,-0.118629,0.136606,0.702635,-0.891128,0.13124,-0.086549
-1.433235,-1.351145,0.770366,0.02731,0.04181,0.965683,0.254876,0.023934,-0.200358,0.022896,0.323501,-0.32758,0.102449,-0.394152,-0.096422,0.047324,1.171247,-0.241584,0.06042,0.016919,-0.061783,0.102148,0.015161,0.090064,-0.318929,0.882338,0.856526,0.076031,0.017946,0.154008,-0.110086,0.127476,0.709979,-0.863995,0.145711,-0.113935
-1.440987,-1.345033,0.769979,0.027288,0.041263,0.965929,0.254034,0.039674,-0.19786,0.017825,0.324254,-0.339172,0.100793,-0.417361,-0.094125,0.054996,1.075642,-0.273084,0.045023,0.008978,-0.063333,0.103439,0.030586,0.087292,-0.308919,0.854948,0.866784,0.038186,0.027294,0.146596,-0.107525,0.13007,0.723536,-0.852631,0.156861,-0.124892
-1.448841,-1.338795,0.769773,0.026457,0.040089,0.966072,0.253769,0.057479,-0.193476,0.012892,0.319043,-0.348948,0.099124,-0.435158,-0.092219,0.058688,0.961675,-0.284935,0.041882,0.002414,-0.063236,0.104257,0.04549,0.081293,-0.277982,0.824417,0.854644,-0.004844,0.063611,0.146486,-0.112993,0.139538,0.723094,-0.851973,0.163168,-0.118872
-1.456777,-1.332475,0.769587,0.024532,0.038698,0.966204,0.253674,0.076147,-0.187792,0.008365,0.307862,-0.355659,0.097025,-0.448787,-0.088997,0.060975,0.835716,-0.274364,0.041412,-0.002347,-0.061829,0.104523,0.061712,0.074895,-0.245286,0.791661,0.834145,-0.043441,0.112047,0.148095,-0.117402,0.145224,0.720828,-0.850471,0.167626,-0.11245
-1.464838,-1.32599,0.769357,0.021724,0.036907,0.966365,0.253584,0.096396,-0.180438,0.003632,0.290415,-0.358321,0.094297,-0.455826,-0.081349,0.066614,0.699798,-0.239866,0.052545,-0.005337,-0.059191,0.104,0.073651,0.074266,-0.224837,0.761665,0.822226,-0.073656,0.167966,0.151471,-0.118682,0.1461,0.720069,-0.843992,0.169195,-0.111386
-1.473081,-1.319311,0.768912,0.018519,0.035069,0.9665760000000002,0.253293,0.11832,-0.172596,-0.001504,0.268163,-0.357793,0.09141,-0.455728,-0.070406,0.078722,0.559448,-0.195087,0.063953,-0.00714,-0.055629,0.102674,0.079201,0.079754,-0.219315,0.73812,0.820999,-0.100136,0.21941,0.155702,-0.12009,0.14689,0.724532,-0.839641,0.172806,-0.109281
-1.481535,-1.312356,0.768265,0.014932,0.033464,0.966951,0.252315,0.140905,-0.164818,-0.007787,0.242852,-0.354096,0.088406,-0.449193,-0.058162,0.09825,0.426025,-0.156898,0.081674,-0.008578,-0.051527,0.100805,0.077717,0.089231,-0.223018,0.723358,0.827758,-0.115211,0.266806,0.159569,-0.122273,0.149585,0.732446,-0.841849,0.178246,-0.104504
-1.490282,-1.304919,0.767363,0.011695,0.032278,0.967527,0.250427,0.163529,-0.15734,-0.015181,0.219603,-0.34981,0.08473,-0.439119,-0.045141,0.123735,0.316878,-0.126715,0.102802,-0.009837,-0.047303,0.098751,0.071052,0.098778,-0.231211,0.716235,0.831943,-0.129189,0.306072,0.163647,-0.125423,0.153014,0.743131,-0.849532,0.183377,-0.096431
-1.499286,-1.296929,0.766083,0.009348,0.031462,0.968068,0.248529,0.185333,-0.150082,-0.022238,0.20217,-0.347385,0.080063,-0.430331,-0.034105,0.138752,0.259346,-0.1029,0.124756,-0.010568,-0.043595,0.097034,0.061049,0.108497,-0.240818,0.719327,0.831602,-0.139729,0.336246,0.16846,-0.126615,0.153667,0.755781,-0.857008,0.189696,-0.087547
-1.507993,-1.288676,0.765864,0.007831,0.030265,0.968667,0.246387,0.206274,-0.141481,-0.029716,0.189357,-0.34206,0.073713,-0.426608,-0.023927,0.143373,0.266114,-0.069888,0.12219,-0.011408,-0.040256,0.095981,0.048393,0.1185,-0.249785,0.730373,0.828279,-0.145518,0.361782,0.173224,-0.124081,0.15178,0.769085,-0.861683,0.19688,-0.079295
-1.517309,-1.279674,0.766305,0.00664,0.029557,0.96929,0.244046,0.225787,-0.132869,-0.036379,0.18184,-0.331386,0.066162,-0.423911,-0.015911,0.138662,0.289044,-0.038312,0.10438,-0.012696,-0.036912,0.09458200000000001,0.034097,0.127245,-0.257074,0.747498,0.82599,-0.144208,0.386888,0.177763,-0.119741,0.145925,0.780763,-0.862131,0.201744,-0.078284
-1.527652,-1.270064,0.768182,0.005592,0.028473,0.969721,0.242485,0.247273,-0.123683,-0.037403,0.179805,-0.313642,0.061541,-0.414909,-0.007626,0.131916,0.313905,-0.022933,0.081406,-0.014276,-0.032574,0.092731,0.021771,0.132199,-0.259568,0.770128,0.821849,-0.137566,0.40669,0.181628,-0.114258,0.138571,0.792648,-0.85942,0.207543,-0.078311
-1.53805,-1.260326,0.770443,0.004849,0.026918,0.970016,0.241497,0.263079,-0.112971,-0.035526,0.18411,-0.290192,0.054158,-0.408373,0.001761,0.124563,0.341521,-0.038064,0.060743,-0.016126,-0.026973,0.090782,0.011983,0.13187,-0.25518,0.79883,0.81497,-0.119362,0.412737,0.185009,-0.110611,0.135265,0.803234,-0.860195,0.209211,-0.079408
-1.54877,-1.250308,0.772964,0.004036,0.025683,0.970223,0.240814,0.273982,-0.102603,-0.035035,0.195235,-0.25959,0.042188,-0.397949,0.011143,0.118481,0.36337,-0.055738,0.03641,-0.018539,-0.02113,0.088351,0.0078,0.124617,-0.241938,0.828954,0.800041,-0.090818,0.394711,0.186893,-0.112282,0.140184,0.812639,-0.871639,0.210819,-0.076649
-1.559662,-1.240148,0.775837,0.00269,0.024305,0.970478,0.239948,0.281657,-0.092105,-0.039701,0.20799,-0.221425,0.027379,-0.380653,0.020438,0.112463,0.370886,-0.069756,0.011459,-0.021663,-0.015721,0.085157,0.007355,0.117305,-0.223747,0.851715,0.780562,-0.057952,0.342554,0.186407,-0.11471,0.146341,0.817679,-0.883957,0.208761,-0.069365
-1.570585,-1.229921,0.77871,0.001421,0.02325,0.9707420000000001,0.238994,0.28716,-0.082507,-0.046118,0.222938,-0.178164,0.012486,-0.35988,0.028586,0.106125,0.371763,-0.083829,-0.012113,-0.025469,-0.010693,0.081599,0.008444,0.113715,-0.206235,0.864125,0.764654,-0.017019,0.270655,0.184591,-0.116417,0.149296,0.817372,-0.892698,0.205888,-0.062406
-1.581405,-1.219748,0.78122,0.000329,0.022427,0.9710160000000002,0.237961,0.289682,-0.073583,-0.050779,0.243061,-0.135988,-0.002752,-0.337486,0.035448,0.099559,0.369364,-0.099654,-0.026504,-0.029217,-0.005992,0.077697,0.009979,0.118393,-0.199099,0.864677,0.762477,0.017019,0.200244,0.18201,-0.116596,0.147414,0.811499,-0.894756,0.201504,-0.060244
-1.591947,-1.20972,0.783257,-0.000849,0.021695,0.971274,0.236971,0.287504,-0.064858,-0.053164,0.27053,-0.097005,-0.019176,-0.315312,0.041979,0.093323,0.365404,-0.115429,-0.036897,-0.032453,-0.001559,0.0737,0.012705,0.131027,-0.202828,0.859731,0.774052,0.040267,0.140399,0.178713,-0.115721,0.143292,0.802512,-0.892164,0.194399,-0.062085
-1.60211,-1.199819,0.784851,-0.002103,0.020833,0.9714370000000001,0.23637,0.279966,-0.055936,-0.054842,0.306781,-0.060873,-0.038299,-0.292518,0.049254,0.087944,0.358171,-0.129334,-0.046288,-0.035227,0.002689,0.069959,0.015962,0.147852,-0.212743,0.854999,0.793396,0.053827,0.098163,0.173683,-0.114338,0.13826,0.793406,-0.887688,0.187748,-0.066769
-1.611873,-1.190139,0.785994,-0.002916,0.019713,0.97152,0.23612,0.265035,-0.047521,-0.055863,0.356959,-0.026393,-0.058208,-0.268354,0.057082,0.08354,0.348551,-0.142049,-0.054573,-0.037628,0.006771,0.067151,0.02014,0.16491,-0.223555,0.852389,0.813876,0.06313,0.074776,0.166075,-0.112739,0.134513,0.786511,-0.884518,0.18508,-0.071947
-1.62102,-1.180755,0.786558,-0.003432,0.018481,0.971699,0.235472,0.237501,-0.039955,-0.057545,0.428949,0.003293,-0.079128,-0.245436,0.064894,0.078889,0.340509,-0.155193,-0.061687,-0.039631,0.010283,0.065765,0.024699,0.179687,-0.229617,0.85104,0.828327,0.072664,0.062549,0.155583,-0.110747,0.132914,0.781224,-0.883098,0.184846,-0.075075
-1.629477,-1.171655,0.786813,-0.003409,0.017711,0.9720510000000001,0.234077,0.194291,-0.031381,-0.052263,0.52807,0.033768,-0.109461,-0.224286,0.071344,0.073585,0.335548,-0.169645,-0.06743,-0.041974,0.012575,0.065894,0.028772,0.191981,-0.2316,0.849143,0.836573,0.081162,0.055875,0.142697,-0.109013,0.132746,0.775982,-0.88364,0.184563,-0.078739
-1.637714,-1.162698,0.788952,-0.002828,0.017059,0.97262,0.231756,0.139022,-0.019054,-0.041185,0.653291,0.063234,-0.152329,-0.202693,0.076465,0.067052,0.331492,-0.18475,-0.071717,-0.044635,0.013815,0.067616,0.036228,0.201079,-0.228091,0.839217,0.840485,0.08565,0.05169,0.123838,-0.103695,0.132243,0.769979,-0.882635,0.191016,-0.080456
-1.645435,-1.154133,0.789066,-0.002214,0.01565,0.97351,0.228098,0.071016,0.000111,-0.025336,0.788168,0.077868,-0.192725,-0.182929,0.082399,0.058033,0.328642,-0.200056,-0.074863,-0.046942,0.014969,0.070844,0.043725,0.209208,-0.22046,0.82478,0.838526,0.089882,0.050781,0.11511,-0.104234,0.129311,0.770128,-0.880302,0.180287,-0.090897
-1.65302,-1.145983,0.788561,-0.001248,0.013435,0.9744060000000001,0.22439,0.00174,0.019567,-0.012951,0.915141,0.06814,-0.201118,-0.16132,0.089493,0.048681,0.32249,-0.213472,-0.07738,-0.047903,0.017323,0.075004,0.046005,0.21524,-0.212519,0.81342,0.832094,0.0915,0.056362,0.106363,-0.105852,0.129176,0.770077,-0.878461,0.165869,-0.100727
-1.660768,-1.138338,0.787883,0.000213,0.010639,0.97505,0.221731,-0.061666,0.032048,-0.007174,1.011603,0.009498,-0.17773,-0.138204,0.097489,0.041156,0.315011,-0.225742,-0.078621,-0.047187,0.020568,0.079514,0.053781,0.220583,-0.201693,0.798322,0.821455,0.088749,0.066188,0.090813,-0.106819,0.126877,0.77705,-0.878744,0.154337,-0.106948
-1.668884,-1.131134,0.787226,0.002003,0.007587,0.975324,0.22064,-0.117617,0.037632,-0.005555,1.068542,-0.04968,-0.158308,-0.112736,0.106021,0.036568,0.304445,-0.235678,-0.07821,-0.044789,0.023804,0.083557,0.06805,0.218551,-0.185485,0.776815,0.809587,0.091804,0.077253,0.070959,-0.104462,0.131043,0.786417,-0.883716,0.153388,-0.113219
-1.677358,-1.124393,0.786449,0.003845,0.004351,0.975188,0.221302,-0.164638,0.04362,-0.000117,1.08278,-0.10321,-0.142889,-0.09013,0.115051,0.034839,0.300117,-0.246438,-0.076557,-0.040912,0.027025,0.086962,0.08639,0.21255,-0.16711,0.754028,0.796027,0.093536,0.094072,0.054054,-0.104531,0.142041,0.801272,-0.892791,0.15393,-0.113687
-1.68615,-1.118008,0.785528,0.005218,0.001292,0.974716,0.223381,-0.205261,0.050302,0.007965,1.058809,-0.162759,-0.1158,-0.073113,0.124095,0.03521,0.305503,-0.258524,-0.07429,-0.035104,0.030486,0.089338,0.107557,0.204036,-0.151605,0.734087,0.781406,0.091299,0.103629,0.037584,-0.106069,0.156247,0.819945,-0.903265,0.156696,-0.107369
-1.69529,-1.111914,0.784432,0.005995,-0.002329,0.974073,0.226142,-0.24198,0.056779,0.014554,1.005387,-0.222934,-0.095534,-0.060464,0.134183,0.036349,0.318725,-0.271723,-0.072066,-0.027738,0.034334,0.090737,0.127906,0.198893,-0.144567,0.719427,0.773037,0.088715,0.103174,0.021325,-0.107467,0.173046,0.840469,-0.914579,0.159748,-0.09773200000000001
-1.704839,-1.105927,0.783442,0.006021,-0.005206,0.973507,0.228517,-0.273424,0.060467,0.022814,0.9249790000000001,-0.261951,-0.066255,-0.04693,0.142634,0.038442,0.328333,-0.284069,-0.070194,-0.019352,0.038451,0.090867,0.144846,0.195494,-0.146388,0.710138,0.772179,0.084538,0.095375,0.006587,-0.110585,0.192114,0.860003,-0.927231,0.161413,-0.086646
-1.714789,-1.099948,0.782448,0.0053,-0.007669,0.973189,0.229818,-0.300781,0.061004,0.032433,0.825464,-0.283005,-0.042406,-0.031322,0.149765,0.039859,0.332375,-0.29588,-0.069082,-0.010423,0.042267,0.089878,0.157558,0.194184,-0.153172,0.707786,0.779988,0.083934,0.084799,-0.004048,-0.114062,0.21072,0.875342,-0.939388,0.163652,-0.074533
-1.725053,-1.09385,0.781301,0.004006,-0.009695,0.973094,0.230171,-0.325653,0.0554,0.040541,0.716096,-0.286588,-0.015363,-0.013115,0.155788,0.039992,0.32959,-0.305734,-0.069137,-0.001074,0.04549,0.088067,0.166608,0.192674,-0.160258,0.71231,0.790477,0.085533,0.067702,-0.009093,-0.115968,0.223873,0.883605,-0.945998,0.164139,-0.065977
-1.735628,-1.087613,0.779904,0.002428,-0.011133,0.973229,0.229555,-0.348873,0.046267,0.048887,0.60542,-0.262836,0.001393,0.006619,0.160377,0.038541,0.322784,-0.314331,-0.070528,0.008361,0.047728,0.085792,0.172369,0.190036,-0.163667,0.722087,0.800362,0.089095,0.052031,-0.008592,-0.116054,0.230526,0.88599,-0.946025,0.162873,-0.06177
-1.746575,-1.081145,0.778172,0.000627,-0.012529,0.973442,0.22859,-0.366823,0.036386,0.061414,0.493645,-0.216175,0.008112,0.027438,0.165283,0.036876,0.313955,-0.322006,-0.074519,0.017468,0.049087,0.082998,0.176754,0.186458,-0.160943,0.736175,0.808433,0.099878,0.045667,-0.00324,-0.114266,0.232626,0.884937,-0.940833,0.161459,-0.061381
-1.757939,-1.074374,0.776102,-0.001289,-0.013723,0.973741,0.227239,-0.381531,0.025829,0.076949,0.385957,-0.15257,-0.000835,0.051153,0.170219,0.03574,0.300277,-0.328368,-0.07841,0.025923,0.049627,0.080078,0.1789,0.181585,-0.154606,0.755617,0.810549,0.11344,0.045007,0.008131,-0.113556,0.23289,0.881379,-0.931657,0.151892,-0.063914
-1.76985,-1.067344,0.773473,-0.00314,-0.015368,0.9740430000000002,0.225819,-0.391836,0.014493,0.089214,0.286363,-0.103018,-0.01579,0.077847,0.176128,0.035423,0.283808,-0.336263,-0.079719,0.033899,0.049447,0.077207,0.17984,0.17301,-0.151122,0.773892,0.813472,0.129066,0.047884,0.01419,-0.109205,0.236334,0.883208,-0.925858,0.149954,-0.061656
-1.782405,-1.060105,0.77038,-0.004735,-0.01712,0.974187,0.225041,-0.398892,0.000334,0.084188,0.201901,-0.076973,-0.023933,0.106006,0.182277,0.03711,0.268417,-0.345693,-0.079347,0.04164,0.048411,0.074625,0.186224,0.170298,-0.147988,0.78798,0.815745,0.135507,0.053014,0.019205,-0.105964,0.24508,0.888368,-0.924743,0.149518,-0.05555
-1.795605,-1.052767,0.766943,-0.006017,-0.019551,0.974204,0.224739,-0.409461,-0.011647,0.072717,0.153935,-0.075218,-0.033018,0.132845,0.189684,0.040296,0.259731,-0.35694,-0.078076,0.048893,0.047132,0.072653,0.193813,0.170156,-0.144881,0.801803,0.817002,0.13796,0.056404,0.02398,-0.102702,0.257277,0.894527,-0.928169,0.147003,-0.050187
-1.809491,-1.045469,0.763713,-0.007076,-0.022497,0.974076,0.224986,-0.415791,-0.020291,0.064147,0.133277,-0.080967,-0.046243,0.158818,0.197728,0.046485,0.255669,-0.366454,-0.075887,0.055228,0.045884,0.070338,0.203601,0.168656,-0.137735,0.815776,0.813738,0.142955,0.054397,0.029582,-0.100028,0.270385,0.902247,-0.935974,0.146338,-0.045482
-1.823849,-1.038365,0.761996,-0.007851,-0.02372,0.973817,0.225954,-0.412707,-0.028079,0.062353,0.133992,-0.072347,-0.038507,0.184961,0.201138,0.054591,0.249722,-0.366564,-0.072462,0.06086,0.044089,0.06813,0.215085,0.163537,-0.129226,0.827215,0.812315,0.149284,0.056104,0.03554,-0.09824,0.279615,0.910178,-0.943923,0.151098,-0.039725
-1.83922,-1.031193,0.764146,-0.008245,-0.021927,0.973005,0.229592,-0.401733,-0.042656,0.040063,0.145294,-0.023302,0.013387,0.212523,0.19752,0.065964,0.245859,-0.356444,-0.067687,0.067507,0.039435,0.066137,0.22655,0.153595,-0.118958,0.837009,0.811421,0.155008,0.055895,0.041515,-0.096975,0.283954,0.9148480000000001,-0.94845,0.155152,-0.033414
-1.855145,-1.024493,0.766429,-0.007242,-0.018816,0.9719890000000002,0.23416,-0.381792,-0.05179,0.037488,0.14937,0.024865,0.034254,0.234763,0.188291,0.076519,0.252259,-0.337068,-0.063948,0.072888,0.032361,0.063505,0.239941,0.139628,-0.103753,0.844874,0.808073,0.15868,0.059845,0.049562,-0.097603,0.284893,0.917781,-0.950101,0.159157,-0.02649
-1.871903,-1.017557,0.768673,-0.006411,-0.013972,0.9711630000000001,0.237918,-0.357908,-0.057651,0.054233,0.150716,0.049407,0.034258,0.249328,0.174878,0.081464,0.271089,-0.308681,-0.059344,0.076321,0.021766,0.059911,0.251211,0.123021,-0.08809,0.853304,0.807293,0.16703,0.060252,0.05417,-0.099297,0.284984,0.923744,-0.946829,0.168195,-0.02663
-1.889438,-1.010299,0.769452,-0.005962,-0.008387,0.970994,0.238882,-0.330984,-0.068907,0.062207,0.157674,0.040447,0.039187,0.255277,0.160396,0.081688,0.303512,-0.269069,-0.044536,0.079521,0.007435,0.055367,0.257578,0.112376,-0.075209,0.860309,0.810912,0.169393,0.058605,0.067231,-0.101371,0.277932,0.922022,-0.936424,0.170712,-0.030413
-1.90709,-1.003055,0.77218,-0.005089,-0.002311,0.971032,0.238885,-0.301306,-0.08487,0.065548,0.155507,0.017424,0.051786,0.253133,0.145044,0.084486,0.348241,-0.217868,-0.014014,0.082366,-0.007914,0.050328,0.259939,0.105134,-0.064818,0.867693,0.816936,0.170985,0.054655,0.086457,-0.105378,0.272523,0.915576,-0.928346,0.173777,-0.030958
-1.924756,-0.995873,0.774918,-0.004453,0.003648,0.970925,0.239313,-0.270941,-0.100856,0.068237,0.150771,-0.003788,0.066641,0.241079,0.130427,0.091923,0.407406,-0.158438,0.034845,0.084754,-0.022079,0.045221,0.258387,0.10057,-0.05712,0.87217,0.823403,0.169017,0.045643,0.106152,-0.110549,0.270464,0.903176,-0.918317,0.171019,-0.027495
-1.941946,-0.988887,0.776689,-0.003616,0.009024,0.970583,0.24057,-0.24718,-0.114812,0.071907,0.157786,-0.02895,0.079394,0.214382,0.119157,0.103554,0.491648,-0.098837,0.099657,0.087027,-0.034614,0.041412,0.252891,0.098277,-0.051631,0.871533,0.831486,0.163835,0.039781,0.120246,-0.121637,0.27985,0.888454,-0.910026,0.156682,-0.016613
-1.958546,-0.982197,0.777395,-0.002321,0.013357,0.970148,0.242134,-0.227404,-0.126533,0.075747,0.172623,-0.057459,0.090011,0.171586,0.109906,0.106993,0.603532,-0.038295,0.17073,0.089223,-0.045276,0.039312,0.242825,0.095292,-0.045389,0.870778,0.838516,0.162879,0.040462,0.126948,-0.140572,0.303789,0.872775,-0.9109640000000001,0.140286,-0.004758
-1.974947,-0.975505,0.779085,0.000159,0.017428,0.969306,0.24524,-0.206096,-0.136969,0.082233,0.189446,-0.087159,0.099119,0.116139,0.099241,0.098612,0.741575,0.020331,0.237097,0.0924,-0.054305,0.039361,0.236586,0.092298,-0.037385,0.87795,0.845468,0.156303,0.059393,0.129494,-0.164156,0.333032,0.855332,-0.917087,0.135123,0.006087
-1.990895,-0.96918,0.779178,0.003065,0.020779,0.96745,0.25219,-0.182404,-0.144523,0.094423,0.201419,-0.11614,0.106386,0.045219,0.08333,0.057001,0.891682,0.078036,0.247395,0.09928600000000001,-0.061211,0.040833,0.219371,0.082908,-0.023416,0.886443,0.848173,0.162067,0.079474,0.125404,-0.185279,0.359181,0.838958,-0.924982,0.140077,0.015502
-2.006413,-0.9629740000000001,0.778726,0.005901,0.023929,0.965097,0.26073,-0.156041,-0.151319,0.109039,0.206359,-0.142922,0.110568,-0.032906,0.049112,0.009887000000000002,1.034266,0.13457,0.247819,0.106065,-0.066969,0.043069,0.196162,0.071367,-0.007147,0.89684,0.84844,0.174083,0.093767,0.116589,-0.199286,0.372004,0.823316,-0.929875,0.160656,0.017153
-2.021451,-0.956656,0.777816,0.009806,0.02776,0.9633100000000001,0.26677,-0.127961,-0.161727,0.120073,0.20966,-0.167589,0.113888,-0.10463,0.020053,0.006389,1.146897,0.12486,0.247808,0.107467,-0.073199,0.045975,0.16878,0.062125,0.003314,0.910476,0.853769,0.191753,0.101176,0.107687,-0.202494,0.366819,0.807964,-0.925409,0.194689,0.010641
-2.035929,-0.950149,0.776393,0.014153,0.032261,0.962648,0.268455,-0.105344,-0.175477,0.124552,0.222783,-0.194182,0.117597,-0.168693,-0.002368,0.035446,1.216318,0.021843,0.247221,0.102813,-0.079744,0.048846,0.137348,0.057047,-0.001588,0.92575,0.870773,0.208309,0.099573,0.101412,-0.19747,0.34474,0.791108,-0.910666,0.233221,-0.006445
-2.0502,-0.943258,0.774771,0.018215,0.036671,0.963029,0.266267,-0.085365,-0.190223,0.121973,0.240905,-0.221974,0.120604,-0.228404,-0.040213,0.049063,1.247222,-0.086634,0.23349,0.093976,-0.08636,0.051211,0.101396,0.056625,-0.021205,0.941396,0.89672,0.216155,0.09236,0.098874,-0.188567,0.31583,0.77196,-0.892828,0.264656,-0.030822
-2.064571,-0.9359980000000001,0.773569,0.021452,0.039211,0.964315,0.260956,-0.060653,-0.2025,0.111539,0.250875,-0.245121,0.122353,-0.281237,-0.073684,0.042827,1.234101,-0.155325,0.172761,0.082008,-0.092087,0.052466,0.060004,0.059273,-0.050392,0.959671,0.927158,0.215005,0.078815,0.100641,-0.172347,0.291491,0.755428,-0.87418,0.285122,-0.055977
-2.078882,-0.928489,0.772713,0.02394,0.040976,0.9661050000000002,0.25375,-0.035473,-0.212732,0.096674,0.259049,-0.265412,0.123233,-0.326133,-0.083995,0.047677,1.180723,-0.220167,0.100932,0.066544,-0.095708,0.052945,0.022403,0.063779,-0.081721,0.972285,0.955668,0.20908,0.062387,0.10031,-0.162211,0.270606,0.738789,-0.858578,0.292961,-0.066919
-2.093162,-0.920901,0.772125,0.025704,0.042482,0.96794,0.246224,-0.010627,-0.221382,0.080277,0.266089,-0.282857,0.123968,-0.363434,-0.083473,0.05776,1.095862,-0.274575,0.054387,0.04954,-0.097291,0.05251,-0.009487,0.065732,-0.108158,0.973014,0.976354,0.200305,0.05012,0.098859,-0.157674,0.255077,0.724577,-0.849057,0.292404,-0.068821
-2.10754,-0.913436,0.771936,0.026154,0.042631,0.969859,0.238478,0.017293,-0.226617,0.061879,0.263636,-0.294266,0.124735,-0.391532,-0.075243,0.070452,0.984358,-0.30071,0.029243,0.032244,-0.096748,0.050823,-0.03542,0.063548,-0.122233,0.960168,0.979036,0.186977,0.052623,0.096504,-0.154829,0.241976,0.714032,-0.841971,0.283423,-0.068812
-2.122027,-0.906218,0.77179,0.025357,0.041774,0.971771,0.23081,0.047621,-0.228838,0.042576,0.252293,-0.300902,0.125296,-0.413291,-0.058896,0.087994,0.857325,-0.297749,0.01335,0.015466,-0.094197,0.048228,-0.055787,0.05934,-0.130823,0.940389,0.968415,0.171743,0.062843,0.094324,-0.152451,0.229815,0.708935,-0.837859,0.275152,-0.064493
-2.136601,-0.89932,0.771287,0.023474,0.04066,0.973609,0.223343,0.077428,-0.229416,0.023115,0.237284,-0.304878,0.125634,-0.430693,-0.040331,0.105197,0.725297,-0.266817,0.018004,0.000404,-0.090213,0.044951,-0.072534,0.057016,-0.146929,0.918271,0.959227,0.158006,0.075108,0.094157,-0.148455,0.215782,0.705919,-0.833415,0.267406,-0.056235
-2.151338,-0.892846,0.770339,0.02021,0.039364,0.975112,0.217251,0.106973,-0.228902,0.004442,0.216686,-0.3055,0.12646,-0.442354,-0.026416,0.113119,0.587612,-0.215953,0.030304,-0.011878,-0.08551,0.040777,-0.084943,0.055725,-0.167606,0.891769,0.947822,0.139881,0.09108,0.095461,-0.143364,0.200397,0.703927,-0.827956,0.256779,-0.052124
-2.166299,-0.886565,0.768753,0.016172,0.038402,0.9763,0.212375,0.134441,-0.228241,-0.012607,0.1971,-0.306987,0.127711,-0.450598,-0.018994,0.105504,0.455404,-0.157953,0.050616,-0.021342,-0.080586,0.036115,-0.092475,0.055498,-0.191384,0.865071,0.930743,0.118476,0.102997,0.097358,-0.138186,0.185816,0.706366,-0.821776,0.244828,-0.052603
-2.181632,-0.880234,0.76646,0.012314,0.038043,0.977192,0.208557,0.161757,-0.228293,-0.028192,0.179774,-0.3118,0.128521,-0.45193,-0.013998,0.0971,0.333281,-0.117629,0.07399,-0.029054,-0.075257,0.031372,-0.09628900000000001,0.05826,-0.220753,0.843084,0.9157630000000001,0.104263,0.112556,0.097654,-0.134498,0.17651,0.719137,-0.820528,0.238711,-0.050566
-2.197414,-0.873669,0.763725,0.008767,0.038323,0.978024,0.204754,0.188156,-0.229171,-0.043617,0.16733,-0.318712,0.130524,-0.450258,-0.003348,0.110292,0.238583,-0.096338,0.09998000000000001,-0.036585,-0.069392,0.027232,-0.098059,0.059589,-0.249275,0.825912,0.899488,0.097438,0.12477,0.095225,-0.132319,0.170151,0.73973,-0.825822,0.238519,-0.044874
-2.213532,-0.86682,0.761163,0.005541,0.037597,0.97875,0.201506,0.214663,-0.227319,-0.058093,0.157691,-0.326012,0.132375,-0.452219,0.014434,0.144654,0.198644,-0.065263,0.124175,-0.044232,-0.062767,0.023493,-0.097919,0.062735,-0.278568,0.817852,0.887877,0.096673,0.12748,0.092911,-0.127945,0.161827,0.762805,-0.834507,0.244681,-0.03722
-2.229998,-0.859621,0.759551,0.002683,0.035974,0.979256,0.199391,0.241998,-0.222611,-0.069751,0.14827,-0.327893,0.13159,-0.459454,0.035346,0.17342,0.226676,-0.013517,0.11462,-0.050762,-0.055668,0.019939,-0.09546,0.066033,-0.300532,0.817226,0.879225,0.105701,0.130258,0.092437,-0.11929,0.149331,0.784278,-0.843187,0.255678,-0.032625
-2.246968,-0.851711,0.762187,0.000386,0.033462,0.9797610000000002,0.197356,0.272022,-0.214895,-0.078203,0.143165,-0.314843,0.124303,-0.461949,0.053215,0.182354,0.274354,0.030347,0.065995,-0.055527,-0.047538,0.016335,-0.089177,0.066264,-0.312607,0.826692,0.869504,0.12634,0.13174,0.09699,-0.106724,0.132351,0.802883,-0.849372,0.267489,-0.037142
-2.264979,-0.843245,0.762675,-0.001476,0.02944,0.980185,0.195881,0.299815,-0.202123,-0.081188,0.140767,-0.290066,0.111236,-0.454416,0.068304,0.177175,0.318835,0.029788,0.031165,-0.058929,-0.03653,0.01312,-0.079469,0.064555,-0.316419,0.846707,0.857998,0.14951,0.126829,0.106144,-0.091327,0.10982,0.819437,-0.848267,0.273809,-0.053899
-2.2836,-0.834608,0.765081,-0.002228,0.026105,0.980221,0.196165,0.325156,-0.190806,-0.079974,0.143504,-0.247597,0.089386,-0.446922,0.081888,0.171786,0.367277,-0.007842,-0.000331,-0.0611,-0.023911,0.010601,-0.064751,0.059921,-0.315302,0.875214,0.845832,0.178002,0.120302,0.117067,-0.080127,0.09100200000000001,0.839002,-0.846546,0.277948,-0.064613
-2.302811,-0.82572,0.768383,-0.002478,0.022513,0.980468,0.195371,0.341344,-0.179119,-0.085157,0.161935,-0.193757,0.056302,-0.426825,0.091589,0.163885,0.397727,-0.045669,-0.019924,-0.062394,-0.011729,0.008527,-0.047149,0.060995,-0.326363,0.9078830000000001,0.845613,0.202863,0.09976,0.129114,-0.074415,0.081949,0.85866,-0.850443,0.278879,-0.06357
-2.322067,-0.81672,0.772247,-0.002598,0.018382,0.981204,0.192077,0.348657,-0.165962,-0.098265,0.193116,-0.134078,0.012684,-0.393553,0.09735700000000001,0.152653,0.404045,-0.07602,-0.037781,-0.06394,-0.001016,0.006757,-0.029799,0.072428,-0.356308,0.935817,0.856828,0.206511,0.055513,0.141377,-0.072166,0.07987,0.872726,-0.858146,0.273333,-0.057308
-2.340981,-0.807736,0.776048,-0.001673,0.014253,0.982273,0.186908,0.345115,-0.15334,-0.113224,0.244729,-0.073052,-0.040709,-0.351999,0.100164,0.139302,0.396304,-0.101008,-0.051319,-0.065923,0.008634,0.005323,-0.013046,0.092877,-0.392522,0.953218,0.868752,0.191959,0.007402,0.154803,-0.071606,0.082272,0.880429,-0.867468,0.263265,-0.049461
-2.359289,-0.798871,0.779254,-0.00033,0.01023,0.983515,0.180539,0.326557,-0.142661,-0.127837,0.322428,-0.012954,-0.101744,-0.30761,0.101842,0.124395,0.381115,-0.121981,-0.061567,-0.067604,0.017372,0.004619,0.000517,0.122264,-0.435358,0.961196,0.886156,0.169314,-0.025069,0.166703,-0.069765,0.085375,0.88459,-0.874701,0.250167,-0.04532
-2.37678,-0.790238,0.781643,0.0012,0.006031,0.98491,0.172956,0.287011,-0.133867,-0.135245,0.436002,0.04384,-0.158087,-0.263021,0.103615,0.107585,0.36275,-0.141383,-0.068581,-0.069238,0.024838,0.005134,0.012169,0.155608,-0.473856,0.961129,0.900188,0.143793,-0.043864,0.175053,-0.065455,0.087673,0.887106,-0.878394,0.239103,-0.045757
-2.393836,-0.78175,0.785,0.003518,0.002366,0.986554,0.163383,0.226702,-0.126959,-0.132247,0.587835,0.104999,-0.217114,-0.2178,0.103846,0.088042,0.344192,-0.160462,-0.074113,-0.070624,0.030289,0.007213,0.027644,0.187468,-0.490639,0.949268,0.901181,0.127305,-0.056465,0.173509,-0.05762,0.093075,0.887588,-0.880959,0.239325,-0.041294
-2.410188,-0.773463,0.786003,0.006697,-0.00082,0.988442,0.151449,0.145281,-0.118347,-0.108641,0.760554,0.175058,-0.246323,-0.173186,0.103602,0.065468,0.326924,-0.182453,-0.079904,-0.072115,0.033755,0.010922,0.03856,0.214725,-0.487919,0.935255,0.883431,0.120911,-0.062258,0.17831,-0.055169,0.102076,0.896731,-0.886986,0.22767,-0.04568
-2.425824,-0.765657,0.785752,0.010232,-0.004395,0.990271,0.138707,0.054105,-0.091209,-0.067233,0.929702,0.213039,-0.247614,-0.133325,0.105732,0.041939,0.316998,-0.205263,-0.085178,-0.072548,0.036509,0.016702,0.050204,0.235837,-0.464333,0.91309,0.851261,0.122268,-0.054947,0.170924,-0.059335,0.128681,0.913881,-0.914006,0.21823,-0.038296
-2.44093,-0.758601,0.784703,0.014095,-0.009323,0.991404,0.129743,-0.034096,-0.057179,-0.058211,1.068144,0.154672,-0.244304,-0.097933,0.113432,0.022908,0.313949,-0.227436,-0.090274,-0.066498,0.040943,0.024096,0.062154,0.249499,-0.428532,0.887614,0.816513,0.132715,-0.035713,0.154855,-0.070634,0.16937,0.941418,-0.962537,0.217879,-0.029147
-2.455801,-0.75245,0.783387,0.017318,-0.014437,0.992186,0.122714,-0.119325,-0.023126,-0.044606,1.159721,0.060839,-0.18957,-0.066392,0.12235,0.007071,0.313584,-0.247125,-0.094176,-0.056668,0.046351,0.031868,0.075446,0.254479,-0.382185,0.860253,0.785217,0.149487,0.000741,0.131931,-0.084467,0.217811,0.978126,-1.019394,0.218253,-0.008637
-2.470808,-0.747056,0.782248,0.020274,-0.018528,0.992654,0.117831,-0.195119,0.005004,-0.029322,1.195156,-0.015412,-0.131627,-0.034849,0.129823,-0.004126,0.311171,-0.261428,-0.096507,-0.042945,0.051167,0.038503,0.09198700000000001,0.247192,-0.325153,0.833604,0.75329,0.168647,0.050562,0.107604,-0.092255,0.246214,1.014037,-1.053979,0.233593,0.010664
-2.485968,-0.742304,0.781055,0.022595,-0.022704,0.9929,0.114562,-0.261,0.020886,-0.020582,1.178566,-0.087273,-0.079981,-0.007319,0.137872,-0.012016,0.314224,-0.274009,-0.098057,-0.025909,0.054766,0.04363,0.109045,0.235621,-0.269857,0.810026,0.723605,0.185035,0.096894,0.088299,-0.091675,0.251552,1.034813,-1.056476,0.240053,0.028464
-2.501329,-0.738037,0.779782,0.023349,-0.025948,0.992925,0.113493,-0.316115,0.021168,-0.019302,1.112192,-0.159835,-0.041603,0.013627,0.144713,-0.015604,0.324277,-0.287673,-0.099158,-0.007432,0.056908,0.046861,0.125075,0.224615,-0.227684,0.788609,0.699293,0.190828,0.125581,0.07186,-0.094396,0.2531,1.037846,-1.049266,0.230292,0.033949
-2.516984,-0.734039,0.778347,0.022435,-0.02862,0.9928380000000001,0.113801,-0.360013,0.015117,-0.020791,1.003033,-0.219064,-0.021288,0.031245,0.150994,-0.016127,0.335325,-0.302246,-0.100446,0.01068,0.057505,0.048419,0.138735,0.220072,-0.205422,0.771616,0.688626,0.185166,0.13294,0.057833,-0.099505,0.253205,1.023693,-1.036491,0.211956,0.019471
-2.533089,-0.730151,0.776777,0.019886,-0.030724,0.9927800000000001,0.114229,-0.391876,0.016813,-0.01134,0.859375,-0.23721,-0.015489,0.050362,0.156498,-0.014663,0.338784,-0.314866,-0.101132,0.026778,0.05719,0.048443,0.150091,0.218734,-0.194957,0.761912,0.690171,0.181752,0.129603,0.045172,-0.103624,0.252502,0.9999380000000001,-1.016444,0.191408,-0.004543
-2.549554,-0.726297,0.775034,0.017005,-0.032337,0.992661,0.115281,-0.408248,0.019326,0.000882,0.690879,-0.222497,-0.008329,0.074555,0.16134,-0.010173,0.331717,-0.322736,-0.100441,0.040628,0.056626,0.047362,0.16155,0.214877,-0.188236,0.758399,0.697538,0.18284,0.123772,0.032501,-0.110125,0.257702,0.971609,-0.9964440000000001,0.170713,-0.028572
-2.56633,-0.722522,0.773284,0.013873,-0.033424,0.992458,0.117126,-0.414743,0.019118,0.009436000000000002,0.517963,-0.177782,-0.007031,0.102192,0.16518,-0.002161,0.317451,-0.325846,-0.098914,0.052199,0.056064,0.046024,0.176247,0.20728,-0.182883,0.757597,0.707095,0.189479,0.115312,0.016697,-0.11969,0.257868,0.944235,-0.973415,0.149077,-0.050624
-2.583313,-0.718863,0.772247,0.010977,-0.034203,0.992044,0.12066,-0.410806,0.014148,0.009272,0.359141,-0.131061,0.008978,0.131393,0.168303,0.010136,0.301004,-0.3248,-0.09726000000000001,0.061466,0.055113,0.044934,0.188082,0.197848,-0.173048,0.76742,0.713683,0.197111,0.108164,0.005352,-0.125522,0.260523,0.913501,-0.958138,0.134539,-0.066384
-2.600745,-0.715358,0.774563,0.009179,-0.034998,0.9914980000000002,0.124988,-0.402589,0.007738,0.00265,0.243537,-0.083145,0.004527,0.164044,0.170762,0.024225,0.288712,-0.321016,-0.095436,0.068657,0.053577,0.044681,0.193812,0.1779,-0.161465,0.783216,0.720205,0.212776,0.10094,-0.012549,-0.127009,0.267403,0.892661,-0.945746,0.129048,-0.069507
-2.618397,-0.71223,0.774381,0.008781,-0.034841,0.990917,0.129585,-0.390809,-0.00181,-0.013141,0.187651,-0.045422,-0.007701,0.194659,0.168976,0.038948,0.280631,-0.317185,-0.092343,0.074637,0.050624,0.044763,0.203766,0.158939,-0.151429,0.80305,0.727323,0.225241,0.093113,-0.029747,-0.129495,0.276129,0.877598,-0.937844,0.128453,-0.072301
-2.636423,-0.709382,0.772914,0.008759,-0.032352,0.99022,0.135429,-0.374018,-0.013687,-0.027257,0.185728,0.01698,5.6e-05,0.220111,0.16096,0.053568,0.281434,-0.311159,-0.08655,0.079586,0.045753,0.04422,0.213524,0.140549,-0.147939,0.825334,0.740767,0.232994,0.080525,-0.044829,-0.13075,0.281399,0.867637,-0.932424,0.13552,-0.074397
-2.65457,-0.706972,0.774348,0.008131,-0.027913,0.9896410000000002,0.140587,-0.355278,-0.023995,-0.021039,0.19123,0.04932,0.023349,0.240393,0.147473,0.064673,0.286148,-0.293987,-0.082439,0.083543,0.038216,0.04216,0.21822,0.123455,-0.149827,0.850134,0.761922,0.242623,0.063884,-0.054378,-0.129026,0.279434,0.859702,-0.928124,0.149741,-0.076549
-2.673642,-0.704628,0.777,0.008231,-0.021727,0.989399,0.143355,-0.329269,-0.038286,-0.009325000000000002,0.19317,0.039332,0.038974,0.256376,0.128415,0.066803,0.300494,-0.259239,-0.076687,0.087289,0.026999,0.038372,0.218571,0.106305,-0.152148,0.872517,0.785829,0.252426,0.048248,-0.059828,-0.123528,0.269343,0.857476,-0.917244,0.168346,-0.08802
-2.692999,-0.70213,0.77987,0.008346,-0.015695,0.989467,0.143665,-0.302464,-0.053494,-0.000466,0.197615,0.012613,0.04327,0.26359,0.109979,0.062649,0.328585,-0.211175,-0.065531,0.090372,0.013208,0.03409,0.216472,0.094585,-0.149543,0.891826,0.804577,0.261054,0.024697,-0.050031,-0.111253,0.246808,0.853757,-0.897053,0.188243,-0.103938
-2.712201,-0.699592,0.781979,0.00713,-0.009644,0.989431,0.14451,-0.274755,-0.067899,0.007373,0.195527,-0.010211,0.046507,0.256898,0.093445,0.063196,0.374159,-0.159874,-0.046601,0.092749,-0.00039,0.029126,0.213885,0.087982,-0.14285,0.899561,0.819233,0.261432,0.01114,-0.03497,-0.098908,0.231091,0.849003,-0.87847,0.200877,-0.10296
-2.7314,-0.697142,0.781645,0.006518,-0.004031,0.989054,0.147357,-0.240274,-0.080909,0.015959,0.187851,-0.029081,0.056524,0.238433,0.077562,0.066521,0.442557,-0.106532,-0.017479,0.094683,-0.012536,0.024398,0.214292,0.083716,-0.1325,0.894188,0.826711,0.248733,0.00648,-0.020144,-0.092856,0.230542,0.842753,-0.866715,0.198431,-0.090127
-2.749819,-0.695009,0.781868,0.007043,0.00148,0.988378,0.151848,-0.211912,-0.094417,0.026976,0.18627,-0.052922,0.068086,0.203799,0.059795,0.065939,0.540587,-0.05545,0.020524,0.095761,-0.023011,0.021727,0.214993,0.080028,-0.12406,0.883459,0.83112,0.234192,0.007881,-0.009573000000000002,-0.099479,0.252138,0.838908,-0.873215,0.194684,-0.066508
-2.767462,-0.693114,0.781188,0.008716,0.007152,0.987561,0.156831,-0.1856,-0.108931,0.039023,0.189417,-0.078721,0.080208,0.151719,0.036823,0.054655,0.669603,-0.007229,0.075431,0.096245,-0.033076,0.021796,0.212581,0.077416,-0.121844,0.871304,0.837092,0.221049,0.016848,-0.003696,-0.116812,0.289514,0.833985,-0.896293,0.192215,-0.036492
-2.785071,-0.691213,0.782136,0.011486,0.012846,0.986615,0.162153,-0.157237,-0.124139,0.051194,0.19337,-0.104268,0.092426,0.089048,0.005992,0.034125,0.817449,0.050589,0.127001,0.096072,-0.043433,0.023809,0.205714,0.074353,-0.120317,0.859908,0.839793,0.208164,0.033034,0.002803,-0.135929,0.319629,0.824029,-0.91874,0.19333,-0.017939
-2.802087,-0.689343,0.78128,0.014592,0.019546,0.985565,0.167528,-0.12933,-0.14193,0.063517,0.196017,-0.129165,0.10227,0.016161,-0.0301,0.019591,0.964049,0.109114,0.184099,0.094056,-0.054905,0.026924,0.192283,0.071791,-0.122669,0.855274,0.843665,0.201007,0.042794,0.011858,-0.151041,0.332479,0.811662,-0.930071,0.200895,-0.012049
-2.818601,-0.687343,0.779754,0.01851,0.026465,0.984468,0.172569,-0.098044,-0.161044,0.074142,0.193532,-0.151608,0.108604,-0.059051,-0.065197,0.015569,1.097273,0.167857,0.225049,0.090195,-0.06771,0.030833,0.173404,0.071739,-0.126073,0.854976,0.847606,0.197022,0.047387,0.022735,-0.158971,0.327359,0.800556,-0.9241450000000001,0.210697,-0.013951
-2.834511,-0.685123,0.777851,0.022907,0.03364,0.983611,0.175652,-0.067289,-0.181916,0.080828,0.191384,-0.172573,0.112911,-0.129643,-0.074312,0.037723,1.199877,0.153895,0.23847,0.085429,-0.080236,0.034707,0.148548,0.073894,-0.132464,0.85969,0.854207,0.195787,0.05001,0.036442,-0.163935,0.308255,0.791691,-0.904652,0.220373,-0.021073
-2.84978,-0.682541,0.775822,0.027072,0.039904,0.982915,0.17763,-0.042313,-0.200507,0.085429,0.198309,-0.195218,0.115457,-0.193176,-0.063376,0.071307,1.263873,0.072554,0.218127,0.080322,-0.09100200000000001,0.037775,0.119648,0.076058,-0.138945,0.870158,0.861416,0.197786,0.051576,0.051143,-0.169129,0.286495,0.786833,-0.883582,0.228798,-0.028405
-2.864519,-0.679493,0.773933,0.030069,0.044642,0.982612,0.177697,-0.025609,-0.214872,0.087261,0.217016,-0.218983,0.116368,-0.251862,-0.067263,0.089582,1.289257,-0.032267,0.198612,0.074334,-0.099816,0.039592,0.092099,0.079713,-0.141327,0.890033,0.868943,0.193512,0.063641,0.067717,-0.175428,0.270301,0.783886,-0.869164,0.236821,-0.035197
-2.878952,-0.675985,0.772334,0.032055,0.049241,0.982859,0.174744,-0.011744,-0.228543,0.084218,0.237354,-0.239035,0.116301,-0.306533,-0.082714,0.09674,1.275373,-0.129204,0.156464,0.065619,-0.107629,0.040353,0.054227,0.077473,-0.141773,0.911169,0.877053,0.194345,0.073866,0.084146,-0.178095,0.263075,0.789484,-0.863685,0.247756,-0.046679
-2.893382,-0.672168,0.771495,0.033065,0.051565,0.983616,0.169551,0.008007,-0.238073,0.074575,0.245489,-0.251769,0.115153,-0.351583,-0.090483,0.101879,1.218761,-0.199767,0.100761,0.053925,-0.114034,0.039685,0.02116,0.075852,-0.138433,0.924711,0.880088,0.19411,0.081892,0.095891,-0.180531,0.256583,0.799033,-0.860414,0.257589,-0.0495
-2.907635,-0.668082,0.770993,0.032985,0.053531,0.98458,0.163242,0.027048,-0.245788,0.06185,0.251637,-0.262619,0.113602,-0.389075,-0.087565,0.110264,1.131436,-0.252622,0.051236,0.040179,-0.118333,0.038331,-0.01031,0.07213,-0.137137,0.930322,0.880448,0.187909,0.083901,0.108044,-0.182757,0.249014,0.806748,-0.859525,0.26368,-0.045134
-2.921816,-0.66399,0.770699,0.031669,0.054599,0.9857840000000001,0.155714,0.046715,-0.251317,0.045653,0.252819,-0.270505,0.111964,-0.418361,-0.069877,0.128186,1.020075,-0.282227,0.016793,0.02592,-0.120524,0.036387,-0.030957,0.072601,-0.136212,0.924402,0.874726,0.170703,0.084505,0.112579,-0.184228,0.240667,0.822719,-0.856136,0.263696,-0.038111
-2.935996,-0.660044,0.770287,0.029398,0.054587,0.987048,0.14796,0.068045,-0.254448,0.027026,0.248463,-0.278053,0.111013,-0.440407,-0.040669,0.155908,0.895394,-0.285048,0.010313,0.012947,-0.120497,0.03379,-0.048525,0.074025,-0.138929,0.911477,0.86861,0.153319,0.087042,0.119165,-0.18258,0.229169,0.837341,-0.852828,0.264917,-0.034326
-2.95018,-0.656395,0.769706,0.026174,0.053273,0.988257,0.140802,0.09182,-0.254627,0.007344,0.235997,-0.283144,0.110361,-0.454013,-0.007076,0.188566,0.757988,-0.254101,0.026331,0.002247,-0.118245,0.030872,-0.061904,0.07677,-0.147294,0.894383,0.863714,0.137284,0.089313,0.125422,-0.176361,0.215398,0.85015,-0.849194,0.267013,-0.033513
-2.964374,-0.653001,0.768618,0.022392,0.052392,0.989248,0.134694,0.115224,-0.255234,-0.011984,0.22116,-0.287546,0.110716,-0.460547,0.015398,0.210425,0.61225,-0.200744,0.054717,-0.005595,-0.114613,0.028233,-0.071614,0.079408,-0.159448,0.874626,0.858263,0.121391,0.092452,0.130549,-0.168523,0.199924,0.859519,-0.845109,0.267665,-0.035462
-2.978649,-0.649877,0.767081,0.018594,0.051739,0.990077,0.129328,0.140324,-0.256295,-0.030982,0.202162,-0.290036,0.113272,-0.46029,0.020984,0.202319,0.46398,-0.143275,0.073782,-0.010874,-0.110927,0.02579,-0.076792,0.083205,-0.174583,0.854873,0.852773,0.105614,0.094269,0.135311,-0.159742,0.186507,0.866763,-0.842981,0.265738,-0.036242
-2.993203,-0.646809,0.765276,0.015561,0.05149,0.99084,0.123869,0.167286,-0.257996,-0.049831,0.183687,-0.292081,0.118338,-0.453046,0.02463,0.194389,0.331094,-0.101417,0.088886,-0.015911,-0.106855,0.023361,-0.076183,0.085557,-0.188191,0.837832,0.843334,0.093812,0.094634,0.140158,-0.15135,0.17603,0.872806,-0.844921,0.263537,-0.034519
-3.008049,-0.643589,0.763827,0.0133,0.051556,0.991635,0.117585,0.194234,-0.259433,-0.068775,0.169851,-0.293976,0.123503,-0.445176,0.033545,0.20495,0.245829,-0.081183,0.103793,-0.021587,-0.1024,0.021394,-0.071804,0.086752,-0.2008,0.825734,0.83236,0.088323,0.095119,0.143929,-0.142256,0.164671,0.8763,-0.847007,0.262065,-0.03159
-3.02334,-0.640167,0.764685,0.011815,0.050758,0.99237,0.111737,0.222686,-0.258861,-0.08541,0.162011,-0.294423,0.126473,-0.442695,0.04864,0.229254,0.24119,-0.041707,0.095655,-0.027118,-0.09717,0.019892,-0.064517,0.088749,-0.213438,0.821504,0.823727,0.087131,0.095407,0.14557,-0.131788,0.154704,0.87847,-0.849408,0.257231,-0.027011
-3.038384,-0.636383,0.765607,0.011044,0.050062,0.992911,0.107235,0.249047,-0.256417,-0.09841,0.156982,-0.293133,0.128168,-0.442634,0.059919,0.239935,0.276091,0.022068,0.073059,-0.030933,-0.090924,0.0181,-0.054629,0.088544,-0.220187,0.827954,0.815846,0.094852,0.097479,0.145213,-0.122384,0.146546,0.88096,-0.854469,0.252874,-0.027116
-3.054101,-0.632599,0.767295,0.009657,0.04733,0.993408,0.103954,0.274406,-0.248667,-0.107049,0.149896,-0.279218,0.126518,-0.437907,0.068259,0.233704,0.30386,0.046429,0.04878,-0.033213,-0.082154,0.015242,-0.043576,0.086857,-0.222183,0.84682,0.811906,0.114029,0.096188,0.141969,-0.111221,0.140844,0.885743,-0.862958,0.25329,-0.029505
-3.07061,-0.628758,0.769793,0.009240000000000002,0.043381,0.993851,0.101452,0.298501,-0.237626,-0.111295,0.14783,-0.250831,0.118664,-0.424969,0.076267,0.223087,0.329055,0.02597,0.033485,-0.03488,-0.069749,0.011095,-0.029107,0.082543,-0.21861,0.877232,0.813259,0.145331,0.101256,0.139041,-0.099712,0.135855,0.890021,-0.872478,0.251204,-0.033439
-3.087678,-0.625056,0.773085,0.00841,0.039074,0.994241,0.099436,0.319375,-0.22523,-0.112082,0.147329,-0.206865,0.104028,-0.402523,0.08242,0.212504,0.339693,-0.000362,0.019288,-0.036562,-0.054587,0.005939,-0.011627,0.074707,-0.214981,0.914578,0.819435,0.182641,0.094607,0.134871,-0.090399,0.129394,0.893607,-0.881252,0.251784,-0.037227
-3.104819,-0.621565,0.776674,0.007171,0.034544,0.994711,0.096461,0.33345,-0.212694,-0.115906,0.154028,-0.154827,0.085487,-0.370755,0.086221,0.20228,0.330833,-0.016105,0.001415,-0.038088,-0.038816,0.000336,0.00761,0.069402,-0.217953,0.949229,0.831313,0.20522,0.0728,0.130029,-0.08356,0.121962,0.891971,-0.885304,0.25128,-0.036245
-3.122006,-0.618222,0.779289,0.005833,0.030245,0.995226,0.092614,0.34032,-0.201407,-0.123449,0.170668,-0.095778,0.064168,-0.330856,0.087399,0.192102,0.30895,-0.025075,-0.014201,-0.039271,-0.023581,-0.005313,0.030098,0.071401,-0.226336,0.9690200000000002,0.844356,0.209716,0.030252,0.121303,-0.079663,0.11784,0.885178,-0.888813,0.245246,-0.036498
-3.138781,-0.615014,0.782584,0.004295,0.026358,0.995713,0.088555,0.34045,-0.191664,-0.13381,0.197594,-0.041669,0.034023,-0.297442,0.089518,0.182167,0.292361,-0.038894,-0.027255,-0.03971,-0.009518,-0.010171,0.049081,0.085622,-0.244392,0.979936,0.860366,0.195256,-0.012828,0.124348,-0.083119,0.116726,0.878241,-0.890361,0.215557,-0.050007
-3.154966,-0.611901,0.785296,0.003458,0.023028,0.996153,0.084481,0.332321,-0.184818,-0.144783,0.241078,0.007717,9.9e-05,-0.268784,0.092006,0.172795,0.285602,-0.056696,-0.03875,-0.039357,0.003285,-0.013936,0.069509,0.107992,-0.265776,0.979688,0.87823,0.171286,-0.055032,0.120328,-0.085502,0.119453,0.873048,-0.892102,0.193068,-0.060659
-3.170308,-0.608882,0.78727,0.003246,0.020595,0.996542,0.080432,0.312889,-0.181706,-0.152983,0.305054,0.054763,-0.037391,-0.24434,0.093617,0.163778,0.286245,-0.077441,-0.046103,-0.038245,0.014639,-0.015952,0.091072,0.135775,-0.27575,0.965882,0.885895,0.144968,-0.075369,0.108734,-0.088111,0.121959,0.876625,-0.895545,0.175611,-0.069262
-3.184644,-0.605981,0.788654,0.003558,0.018541,0.997017,0.074832,0.276732,-0.180832,-0.156463,0.39833,0.097836,-0.089116,-0.222254,0.093594,0.15241,0.290564,-0.099961,-0.050723,-0.037004,0.02421,-0.015336,0.107822,0.153305,-0.275719,0.948498,0.884986,0.135463,-0.071309,0.092245,-0.087202,0.127342,0.885664,-0.90136,0.168368,-0.07476
-3.19821,-0.603027,0.791037,0.004821,0.017008,0.997635,0.066422,0.224173,-0.179767,-0.149477,0.524833,0.139559,-0.166483,-0.199223,0.090725,0.136403,0.295009,-0.122799,-0.054266,-0.036708,0.031308,-0.011706,0.118882,0.172932,-0.270437,0.928262,0.880472,0.130819,-0.057344,0.075559,-0.087121,0.133676,0.895877,-0.908104,0.166559,-0.076417
-3.210819,-0.599959,0.79161,0.006871,0.016204,0.998293,0.05568,0.149985,-0.175473,-0.129196,0.676573,0.188256,-0.239841,-0.176811,0.085675,0.115739,0.299566,-0.146213,-0.057244,-0.03803,0.03591,-0.005149,0.12354,0.190904,-0.26238,0.907563,0.873195,0.129151,-0.044265,0.058366,-0.08744,0.141769,0.905276,-0.916044,0.166654,-0.073453
-3.222746,-0.596677,0.791749,0.009798,0.016106,0.9990230000000001,0.03997,0.062219,-0.159111,-0.068127,0.837142,0.243285,-0.247481,-0.148564,0.077222,0.087596,0.294074,-0.165492,-0.060239,-0.043872,0.037486,0.002866,0.119781,0.202323,-0.250904,0.886,0.865192,0.133599,-0.028583,0.043741,-0.08691,0.151985,0.908661,-0.922319,0.17076,-0.071763
-3.234171,-0.593508,0.791559,0.013072,0.014625,0.999511,0.02437,-0.02709,-0.128439,-0.024878,0.983279,0.271589,-0.247764,-0.118464,0.072749,0.058203,0.284526,-0.181481,-0.063428,-0.048399,0.038928,0.01215,0.114478,0.213757,-0.233306,0.85987,0.851089,0.13503,-0.012654,0.028483,-0.088153,0.160178,0.91187,-0.925469,0.174177,-0.072799
-3.2453,-0.5907,0.791058,0.016648,0.011996,0.999724,0.011446,-0.10691,-0.099487,-0.015149,1.089123,0.225802,-0.247084,-0.088193,0.073237,0.032727,0.274215,-0.195378,-0.066677,-0.048653,0.042104,0.021674,0.113545,0.232133,-0.210238,0.823801,0.832881,0.130259,-0.00143,0.010413,-0.091698,0.166152,0.915168,-0.927408,0.176162,-0.073788
-3.256282,-0.588466,0.790161,0.019904,0.0087,0.999762,0.002108,-0.174012,-0.067622,-0.0126,1.145486,0.120253,-0.238753,-0.063225,0.077415,0.012764,0.271694,-0.209798,-0.069231,-0.045524,0.046511,0.030297,0.113966,0.238057,-0.189486,0.788298,0.816578,0.129479,0.018252,-0.004893,-0.093021,0.171797,0.920641,-0.92793,0.175385,-0.074769
-3.267212,-0.586911,0.788721,0.022574,0.004036,0.999726,-0.004725,-0.233904,-0.029303,0.008695,1.160389,0.015779,-0.182463,-0.046245,0.085247,-0.003441,0.281977,-0.228272,-0.070827,-0.040313,0.051712,0.037329,0.118815,0.238259,-0.169872,0.75511,0.800025,0.130333,0.043277,-0.019374,-0.093183,0.178737,0.930636,-0.930714,0.181378,-0.072526
-3.278338,-0.585811,0.787207,0.024623,0.00059,0.999661,-0.00842,-0.281453,-0.000359,0.030467,1.125408,-0.074859,-0.125161,-0.031731,0.092282,-0.013026,0.295285,-0.24734,-0.072828,-0.032252,0.056548,0.042161,0.126113,0.232801,-0.153166,0.727426,0.77763,0.129409,0.065539,-0.029158,-0.095465,0.186333,0.941504,-0.935201,0.184482,-0.074742
-3.289651,-0.585243,0.785392,0.025603,-0.003769,0.999605,-0.010976,-0.319666,0.019132,0.044854,1.052451,-0.161107,-0.083113,-0.021701,0.100769,-0.020814,0.31465,-0.269378,-0.074755,-0.02206,0.060787,0.045333,0.132368,0.228765,-0.145756,0.707677,0.76058,0.12878,0.073578,-0.038364,-0.094003,0.193198,0.94578,-0.936848,0.183725,-0.074584
-3.301318,-0.584923,0.783759,0.025171,-0.006932,0.999565,-0.01371,-0.347726,0.033737,0.063488,0.942525,-0.217343,-0.043976,-0.008739,0.106537,-0.028192,0.324676,-0.288422,-0.076355,-0.011334,0.064087,0.046526,0.135751,0.224357,-0.147983,0.69572,0.754423,0.128956,0.075518,-0.044696,-0.092096,0.198693,0.944773,-0.934896,0.180155,-0.073274
-3.313297,-0.584848,0.782058,0.023902,-0.010243,0.999519,-0.016872,-0.364409,0.048277,0.089691,0.805771,-0.24324,-0.017272,0.006777,0.112325,-0.035197,0.327598,-0.305558,-0.0771,-0.000582,0.066295,0.046225,0.13718,0.21827,-0.153305,0.691808,0.755813,0.131373,0.077717,-0.046901,-0.090387,0.205706,0.939253,-0.931972,0.175485,-0.075417
-3.325543,-0.584821,0.780244,0.022104,-0.013064,0.999474,-0.019811,-0.370521,0.05727,0.118481,0.651295,-0.241569,0.009551,0.026063,0.117849,-0.040412,0.321417,-0.320192,-0.077342,0.009828000000000002,0.067706,0.045,0.137655,0.209057,-0.159154,0.697366,0.764325,0.140452,0.08349,-0.045831,-0.088395,0.213532,0.930916,-0.926874,0.167203,-0.078977
-3.337986,-0.584796,0.778253,0.020015,-0.015814,0.999414,-0.022828,-0.370816,0.063247,0.151675,0.494721,-0.215042,0.021034,0.047994,0.123951,-0.04436,0.308901,-0.332391,-0.077443,0.018902,0.068376,0.043543,0.13887,0.196082,-0.163457,0.70849,0.778559,0.154623,0.089198,-0.046811,-0.086037,0.224958,0.923603,-0.922405,0.160811,-0.073789
-3.350579,-0.584792,0.776254,0.017803,-0.018375,0.999335,-0.025962,-0.368176,0.064334,0.184676,0.348661,-0.164761,0.030601,0.071179,0.130103,-0.047834,0.292858,-0.339019,-0.077087,0.026041,0.068227,0.042362,0.140082,0.179909,-0.162883,0.724622,0.788669,0.168816,0.097256,-0.044332,-0.08527,0.237003,0.918772,-0.9185390000000001,0.15782,-0.068217
-3.363414,-0.584955,0.774097,0.015623,-0.020842,0.999246,-0.028799,-0.366209,0.062945,0.213223,0.231345,-0.118593,0.020812,0.094415,0.136041,-0.050729,0.277071,-0.343974,-0.075851,0.031867,0.067378,0.041728,0.141429,0.164063,-0.161457,0.746066,0.793904,0.17983,0.105965,-0.037076,-0.084616,0.246626,0.91654,-0.9127670000000001,0.154321,-0.064914
-3.376595,-0.585425,0.771498,0.014289,-0.024404,0.999094,-0.031815,-0.373148,0.066353,0.241256,0.16905,-0.112185,0.003443,0.115238,0.143699,-0.054501,0.271211,-0.353502,-0.074165,0.036593,0.066029,0.042187,0.143835,0.151592,-0.161997,0.769331,0.799558,0.188511,0.111607,-0.032529,-0.080585,0.253767,0.9172110000000001,-0.9061110000000001,0.155713,-0.060058
-3.390062,-0.586196,0.769228,0.013248,-0.027554,0.998902,-0.03549,-0.377003,0.073947,0.27825,0.146503,-0.113452,0.002541,0.135846,0.150395,-0.058792,0.267711,-0.36161,-0.071764,0.039871,0.064486,0.042663,0.140558,0.137899,-0.169144,0.796715,0.807231,0.196647,0.108463,-0.030451,-0.07437,0.259867,0.921909,-0.900624,0.158697,-0.057075
-3.404132,-0.587388,0.768717,0.012584,-0.029738,0.998759,-0.037915,-0.369429,0.080635,0.311014,0.149548,-0.10369,0.023108,0.157967,0.154963,-0.060346,0.266761,-0.365095,-0.067313,0.043215,0.061932,0.042661,0.140956,0.133213,-0.182988,0.822921,0.821465,0.19852,0.099315,-0.026534,-0.070812,0.267914,0.928659,-0.899466,0.160545,-0.055932
-3.418283,-0.589385,0.769624,0.01235,-0.029317,0.998767,-0.038121,-0.35815,0.075022,0.306066,0.159557,-0.069407,0.060611,0.180999,0.152946,-0.056422,0.262415,-0.360345,-0.061369,0.048794,0.056985,0.04218,0.143778,0.129448,-0.195476,0.845805,0.836405,0.198961,0.091513,-0.021304,-0.069538,0.277806,0.9372180000000001,-0.902773,0.165627,-0.052556
-3.433122,-0.592025,0.77141,0.012573,-0.026688,0.9989110000000002,-0.036141,-0.340335,0.058485,0.282349,0.155569,-0.022265,0.085192,0.203359,0.144663,-0.047898,0.261899,-0.347156,-0.050315,0.055357,0.050033,0.040739,0.149335,0.12261,-0.19877,0.864536,0.843867,0.199076,0.084021,-0.015323,-0.06958,0.288211,0.94614,-0.907521,0.168897,-0.047565
-3.448714,-0.595362,0.773824,0.012439,-0.023481,0.9990270000000001,-0.035188,-0.31739,0.045295,0.27927,0.148295,0.018666,0.112249,0.219987,0.132663,-0.040511,0.272623,-0.328866,-0.030392,0.060323,0.041584,0.037492,0.156403,0.113891,-0.190451,0.879897,0.843202,0.201678,0.080732,-0.008794,-0.071032,0.298095,0.956277,-0.914256,0.176321,-0.039444
-3.464959,-0.599276,0.776618,0.012205,-0.01962,0.999117,-0.035091,-0.293211,0.031131,0.280074,0.145927,0.022422,0.133175,0.230879,0.117487,-0.034746,0.294432,-0.300581,-0.003013,0.064366,0.03134,0.033363,0.162358,0.105396,-0.177133,0.89392,0.84107,0.208332,0.082319,-0.000875,-0.073081,0.308353,0.965323,-0.923082,0.185703,-0.028679
-3.481548,-0.60351,0.779379,0.011606,-0.014803,0.9991350000000001,-0.037095,-0.269118,0.01367,0.279226,0.146721,0.006193,0.143678,0.235953,0.100109,-0.030755,0.32568,-0.265437,0.028993,0.067283,0.020098,0.029097,0.164122,0.097798,-0.166903,0.90743,0.840787,0.214245,0.077604,0.01018,-0.076878,0.315158,0.968613,-0.928907,0.189321,-0.018914
-3.498071,-0.607919,0.781858,0.011005,-0.009951,0.999061,-0.040695,-0.246678,-0.00487,0.275457,0.151189,-0.015335,0.155603,0.23497,0.082903,-0.027236,0.365708,-0.222426,0.069516,0.069638,0.008677,0.025183,0.16252,0.092705,-0.160458,0.916549,0.842066,0.21291,0.069022,0.024145,-0.081943,0.317252,0.966175,-0.928054,0.186593,-0.011836
-3.514337,-0.612492,0.783663,0.010688,-0.00458,0.998932,-0.044709,-0.226075,-0.024327,0.270869,0.159756,-0.039769,0.165465,0.223723,0.064892,-0.023752,0.424242,-0.173378,0.112594,0.071416,-0.002094,0.022225,0.158286,0.088415,-0.159734,0.920389,0.847791,0.208136,0.057901,0.033244,-0.091934,0.327681,0.964765,-0.924608,0.177814,-0.005283
-3.530194,-0.617199,0.784072,0.011097,0.001227,0.998733,-0.049074,-0.209586,-0.043353,0.26649,0.178406,-0.06955,0.170291,0.199013,0.047199,-0.019276,0.509789,-0.123032,0.149854,0.072705,-0.01273,0.021078,0.151778,0.087529,-0.161515,0.919312,0.854428,0.197809,0.049022,0.042487,-0.107808,0.344569,0.957504,-0.924766,0.168451,0.001323
-3.545442,-0.622044,0.782367,0.012168,0.007813,0.998459,-0.053572,-0.194037,-0.063668,0.262634,0.199863,-0.100461,0.173085,0.157028,0.027435,-0.016486,0.627168,-0.072114,0.188828,0.073874,-0.023366,0.02221,0.146294,0.088238,-0.160635,0.921438,0.856496,0.174957,0.050954,0.054162,-0.122306,0.364917,0.9447350000000002,-0.920915,0.157707,-0.002103
-3.560233,-0.626927,0.777875,0.013727,0.015084,0.998069,-0.058666,-0.175961,-0.085224,0.258275,0.221038,-0.12898,0.174153,0.098996,0.005676,-0.015271,0.770214,-0.009259,0.225724,0.075348,-0.034266,0.025418,0.134157,0.084942,-0.158816,0.918256,0.85648,0.159103,0.056762,0.059465,-0.14122,0.380976,0.933008,-0.915762,0.154057,-0.005896
-3.574986,-0.631634,0.777033,0.016382,0.022169,0.997685,-0.062165,-0.152992,-0.106164,0.25526,0.233611,-0.156535,0.172953,0.033636,-0.016168,-0.021433,0.922104,0.060689,0.246784,0.078668,-0.044865,0.029886,0.116284,0.076559,-0.159549,0.913078,0.858491,0.153986,0.067455,0.063302,-0.158888,0.393564,0.920269,-0.914332,0.162158,-0.004918
-3.589413,-0.636048,0.775407,0.019632,0.02917,0.997291,-0.064614,-0.125297,-0.126813,0.252501,0.237764,-0.181257,0.17057,-0.035592,-0.04072,-0.02401,1.06466,0.108486,0.247691,0.082602,-0.055515,0.035247,0.10195,0.071385,-0.155855,0.904031,0.856259,0.145019,0.079,0.059976,-0.172223,0.401239,0.9125740000000001,-0.910707,0.174241,-0.000512
-3.603411,-0.639833,0.773584,0.022685,0.036386,0.9966680000000001,-0.069387,-0.098892,-0.148061,0.245689,0.241191,-0.203413,0.168213,-0.102704,-0.058066,0.006424,1.184431,0.081845,0.245642,0.082946,-0.066648,0.04127,0.092149,0.068857,-0.145208,0.894247,0.848404,0.136223,0.09309700000000001,0.048444,-0.18035,0.402063,0.913066,-0.899947,0.186148,-0.00213
-3.617178,-0.642943,0.771829,0.025847,0.042804,0.995839,-0.076184,-0.076227,-0.166947,0.233782,0.251392,-0.225921,0.166792,-0.163268,-0.0832,0.02409,1.267412,-0.024017,0.203816,0.081245,-0.077288,0.046981,0.077587,0.062451,-0.134109,0.888878,0.839535,0.135664,0.10748,0.038725,-0.184453,0.397759,0.912949,-0.889656,0.200781,-0.012377
-3.631014,-0.645457,0.770438,0.028801,0.047467,0.994677,-0.086807,-0.054969,-0.182853,0.213256,0.263878,-0.247348,0.166194,-0.217873,-0.113333,0.022879,1.30298,-0.100435,0.142186,0.075879,-0.086619,0.05215,0.06051,0.056592,-0.129218,0.887163,0.834766,0.134852,0.121658,0.032262,-0.18533,0.389371,0.909287,-0.880142,0.215262,-0.023714
-3.64487,-0.647452,0.7694,0.030915,0.050571,0.993039,-0.101785,-0.037733,-0.195752,0.1841,0.281427,-0.269091,0.165228,-0.265354,-0.12345,0.028697,1.293621,-0.156177,0.091093,0.066176,-0.09356,0.055915,0.043123,0.053259,-0.136159,0.890128,0.836834,0.134783,0.126157,0.031254,-0.183912,0.374419,0.899424,-0.866828,0.224203,-0.032418
-3.658766,-0.649281,0.768777,0.032284,0.051923,0.991064,-0.118547,-0.021986,-0.204954,0.150497,0.300055,-0.290878,0.163591,-0.305964,-0.102497,0.053829,1.243906,-0.213738,0.058027,0.05366,-0.097112,0.058002,0.027009,0.052522,-0.154739,0.893792,0.841757,0.127299,0.123268,0.034553,-0.181179,0.353505,0.883941,-0.850739,0.229211,-0.040479
-3.67265,-0.651215,0.768508,0.032855,0.051955,0.988862,-0.135548,-0.006345,-0.211136,0.115339,0.316672,-0.312367,0.1617,-0.341333,-0.069688,0.092076,1.166192,-0.260876,0.055422,0.040785,-0.097111,0.0591,0.011777,0.057793,-0.188526,0.897478,0.851351,0.111184,0.108227,0.040755,-0.177543,0.328474,0.864901,-0.833184,0.230212,-0.049393
-3.686392,-0.653555,0.768569,0.032162,0.050786,0.986455,-0.152618,0.01047,-0.215598,0.078536,0.325613,-0.330697,0.16022,-0.371118,-0.046757,0.121054,1.065124,-0.289499,0.0394,0.029408,-0.094807,0.059198,-0.002756,0.069263,-0.232132,0.897594,0.864683,0.091301,0.088948,0.048459,-0.171592,0.301881,0.845566,-0.815711,0.226686,-0.058713
-3.699959,-0.656426,0.768778,0.030556,0.04908,0.983737,-0.170058,0.030172,-0.219799,0.038991,0.324817,-0.344327,0.159083,-0.394349,-0.024022,0.153736,0.949095,-0.291132,0.033353,0.019512,-0.090719,0.058278,-0.014949,0.083025,-0.278503,0.894408,0.877153,0.06936,0.073924,0.056654,-0.163846,0.275958,0.830388,-0.801889,0.224616,-0.069081
-3.713382,-0.659898,0.76884,0.028478,0.046813,0.980717,-0.187593,0.052082,-0.222885,-0.002204,0.318337,-0.35529,0.15861,-0.410289,0.011503,0.211204,0.827064,-0.263391,0.063342,0.010764,-0.084906,0.056687,-0.023764,0.095711,-0.319391,0.891019,0.883327,0.051835,0.058741,0.063645,-0.155352,0.255409,0.822445,-0.795824,0.226244,-0.078497
-3.726624,-0.663958,0.768377,0.025574,0.044775,0.977435,-0.204845,0.07312,-0.225826,-0.04251,0.310682,-0.365126,0.158609,-0.415816,0.050285,0.289878,0.699741,-0.233456,0.094436,0.003738,-0.07776,0.054582,-0.029173,0.104611,-0.347864,0.888074,0.878258,0.044202,0.04968,0.068027,-0.146768,0.23916,0.821741,-0.794205,0.23128,-0.080986
-3.73972,-0.668563,0.767383,0.02175,0.043458,0.974005,-0.221252,0.092707,-0.229497,-0.080572,0.302444,-0.373366,0.159094,-0.416322,0.075881,0.36479,0.570749,-0.212226,0.132428,-0.001048,-0.070369,0.052417,-0.032324,0.110264,-0.368229,0.887464,0.868993,0.046742,0.045882,0.069594,-0.139016,0.226132,0.825299,-0.79453,0.235236,-0.076281
-3.752803,-0.673657,0.766158,0.017726,0.042629,0.970266,-0.237596,0.112991,-0.233396,-0.118191,0.292737,-0.378941,0.160243,-0.40828,0.09237600000000001,0.439985,0.44483,-0.201033,0.183502,-0.004736,-0.063275,0.049709,-0.031512,0.112662,-0.380822,0.888961,0.85806,0.054482,0.050599,0.070856,-0.132788,0.21617,0.831601,-0.798162,0.238597,-0.069287
-3.76601,-0.679025,0.764795,0.014023,0.042369,0.966284,-0.253583,0.134241,-0.236818,-0.15447,0.283773,-0.384151,0.161871,-0.393096,0.110591,0.520799,0.343168,-0.19878,0.244339,-0.007392,-0.056617,0.046802,-0.026209,0.111474,-0.384293,0.894061,0.84211,0.066096,0.055947,0.07294,-0.128271,0.208779,0.839952,-0.804154,0.242562,-0.060715
-3.779318,-0.684348,0.763502,0.011265,0.042493,0.96254,-0.267552,0.156744,-0.237899,-0.185908,0.275321,-0.388428,0.163248,-0.377557,0.131413,0.551276,0.291779,-0.202491,0.247682,-0.005383,-0.051342,0.044784,-0.019079,0.111835,-0.38758,0.902813,0.830508,0.08088,0.058834,0.076256,-0.123011,0.2014,0.848059,-0.808798,0.24403,-0.054419
-3.792639,-0.689585,0.762652,0.010215,0.042194,0.958313,-0.282402,0.1798,-0.234924,-0.215313,0.269454,-0.387998,0.163732,-0.375162,0.1339,0.549822,0.304715,-0.173705,0.247786,-0.00262,-0.046906,0.044713,-0.011389,0.114711,-0.391856,0.913918,0.823469,0.09512,0.060066,0.080362,-0.117052,0.195407,0.855467,-0.814038,0.243135,-0.051073
-3.805809,-0.694571,0.763437,0.009486,0.041906,0.953385,-0.298683,0.200495,-0.229648,-0.242252,0.268412,-0.382831,0.164706,-0.372032,0.139617,0.546458,0.343394,-0.149223,0.247546,-0.000895,-0.042744,0.044469,-0.000857,0.118701,-0.394554,0.923017,0.822652,0.109156,0.060828,0.080109,-0.107558,0.190145,0.865987,-0.819481,0.245755,-0.050497
-3.819337,-0.699936,0.767039,0.010148,0.041324,0.9487390000000001,-0.313184,0.218858,-0.22312,-0.257032,0.281614,-0.371972,0.169836,-0.365617,0.136001,0.514928,0.374189,-0.14579,0.247548,0.002711,-0.037371,0.043835,0.010001,0.123341,-0.394194,0.936895,0.822862,0.123523,0.06013,0.082513,-0.102895,0.186815,0.878313,-0.826717,0.245281,-0.051807
-3.832748,-0.705607,0.770179,0.010246,0.041152,0.944767,-0.324987,0.224599,-0.218768,-0.256809,0.311201,-0.349112,0.178943,-0.354277,0.129447,0.477439,0.395669,-0.162743,0.247797,0.006508,-0.03011,0.042711,0.024957,0.124083,-0.385622,0.9504300000000001,0.821185,0.1407,0.061335,0.080355,-0.104172,0.187151,0.89731,-0.837841,0.248615,-0.05156
-3.84557,-0.711357,0.773566,0.009764,0.040105,0.941219,-0.335265,0.219942,-0.215403,-0.252783,0.350931,-0.317139,0.192871,-0.334676,0.122965,0.444488,0.39876,-0.184308,0.247832,0.009234,-0.021584,0.040952,0.046165,0.12172,-0.367544,0.959639,0.817763,0.16156,0.064336,0.072268,-0.109265,0.193232,0.918263,-0.853479,0.250237,-0.035167
-3.857523,-0.716932,0.777103,0.008936,0.037887,0.937586,-0.345567,0.204487,-0.211566,-0.248357,0.402124,-0.279467,0.205953,-0.310884,0.114841,0.416465,0.387594,-0.204567,0.247774,0.00948,-0.012648,0.03889,0.071835,0.117962,-0.340848,0.95987,0.802637,0.172914,0.068811,0.062498,-0.120519,0.194892,0.931413,-0.874146,0.247181,-0.006801
-3.868682,-0.722205,0.780565,0.007674,0.035751,0.933488,-0.35674,0.177887,-0.208606,-0.241692,0.467527,-0.23568,0.206203,-0.285846,0.10352,0.389265,0.367774,-0.219513,0.247782,0.007506,-0.003595,0.037058,0.086121,0.115776,-0.333096,0.961632,0.786263,0.170134,0.056279,0.052807,-0.128618,0.191173,0.914112,-0.892459,0.244646,0.017787
-3.87929,-0.72713,0.783728,0.006289,0.034416,0.928644,-0.369319,0.138957,-0.20232,-0.218026,0.549091,-0.184497,0.180427,-0.261595,0.09114100000000001,0.36021,0.348186,-0.232426,0.247798,0.003022,0.004804,0.036354,0.089968,0.133703,-0.356541,0.960711,0.791607,0.148741,0.014754,0.051468,-0.128424,0.169197,0.848729,-0.891361,0.233488,0.014834
-3.889313,-0.731753,0.786663,0.005382,0.033375,0.923113,-0.383041,0.09006,-0.187567,-0.175264,0.645202,-0.137273,0.124418,-0.237667,0.078729,0.330332,0.329253,-0.24196,0.247802,-0.003521,0.012041,0.036937,0.08765,0.165478,-0.392957,0.9505110000000001,0.81283,0.119093,-0.021741,0.055645,-0.119488,0.142233,0.744477,-0.870899,0.202944,-0.015868
-3.898998,-0.735996,0.792403,0.005742,0.032081,0.9166820000000001,-0.398286,0.036768,-0.158969,-0.114706,0.754463,-0.111511,0.038567,-0.214154,0.068413,0.29636,0.313735,-0.251067,0.247805,-0.010269,0.018024,0.038827,0.083075,0.197906,-0.4188,0.935349,0.830978,0.099048,-0.04453,0.060142,-0.108864,0.1228,0.621378,-0.834672,0.145536,-0.050793
-3.908354,-0.740097,0.795034,0.007287,0.029947,0.909924,-0.413628,-0.018497,-0.11139,-0.040755,0.858786,-0.105641,-0.040223,-0.189566,0.061968,0.25971,0.296869,-0.259602,0.247816,-0.015802,0.024107,0.041281,0.078595,0.218722,-0.418815,0.918361,0.828873,0.093882,-0.044325,0.054206,-0.109539,0.12632,0.495143,-0.818829,0.091617,-0.076717
-3.917317,-0.744369,0.796306,0.010595,0.0277,0.903394,-0.427784,-0.06767,-0.054789,0.030916,0.945989,-0.115892,-0.063297,-0.162034,0.056564,0.225462,0.277983,-0.262627,0.247805,-0.019359,0.030366,0.043361,0.077212,0.227214,-0.399049,0.902036,0.812291,0.099473,-0.025503,0.030045,-0.123987,0.150907,0.375886,-0.832361,0.046357,-0.088089
-3.925806,-0.748978,0.796909,0.014873,0.025337,0.896676,-0.441711,-0.10957,0.00109,0.090342,1.004475,-0.13407,-0.058493,-0.134902,0.052053,0.19375,0.262521,-0.263577,0.247757,-0.02022,0.035777,0.04409,0.078557,0.227987,-0.36815,0.885553,0.791535,0.115839,0.008676,-0.010328,-0.134699,0.173237,0.265707,-0.838982,0.004248,-0.071782
-3.933851,-0.754048,0.797167,0.018602,0.023716,0.889639,-0.455669,-0.145538,0.044094,0.130317,1.026691,-0.145999,-0.054366,-0.111019,0.046268,0.16449,0.253825,-0.265943,0.24778,-0.018136,0.040172,0.043978,0.0812,0.222902,-0.336379,0.866493,0.768644,0.12646,0.046734,-0.063434,-0.136946,0.184443,0.162523,-0.810957,-0.033147,-0.039693
-3.941383,-0.759566,0.797007,0.021937,0.022545,0.882205,-0.469814,-0.177942,0.072633,0.154221,1.017624,-0.169407,-0.046867,-0.09542900000000001,0.040728,0.136132,0.261802,-0.274927,0.246819,-0.013521,0.043267,0.04385,0.084254,0.216604,-0.311666,0.846591,0.749997,0.128988,0.074414,-0.127185,-0.137981,0.192539,0.065604,-0.767454,-0.058422,-0.023549
-3.948582,-0.76556,0.796493,0.024912,0.021383,0.873863,-0.485063,-0.209119,0.085417,0.15993,0.9795370000000002,-0.206525,-0.037222,-0.083801,0.038474,0.107195,0.278921,-0.288744,0.235435,-0.006147,0.045248,0.044081,0.086552,0.210693,-0.294262,0.826308,0.736414,0.126345,0.09245,-0.195247,-0.144369,0.205158,-0.026946,-0.717642,-0.086202,-0.019414
-3.955579,-0.772118,0.795742,0.027533,0.020056,0.864439,-0.501583,-0.23519,0.092153,0.161125,0.914336,-0.244107,-0.026629,-0.070885,0.038974,0.07557,0.294776,-0.305756,0.21321,0.00371,0.04663,0.044034,0.088059,0.205457,-0.285338,0.808715,0.729848,0.122846,0.102663,-0.266121,-0.155746,0.21818,-0.109416,-0.658809,-0.101514,-0.018468
-3.962216,-0.779396,0.794786,0.030061,0.018466,0.854134,-0.518854,-0.256707,0.096315,0.161874,0.828559,-0.269554,-0.020451,-0.055253,0.039624,0.04204,0.306398,-0.321119,0.184136,0.014864,0.047702,0.043177,0.090505,0.201389,-0.283759,0.794565,0.730364,0.11702,0.102814,-0.33834,-0.169007,0.239308,-0.179128,-0.557841,-0.126023,-0.008163
-3.968547,-0.787356,0.793647,0.03163,0.01726,0.843077,-0.536585,-0.271557,0.098609,0.168987,0.723948,-0.276018,-0.001093,-0.035964,0.038975,0.007736,0.309548,-0.332293,0.150652,0.02691,0.047998,0.041368,0.093767,0.197859,-0.286172,0.783821,0.739,0.10903,0.101471,-0.409098,-0.179093,0.267197,-0.237668,-0.38739,-0.136477,0.00146
-3.974553,-0.795938,0.791979,0.03237,0.016167,0.831472,-0.554388,-0.283843,0.096734,0.177155,0.612846,-0.262762,0.017922,-0.01509,0.03801,-0.026742,0.307405,-0.340703,0.115527,0.04033,0.046815,0.039438,0.09753800000000001,0.19008,-0.28348,0.777609,0.746827,0.106927,0.103995,-0.480368,-0.199685,0.297913,-0.292005,-0.185636,-0.144432,0.009482
-3.980276,-0.805166,0.789125,0.032502,0.015378,0.819913,-0.571358,-0.295087,0.091088,0.186385,0.504017,-0.228035,0.026724,0.00726,0.037505,-0.05931,0.301692,-0.346078,0.078078,0.053695,0.04444,0.037491,0.103487,0.174882,-0.272748,0.775793,0.745455,0.109473,0.107843,-0.553388,-0.232128,0.320556,-0.345304,-0.002272,-0.152786,0.003233
-3.985723,-0.815176,0.78355,0.032346,0.015324,0.808887,-0.586874,-0.304856,0.077616,0.183941,0.402791,-0.18418,0.025901,0.032414,0.036827,-0.089292,0.294335,-0.348723,0.042935,0.066346,0.040852,0.035703,0.117316,0.155963,-0.251197,0.776271,0.729483,0.110687,0.114584,-0.627331,-0.272019,0.332253,-0.39525,0.132731,-0.167067,-0.015215
-3.990769,-0.825754,0.781062,0.032402,0.015083,0.798206,-0.601323,-0.312936,0.059279,0.16039,0.311815,-0.141393,0.011703,0.056993,0.03682,-0.117846,0.287474,-0.357596,0.017351,0.078766,0.035735,0.034811,0.132544,0.132438,-0.216682,0.779267,0.698411,0.113789,0.128261,-0.696021,-0.312439,0.328505,-0.436105,0.210991,-0.174957,-0.0455
-3.995417,-0.83706,0.779173,0.032342,0.01537,0.788376,-0.614151,-0.31752,0.041871,0.134943,0.235095,-0.107923,0.003883,0.083362,0.036559,-0.143086,0.27895,-0.368909,0.004161,0.089801,0.030372,0.034509,0.149877,0.108859,-0.173285,0.783034,0.657815,0.117009,0.153018,-0.754768,-0.345657,0.324507,-0.46928,0.268195,-0.177509,-0.071516
-3.999564,-0.849153,0.777159,0.032607,0.015418,0.779638,-0.625191,-0.319969,0.028721,0.111868,0.179103,-0.09361100000000001,0.003239,0.109965,0.037442,-0.165406,0.272037,-0.382315,-0.005697,0.09933,0.025109,0.0346,0.164753,0.093741,-0.13968,0.790573,0.628427,0.120385,0.173668,-0.803488,-0.377373,0.314656,-0.496475,0.300025,-0.171617,-0.0991
-4.00309,-0.86193,0.774886,0.03311,0.015051,0.772781,-0.633629,-0.324119,0.023129,0.101558,0.154998,-0.088539,0.005837,0.134646,0.039385,-0.182594,0.268566,-0.396661,-0.012266,0.107104,0.019899,0.035099,0.179587,0.091197,-0.119311,0.796219,0.617517,0.125256,0.184181,-0.851056,-0.4078,0.304496,-0.52252,0.319399,-0.163216,-0.126496
-4.005912,-0.875476,0.77241,0.033523,0.014654,0.76785,-0.639584,-0.322193,0.022181,0.10133,0.150693,-0.088717,0.008938,0.15761,0.040598,-0.194109,0.268661,-0.409966,-0.013702,0.113289,0.01499,0.035163,0.195188,0.090991,-0.104128,0.805207,0.616753,0.132383,0.190344,-0.889592,-0.437532,0.289784,-0.548004,0.318005,-0.152083,-0.14182
-4.007934,-0.889935,0.769606,0.033311,0.01429,0.764907,-0.64312,-0.310421,0.022856,0.104709,0.159122,-0.08973,0.010027,0.180586,0.039934,-0.199245,0.26809,-0.418999,-0.009564,0.11798,0.009996,0.034514,0.21117,0.091955,-0.092022,0.818504,0.622856,0.137246,0.192549,-0.922292,-0.466745,0.268395,-0.576829,0.296519,-0.136217,-0.148794
-4.009131,-0.904932,0.769799,0.031831,0.015203,0.764446,-0.643722,-0.296075,0.021548,0.115205,0.171062,-0.070017,0.014869,0.204769,0.034455,-0.196639,0.262432,-0.41831,-4.9e-05,0.120894,0.004482,0.033117,0.227399,0.092187,-0.083052,0.837101,0.634764,0.142484,0.188136,-0.9501520000000001,-0.490737,0.245644,-0.611029,0.274898,-0.119657,-0.154548
-4.009518,-0.9207280000000002,0.772953,0.029076,0.017111,0.765701,-0.642311,-0.276782,0.017288,0.132753,0.168656,-0.022228,0.029137,0.229828,0.023998,-0.188498,0.256562,-0.405105,0.014196,0.121979,-0.001692,0.029974,0.241157,0.09099,-0.077394,0.863047,0.653028,0.15163,0.179171,-0.973157,-0.517453,0.214926,-0.648605,0.232749,-0.089897,-0.17205
-4.009018,-0.9372220000000001,0.775986,0.025398,0.019189,0.768064,-0.639581,-0.254377,0.008695,0.148871,0.160188,0.027143,0.041217,0.247372,0.00837,-0.175327,0.261602,-0.384373,0.032752,0.121029,-0.008692,0.025454,0.254097,0.088409,-0.07143,0.891222,0.673589,0.161094,0.167193,-0.993681,-0.545762,0.183395,-0.695043,0.174444,-0.051919,-0.197985
-4.007832,-0.954264,0.778948,0.021323,0.021214,0.770781,-0.636389,-0.234389,-0.0032,0.161212,0.161679,0.027081,0.065981,0.258178,-0.010294,-0.158432,0.276805,-0.3562,0.058457,0.118502,-0.016382,0.021058,0.263083,0.086276,-0.065692,0.922466,0.696283,0.176521,0.146666,-1.010066,-0.576952,0.150521,-0.751066,0.096051,-0.015681,-0.232332
-4.006118,-0.971579,0.781828,0.01713,0.023065,0.77401,-0.632521,-0.214516,-0.015357,0.175009,0.167816,0.003878,0.082763,0.260622,-0.030964,-0.138427,0.304283,-0.319239,0.087122,0.114199,-0.023129,0.017119,0.268145,0.083081,-0.057064,0.9509820000000001,0.721796,0.185679,0.121355,-1.01471,-0.610391,0.124022,-0.81476,-0.00483,0.023381,-0.283016
-4.004065,-0.988797,0.784301,0.013072,0.024326,0.77792,-0.627756,-0.195924,-0.025863,0.190379,0.17639,-0.024733,0.093636,0.253496,-0.051499,-0.11519,0.344747,-0.277086,0.116681,0.108549,-0.027981,0.013687,0.27196,0.082013,-0.049932,0.976507,0.74647,0.193203,0.087912,-1.018061,-0.641827,0.101249,-0.868536,-0.112131,0.05007,-0.347443
-4.001784,-1.005781,0.785728,0.009917,0.025098,0.782444,-0.622136,-0.179276,-0.033875,0.206403,0.190055,-0.054868,0.10402,0.239789,-0.070164,-0.089566,0.394972,-0.23115,0.146608,0.101993,-0.030418,0.010783,0.273935,0.085024,-0.048857,0.9924210000000001,0.77634,0.191994,0.05489,-1.016201,-0.668499,0.098223,-0.907642,-0.187209,0.063513,-0.400518
-3.999335,-1.022597,0.784474,0.007051,0.025943,0.787002,-0.616364,-0.162119,-0.041377,0.223206,0.207122,-0.084454,0.107141,0.218669,-0.087456,-0.060348,0.45904,-0.19003,0.171383,0.094729,-0.031068,0.008289,0.275036,0.089506,-0.050202,0.997919,0.806733,0.17963,0.021747,-1.01374,-0.690005,0.110208,-0.9283340000000002,-0.19855,0.054232,-0.395405
-3.99678,-1.038768,0.784037,0.00495,0.026455,0.791101,-0.611093,-0.146339,-0.048798,0.238192,0.21982,-0.113967,0.109649,0.188328,-0.101846,-0.031772,0.538468,-0.151705,0.19418,0.08698,-0.030927,0.006151,0.271289,0.096859,-0.049335,0.9950000000000001,0.83428,0.164307,-0.010771,-1.010163,-0.70204,0.107172,-0.930148,-0.151942,0.029553,-0.341118
-3.994262,-1.05442,0.78332,0.003644,0.026969,0.794903,-0.606126,-0.128625,-0.056234,0.2521,0.228758,-0.14234,0.113254,0.147652,-0.112771,-0.004185,0.634261,-0.111194,0.207858,0.078759,-0.030707,0.004991,0.262195,0.108695,-0.046909,0.9834020000000001,0.861727,0.147362,-0.023947,-1.008635,-0.707749,0.066798,-0.917283,-0.090188,-0.00408,-0.289588
-3.991978,-1.069888,0.783579,0.003235,0.028052,0.798263,-0.601647,-0.108043,-0.064013,0.264921,0.235459,-0.169408,0.116943,0.096057,-0.121184,0.025091,0.750743,-0.068883,0.224421,0.070158,-0.0308,0.005161,0.249834,0.123405,-0.045528,0.967219,0.888512,0.133749,-0.022888,-1.006939,-0.71754,-0.003434,-0.903257,-0.041661,-0.032494,-0.271577
-3.989793,-1.084993,0.782642,0.003225,0.029162,0.801911,-0.596723,-0.085971,-0.07175,0.278289,0.238724,-0.194797,0.120131,0.034414,-0.127008,0.053558,0.87553,-0.032566,0.227167,0.060602,-0.031342,0.006356,0.235166,0.137825,-0.03898,0.945643,0.907074,0.12715,-0.002699,-1.005398,-0.738993,-0.08602,-0.903156,-0.025722,-0.048213,-0.270689
-3.98769,-1.099825,0.781252,0.003101,0.030608,0.805906,-0.591244,-0.0636,-0.080407,0.292642,0.240349,-0.218509,0.122553,-0.033159,-0.127909,0.084068,0.998435,-0.022725,0.20643,0.049153,-0.03202,0.008315,0.220196,0.149616,-0.026914,0.923668,0.912363,0.121414,0.028663,-1.006421,-0.773047,-0.171909,-0.923634,-0.062083,-0.077279,-0.272854
-3.985688,-1.114419,0.779566,0.001922,0.032752,0.810539,-0.584765,-0.044203,-0.090605,0.309439,0.24478,-0.24176,0.123816,-0.100692,-0.127463,0.112898,1.096508,-0.073315,0.178778,0.035804,-0.03196,0.010672,0.204733,0.15812,-0.01247,0.905514,0.9036360000000001,0.115173,0.063744,-1.006477,-0.813421,-0.255172,-0.958725,-0.141706,-0.129184,-0.275441
-3.983697,-1.12926,0.777943,0.001204,0.034605,0.815337,-0.57795,-0.02176,-0.101306,0.326441,0.244394,-0.262434,0.123694,-0.165828,-0.125671,0.134299,1.155257,-0.12065,0.155021,0.0205,-0.030592,0.012698,0.184629,0.159322,-0.002357,0.896144,0.887295,0.118787,0.100825,-1.003733,-0.853453,-0.332976,-0.999696,-0.242249,-0.171871,-0.294711
-3.981737,-1.144299,0.776334,0.001008,0.036451,0.819871,-0.571385,0.001529,-0.112284,0.342666,0.243863,-0.2813,0.123144,-0.224364,-0.115842,0.153737,1.17249,-0.153265,0.123885,0.002886,-0.027688,0.014097,0.169955,0.170569,0.002511,0.893125,0.870414,0.116067,0.1239,-0.993741,-0.899233,-0.406229,-1.028033,-0.364029,-0.204725,-0.310358
-3.979812,-1.159515,0.774673,0.000699,0.038204,0.824756,-0.564196,0.02294,-0.122994,0.359945,0.246884,-0.299581,0.122215,-0.276459,-0.098566,0.172631,1.149937,-0.20002,0.106692,-0.016712,-0.023053,0.014539,0.158258,0.186029,-0.000935,0.895255,0.858804,0.117028,0.134223,-0.99116,-0.944033,-0.457578,-1.032552,-0.471617,-0.251302,-0.340445
-3.977859,-1.175047,0.773149,0.000404,0.038937,0.830072,-0.556295,0.046057,-0.133753,0.377581,0.244704,-0.314037,0.121089,-0.320787,-0.067224,0.196538,1.095715,-0.252519,0.093183,-0.037069,-0.016754,0.013736,0.145761,0.203214,-0.013109,0.901606,0.852341,0.116185,0.131355,-0.982673,-0.977758,-0.478003,-1.032824,-0.547123,-0.282681,-0.393954
-3.976002,-1.19072,0.771739,0.000401,0.038803,0.836205,-0.547043,0.071013,-0.144161,0.395157,0.237567,-0.32513,0.119385,-0.358323,-0.028688,0.220315,1.016877,-0.287453,0.089325,-0.056564,-0.009608,0.012078,0.133207,0.223046,-0.035141,0.911401,0.855942,0.114866,0.124425,-0.966555,-1.004183,-0.481825,-1.032855,-0.614717,-0.292252,-0.456257
-3.974249,-1.20637,0.770422,0.000614,0.036961,0.84253,-0.537379,0.096982,-0.1534,0.411754,0.223508,-0.331652,0.117398,-0.390451,0.013417,0.239547,0.921309,-0.29485,0.087857,-0.07476,-0.002116,0.009797,0.118692,0.241121,-0.057936,0.921206,0.860854,0.113856,0.116073,-0.950968,-1.024213,-0.487819,-1.032866,-0.701354,-0.292511,-0.526595
-3.972655,-1.221934,0.768868,0.000138,0.034181,0.848292,-0.528424,0.1212,-0.163098,0.42622,0.206795,-0.33507,0.115868,-0.417692,0.052369,0.2459,0.815289,-0.287839,0.074793,-0.091148,0.005063,0.006984,0.103372,0.255342,-0.080347,0.928961,0.866413,0.113794,0.103284,-0.934576,-1.035622,-0.482865,-1.032859,-0.778357,-0.291974,-0.612938
-3.971195,-1.237442,0.767175,-0.000965,0.030862,0.85299,-0.521012,0.14468,-0.174303,0.437098,0.186524,-0.33504,0.115644,-0.439844,0.082644,0.228292,0.701387,-0.252751,0.075245,-0.104746,0.011332,0.003788,0.088222,0.263676,-0.099882,0.931335,0.870229,0.112991,0.096357,-0.918641,-1.041353,-0.482334,-1.032487,-0.853778,-0.287849,-0.691311
-3.969955,-1.252968,0.765749,-0.002406,0.027827,0.85636,-0.515623,0.168079,-0.187291,0.443905,0.165504,-0.332897,0.115626,-0.452182,0.107437,0.196808,0.581228,-0.197589,0.09924,-0.11668,0.017091,1.4e-05,0.072111,0.264811,-0.114084,0.931753,0.866324,0.11019,0.092609,-0.9067,-1.043915,-0.492618,-1.032576,-0.93451,-0.279276,-0.768005
-3.968922,-1.268836,0.766722,-0.004006,0.024419,0.858243,-0.512646,0.1936,-0.202244,0.446088,0.14362,-0.328164,0.115514,-0.452009,0.131054,0.164179,0.455135,-0.148788,0.13274,-0.127991,0.023141,-0.00484,0.055791,0.26217,-0.130877,0.929822,0.863839,0.106533,0.086191,-0.891534,-1.045231,-0.495215,-1.032607,-0.997178,-0.26483,-0.830352
-3.968287,-1.284887,0.765213,-0.0054,0.021302,0.858405,-0.512502,0.217925,-0.215197,0.441631,0.125209,-0.326552,0.115067,-0.443794,0.154841,0.143071,0.343946,-0.129363,0.167972,-0.138441,0.029828,-0.010671,0.041662,0.256695,-0.153962,0.920221,0.866392,0.097401,0.079891,-0.883528,-1.050249,-0.492873,-1.032603,-1.043088,-0.243084,-0.877173
-3.967891,-1.301328,0.762762,-0.006579,0.019482,0.857982,-0.513268,0.242041,-0.228796,0.433692,0.113085,-0.325866,0.115027,-0.43292,0.171119,0.112552,0.272094,-0.127022,0.19216,-0.147274,0.036196,-0.017074,0.037997,0.248804,-0.1783,0.896808,0.871766,0.084488,0.073624,-0.898189,-1.05127,-0.484206,-1.032556,-1.083603,-0.232367,-0.908598
-3.967641,-1.31808,0.760262,-0.007815,0.018445,0.856528,-0.515711,0.26284,-0.241193,0.422447,0.110616,-0.323212,0.11574,-0.427507,0.180382,0.085094,0.262588,-0.129682,0.189425,-0.154844,0.04198,-0.023761,0.029703,0.240433,-0.205486,0.876883,0.876089,0.067012,0.059323,-0.9230640000000001,-1.063251,-0.475036,-1.032514,-1.120452,-0.213776,-0.932152
-3.967569,-1.335222,0.758115,-0.007512,0.016392,0.852874,-0.521805,0.283096,-0.247632,0.405032,0.114066,-0.314503,0.11683,-0.426252,0.193978,0.100634,0.298091,-0.104586,0.095449,-0.162793,0.048099,-0.030819,0.0182,0.232621,-0.234569,0.859305,0.880764,0.049581,0.042964,-0.942661,-1.080135,-0.461744,-1.032555,-1.150033,-0.190809,-0.940101
-3.967987,-1.352254,0.758681,-0.005944,0.012994,0.84883,-0.528473,0.304657,-0.248487,0.387118,0.11541,-0.293567,0.116315,-0.420401,0.189284,0.085309,0.323434,-0.062579,0.043329,-0.166639,0.055331,-0.038961,0.004407,0.22541,-0.263952,0.845734,0.886166,0.036241,0.022837,-0.953665,-1.098842,-0.448698,-1.032616,-1.179955,-0.163401,-0.939991
-3.968495,-1.369729,0.760458,-0.003512,0.008772,0.844265,-0.535842,0.319152,-0.241304,0.375174,0.133081,-0.265288,0.111088,-0.412784,0.180834,0.066335,0.349892,-0.057103,0.027351,-0.168267,0.065552,-0.046776,-0.009657,0.216656,-0.290949,0.836591,0.892428,0.024544,0.011271,-0.958255,-1.115893,-0.432362,-1.032629,-1.209336,-0.130136,-0.9397160000000001
-3.969125,-1.387418,0.762804,-0.000145,0.004844,0.840357,-0.542011,0.322767,-0.227579,0.368601,0.174887,-0.229829,0.099783,-0.401959,0.17745,0.060723,0.38167,-0.084091,0.012336,-0.169767,0.076776,-0.052381,-0.016518,0.203284,-0.311257,0.831581,0.900059,0.024575,0.015247,-0.955421,-1.121385,-0.406288,-1.032651,-1.232432,-0.097712,-0.94043
-3.97016,-1.40469,0.765617,0.003437,0.001075,0.83562,-0.549295,0.315133,-0.206743,0.357539,0.235373,-0.185159,0.072029,-0.3759,0.175665,0.057891,0.387283,-0.101964,-0.019879,-0.172705,0.085941,-0.056689,-0.016953,0.186272,-0.330546,0.831627,0.903347,0.034032,0.024678,-0.940725,-1.113097,-0.365053,-1.032703,-1.241661,-0.069099,-0.9306
-3.971329,-1.421559,0.767338,0.007592,-0.001739,0.828522,-0.559902,0.293123,-0.179453,0.337687,0.324836,-0.131477,0.026746,-0.337446,0.170267,0.050504,0.376162,-0.109304,-0.064636,-0.17685,0.09130700000000001,-0.060091,-0.031608,0.179658,-0.35973,0.826945,0.900892,0.031621,-0.002728,-0.920187,-1.100108,-0.32119,-1.032788,-1.239181,-0.048708,-0.906262
-3.972333,-1.437351,0.770112,0.011803,-0.003193,0.821496,-0.570083,0.254096,-0.150106,0.313821,0.445011,-0.081079,-0.029983,-0.301083,0.161928,0.038862,0.362683,-0.121863,-0.085282,-0.179883,0.094308,-0.061827,-0.040595,0.184543,-0.410371,0.827485,0.906336,0.012042,-0.044184,-0.9106280000000002,-1.08038,-0.268769,-1.032821,-1.23341,-0.036792,-0.875148
-3.972982,-1.452623,0.773628,0.016961,-0.003298,0.814856,-0.579407,0.204551,-0.119247,0.295863,0.592577,-0.035614,-0.094759,-0.266524,0.152196,0.024721,0.357301,-0.14044,-0.09291700000000001,-0.18071,0.094981,-0.061099,-0.050478,0.199319,-0.460339,0.826121,0.911871,-0.01528,-0.093744,-0.917944,-1.048113,-0.212265,-1.032825,-1.23093,-0.025411,-0.844159
-3.973502,-1.466926,0.7749,0.02231,-0.002746,0.809403,-0.586823,0.146838,-0.082604,0.284814,0.746583,-0.002547,-0.190458,-0.236092,0.144194,0.011537,0.357709,-0.162975,-0.093383,-0.178846,0.093549,-0.058028,-0.053233,0.21519,-0.490222,0.817059,0.916109,-0.037235,-0.136265,-0.968776,-0.992501,-0.14239,-1.032825,-1.235307,-0.021307,-0.790817
-3.973874,-1.480236,0.775098,0.027352,-0.002924,0.804243,-0.593664,0.080449,-0.043785,0.273834,0.89898,0.004467,-0.243349,-0.210634,0.138362,-0.002367,0.361601,-0.187398,-0.090417,-0.174702,0.090815,-0.053254,-0.051641,0.225468,-0.482056,0.801548,0.9044930000000002,-0.032311,-0.140233,-1.00137,-0.933745,-0.075411,-1.032872,-1.250179,-0.015862,-0.753748
-3.973923,-1.492919,0.774904,0.032587,-0.003735,0.798755,-0.600761,0.01091,0.00212,0.257352,1.033077,-0.042772,-0.243815,-0.187159,0.133846,-0.017485,0.367168,-0.212241,-0.087521,-0.16845,0.087699,-0.047123,-0.04114,0.227427,-0.450371,0.786011,0.883483,-0.011628,-0.105557,-1.01869,-0.876392,-0.014191,-1.03287,-1.274625,-0.007681,-0.725283
-3.973648,-1.505466,0.775123,0.036232,-0.003865,0.792396,-0.608918,-0.060443,0.060947,0.244941,1.132271,-0.090313,-0.209319,-0.159397,0.125911,-0.03266,0.362312,-0.233018,-0.082919,-0.160214,0.084074,-0.0403,-0.036336,0.2224,-0.410159,0.792093,0.836309,0.008493,-0.029282,-1.027755,-0.825472,0.030346,-1.032844,-1.290477,0.001141,-0.700023
-3.972884,-1.517897,0.775418,0.039422,-0.004417,0.784704,-0.6186,-0.131632,0.125225,0.229945,1.187654,-0.140018,-0.164233,-0.130687,0.117093,-0.050701,0.353996,-0.252195,-0.077325,-0.150678,0.079593,-0.032918,-0.027145,0.209479,-0.37126,0.803992,0.787958,0.031813,0.051821,-1.018236,-0.793394,0.069117,-1.032838,-1.30608,0.019299,-0.695364
-3.971449,-1.530396,0.775564,0.042215,-0.005229,0.776867,-0.628226,-0.201366,0.183427,0.209986,1.194276,-0.201115,-0.110683,-0.10364,0.107836,-0.069698,0.347452,-0.271666,-0.070907,-0.139346,0.074449,-0.025356,-0.012214,0.198458,-0.344365,0.820424,0.750392,0.053003,0.104848,-1.01517,-0.765324,0.109765,-1.032831,-1.318718,0.027187,-0.696581
-3.969319,-1.543228,0.775524,0.04425,-0.006281,0.768941,-0.637755,-0.267212,0.231596,0.187916,1.154923,-0.243897,-0.074487,-0.078316,0.097816,-0.088933,0.342636,-0.291734,-0.064036,-0.125943,0.068609,-0.018221,0.002388,0.194959,-0.329458,0.836641,0.727126,0.069602,0.129791,-1.014309,-0.74077,0.148003,-1.03282,-1.331463,0.03229,-0.699081
-3.966393,-1.556642,0.775075,0.04616,-0.008186,0.761597,-0.646353,-0.323776,0.268465,0.165319,1.073214,-0.279006,-0.056546,-0.055993,0.088781,-0.106838,0.343093,-0.314326,-0.056404,-0.111324,0.062617,-0.012066,0.017398,0.204358,-0.330327,0.849582,0.729669,0.078033,0.142153,-1.015834,-0.715699,0.183122,-1.032802,-1.343887,0.038375,-0.702712
-3.962804,-1.570899,0.77449,0.046586,-0.009354,0.755438,-0.653495,-0.365935,0.288677,0.141478,0.947848,-0.288081,-0.049845,-0.032839,0.077397,-0.120811,0.342205,-0.337193,-0.047524,-0.096272,0.056785,-0.007491,0.034941,0.213781,-0.326967,0.86274,0.738062,0.088963,0.153075,-1.01825,-0.690639,0.216818,-1.032774,-1.353405,0.042925,-0.703064
-3.95847,-1.585956,0.773489,0.046032,-0.01054,0.750086,-0.659652,-0.393624,0.290008,0.105289,0.789279,-0.271373,-0.061437,-0.009652,0.064408,-0.132378,0.340732,-0.360322,-0.03689,-0.080963,0.05085,-0.004924,0.054763,0.21937,-0.304095,0.876203,0.731304,0.106362,0.166636,-1.005126,-0.673259,0.243637,-1.032702,-1.363515,0.046101,-0.71826
-3.953607,-1.601782,0.772045,0.04374,-0.012412,0.744833,-0.6657,-0.406648,0.278308,0.056352,0.604171,-0.219158,-0.076512,0.013489,0.050227,-0.143579,0.334852,-0.381722,-0.025103,-0.065135,0.045049,-0.004017,0.078739,0.215598,-0.267578,0.889614,0.715471,0.126297,0.183303,-1.002914,-0.655584,0.268887,-1.032627,-1.373694,0.051574,-0.724624
-3.948247,-1.618401,0.770061,0.041606,-0.013922,0.740414,-0.670717,-0.403652,0.264612,0.006454,0.417729,-0.165056,-0.09243100000000001,0.041283,0.036405,-0.152897,0.323386,-0.400752,-0.012198,-0.050253,0.039958,-0.003875,0.107756,0.205065,-0.217884,0.9023620000000001,0.689542,0.144375,0.200645,-1.00365,-0.637876,0.293838,-1.032534,-1.381191,0.056251,-0.72437
-3.942181,-1.635798,0.767416,0.041502,-0.015287,0.736691,-0.674781,-0.391077,0.259393,-0.020108,0.267121,-0.149899,-0.112676,0.073965,0.024248,-0.161943,0.31155,-0.419478,0.005393,-0.036778,0.03604,-0.002914,0.142625,0.185108,-0.170108,0.920048,0.663062,0.160581,0.223968,-1.009014,-0.617676,0.316219,-1.032412,-1.384165,0.059277,-0.717186
-3.935241,-1.653553,0.764505,0.04245,-0.016214,0.732713,-0.679018,-0.386029,0.260157,0.009475,0.198621,-0.14494,-0.137274,0.109535,0.01114,-0.172382,0.299406,-0.436907,0.029404,-0.025481,0.034308,-0.000486,0.173485,0.175403,-0.134629,0.935879,0.648882,0.17468,0.227155,-1.008726,-0.598136,0.335913,-1.032295,-1.386126,0.063337,-0.708491
-3.927588,-1.671395,0.762267,0.041049,-0.014561,0.730337,-0.681697,-0.377693,0.246,0.026784,0.194773,-0.096076,-0.138578,0.148634,-0.008756,-0.1801,0.276853,-0.442318,0.056109,-0.013074,0.031566,0.00152,0.201875,0.166021,-0.114059,0.950763,0.650786,0.186511,0.222466,-1.005766,-0.579482,0.354206,-1.032207,-1.387426,0.068448,-0.700513
-3.919106,-1.688815,0.761904,0.038252,-0.010531,0.729525,-0.682803,-0.376528,0.213991,0.005725,0.231367,-0.040052,-0.120683,0.186312,-0.035464,-0.184565,0.256978,-0.439467,0.082127,0.001049,0.026061,0.003454,0.229353,0.156335,-0.105008,0.965662,0.663743,0.194976,0.205919,-1.001075,-0.563606,0.370342,-1.032816,-1.387728,0.073307,-0.691346
-3.909698,-1.706636,0.7622,0.034372,-0.005391,0.728043,-0.684648,-0.375447,0.183514,0.005744,0.274418,-0.0102,-0.11768,0.217098,-0.068237,-0.189928,0.251823,-0.42946,0.103831,0.012533,0.01784,0.004809,0.253081,0.145601,-0.099158,0.982295,0.680861,0.205755,0.180983,-0.994828,-0.55043,0.384787,-1.032823,-1.387512,0.079391,-0.67584
-3.899758,-1.7246,0.763301,0.030581,0.0009410000000000002,0.726553,-0.686429,-0.370994,0.155135,0.019987,0.325585,-0.025862,-0.102841,0.235802,-0.10516,-0.193138,0.27404,-0.409665,0.11459,0.02156,0.006651,0.007182,0.274062,0.135775,-0.090231,0.995245,0.697409,0.217973,0.151552,-0.989523,-0.537181,0.399978,-1.032808,-1.387267,0.080706,-0.665125
-3.889688,-1.742674,0.767955,0.025801,0.00711,0.726001,-0.687173,-0.351457,0.125797,0.038649,0.351213,-0.052952,-0.084666,0.242054,-0.143383,-0.190721,0.317407,-0.371372,0.110083,0.029104,-0.005224,0.009328,0.289905,0.122342,-0.074663,1.002641,0.72168,0.231126,0.125757,-0.987509,-0.52202,0.419385,-1.032812,-1.391254,0.08979,-0.658831
-3.880066,-1.759855,0.770017,0.021282,0.01292,0.726159,-0.687075,-0.320491,0.096494,0.055545,0.355738,-0.074564,-0.06261,0.231944,-0.17957,-0.187268,0.378303,-0.320128,0.087285,0.035639,-0.016187,0.011037,0.302199,0.111543,-0.05855,1.005132,0.743967,0.234763,0.101284,-0.985352,-0.507795,0.436585,-1.032798,-1.394148,0.094619,-0.652099
-3.871175,-1.775977,0.772828,0.017433,0.017343,0.726079,-0.687172,-0.290517,0.070685,0.070018,0.34966,-0.093623,-0.043433,0.204288,-0.212702,-0.185228,0.4634,-0.261182,0.051622,0.040433,-0.026012,0.01254,0.309777,0.105241,-0.044463,0.999988,0.76784,0.231378,0.086656,-0.982441,-0.495498,0.44994,-1.032779,-1.394465,0.097203,-0.648536
-3.863026,-1.791066,0.774994,0.014019,0.021314,0.725767,-0.687467,-0.262263,0.047092,0.082277,0.341641,-0.110327,-0.030967,0.164257,-0.249826,-0.192193,0.568072,-0.206376,0.034675,0.043295,-0.035231,0.014528,0.313899,0.100651,-0.033463,0.988207,0.790395,0.221345,0.074402,-0.978254,-0.484949,0.46223,-1.032769,-1.393687,0.099678,-0.653742
-3.855229,-1.805577,0.777756,0.010088,0.025117,0.72557,-0.687615,-0.236363,0.023753,0.093489,0.33416,-0.126582,-0.023022,0.114014,-0.295597,-0.209309,0.687182,-0.16123,0.015046,0.043678,-0.044673,0.017828,0.314166,0.097909,-0.027359,0.968753,0.812007,0.203378,0.067993,-0.9737,-0.476184,0.475141,-1.032756,-1.391861,0.104763,-0.663015
-3.848113,-1.819328,0.778366,0.005928,0.029555,0.725094,-0.68799,-0.212621,-0.000479,0.102773,0.328193,-0.143653,-0.014459,0.058971,-0.34032,-0.223295,0.804355,-0.149809,-0.011481,0.040717,-0.055037,0.022446,0.310397,0.097884,-0.025472,0.9458740000000002,0.830182,0.177348,0.069805,-0.966315,-0.46974,0.490185,-1.032707,-1.387775,0.105241,-0.670965
-3.841874,-1.832489,0.778014,0.002403,0.035383,0.723303,-0.68962,-0.190016,-0.025585,0.107737,0.327236,-0.163267,-0.006844,-0.007529,-0.347166,-0.186398,0.91424,-0.178816,-0.010715,0.034075,-0.06583,0.028171,0.304839,0.112845,-0.023089,0.924373,0.844405,0.149479,0.061339,-0.9494,-0.466912,0.500509,-1.032572,-1.388466,0.102307,-0.697372
-3.836355,-1.845521,0.777694,0.000125,0.04044,0.721337,-0.691402,-0.165245,-0.04707,0.109956,0.323915,-0.183368,-0.004402,-0.076855,-0.310374,-0.117841,0.9963590000000001,-0.212475,0.014152,0.028232,-0.075102,0.034055,0.286339,0.121546,-0.02449,0.907588,0.858992,0.131162,0.062903,-0.932463,-0.466418,0.503532,-1.032149,-1.386201,0.084852,-0.730324
-3.831405,-1.858558,0.777798,-0.000583,0.044036,0.719989,-0.692587,-0.137135,-0.063376,0.110825,0.314969,-0.201124,-0.004086,-0.135168,-0.260363,-0.060002,1.036174,-0.238481,0.044965,0.025939,-0.081821,0.03844,0.263726,0.132748,-0.029335,0.891778,0.864028,0.123208,0.068269,-0.911135,-0.467699,0.490121,-1.031309,-1.375813,0.059899,-0.758253
-3.826989,-1.871528,0.778099,-0.001158,0.046524,0.71926,-0.69318,-0.110922,-0.076717,0.111387,0.306617,-0.217462,-0.002395,-0.182697,-0.21637,-0.024298,1.03505,-0.271923,0.0711,0.025892,-0.08643,0.041043,0.23185,0.133661,-0.029368,0.883963,0.864966,0.124023,0.077214,-0.88563,-0.469759,0.47219,-1.030533,-1.361079,0.032981,-0.783613
-3.822994,-1.884581,0.778555,-0.001394,0.048121,0.718056,-0.694318,-0.08626,-0.088457,0.109501,0.299668,-0.232246,0.004264,-0.222156,-0.186322,-0.012397,1.00126,-0.294786,0.071083,0.025796,-0.08995,0.042312,0.194863,0.135147,-0.030519,0.880949,0.864677,0.127763,0.084076,-0.854736,-0.480164,0.458459,-1.029594,-1.330668,0.004561,-0.796933
-3.819293,-1.89769,0.779033,-0.001498,0.049087,0.715994,-0.696377,-0.063613,-0.099707,0.104584,0.294988,-0.245672,0.016517,-0.253825,-0.169955,-0.021487,0.941314,-0.309195,0.055379,0.024542,-0.093362,0.0424,0.154035,0.137152,-0.038534,0.881117,0.86449,0.12787,0.086007,-0.810507,-0.493365,0.436973,-1.027968,-1.296286,-0.024991,-0.820343
-3.815848,-1.910785,0.779376,-0.001819,0.049338,0.713369,-0.699048,-0.043422,-0.110268,0.097426,0.292127,-0.258462,0.030946,-0.280818,-0.155899,-0.037139,0.861603,-0.313907,0.04199,0.021426,-0.096948,0.041543,0.112229,0.139901,-0.05323,0.882361,0.864334,0.11992,0.080378,-0.741485,-0.502102,0.395278,-1.022307,-1.278334,-0.054487,-0.871363
-3.812559,-1.923977,0.779507,-0.002317,0.049116,0.710957,-0.701514,-0.021639,-0.120104,0.089957,0.28475,-0.269611,0.044156,-0.305814,-0.136486,-0.046107,0.77171,-0.299318,0.036253,0.01658,-0.099856,0.040216,0.073089,0.139455,-0.065317,0.878387,0.85917,0.11293,0.083649,-0.639849,-0.496688,0.3451,-1.001012,-1.267748,-0.067018,-0.937461
-3.809456,-1.937347,0.779233,-0.002925,0.048505,0.709243,-0.703288,0.001606,-0.128501,0.083712,0.274073,-0.280225,0.055894,-0.329014,-0.105099,-0.035595,0.67792,-0.272572,0.043514,0.010532,-0.101358,0.038703,0.03999,0.13252,-0.080022,0.867068,0.849505,0.104137,0.093213,-0.50892,-0.477072,0.301592,-0.950072,-1.245505,-0.076801,-0.975355
-3.80653,-1.950982,0.778551,-0.003066,0.047768,0.709047,-0.703535,0.028134,-0.134626,0.08052,0.259304,-0.290174,0.065671,-0.348519,-0.0713,-0.015317,0.58345,-0.236822,0.063295,0.004102,-0.1012,0.036656,0.015226,0.122503,-0.09239000000000001,0.846601,0.83238,0.089367,0.110948,-0.35575,-0.440095,0.270819,-0.867005,-1.192777,-0.069792,-0.972717
-3.803678,-1.964948,0.777491,-0.0029,0.046995,0.710259,-0.702364,0.057514,-0.139586,0.08024,0.240897,-0.299379,0.074293,-0.363314,-0.044376,-0.002471,0.489544,-0.194009,0.084155,-0.002342,-0.0991,0.034009,-0.000594,0.109308,-0.101284,0.818002,0.805447,0.070026,0.140447,-0.197281,-0.39146,0.252065,-0.757604,-1.108341,-0.052012,-0.90933
-3.800922,-1.97925,0.775945,-0.002791,0.046698,0.712179,-0.700437,0.087845,-0.14496,0.081707,0.222752,-0.309339,0.082253,-0.370987,-0.025232,0.000492,0.39694,-0.160828,0.093894,-0.009799,-0.09508,0.030429,-0.009451,0.095122,-0.114732,0.78562,0.778624,0.04472,0.173781,-0.049225,-0.334098,0.239169,-0.632561,-0.9848380000000002,-0.049568,-0.752598
-3.79822,-1.993933,0.773921,-0.0025,0.046311,0.714498,-0.698099,0.117733,-0.149927,0.08401,0.207388,-0.321738,0.089486,-0.374144,-0.007388,0.007188,0.31169,-0.136239,0.103088,-0.019478,-0.089459,0.026262,-0.014628,0.081121,-0.130352,0.751305,0.75421,0.019622,0.214772,0.075916,-0.271354,0.201013,-0.495268,-0.874471,-0.03694,-0.5459
-3.795554,-2.009039,0.771271,-0.002475,0.046606,0.717183,-0.69532,0.148658,-0.156541,0.087049,0.193478,-0.336823,0.096268,-0.376685,0.010826,0.031416,0.2464,-0.124083,0.107781,-0.031525,-0.082296,0.02224,-0.024036,0.070247,-0.151096,0.720831,0.740091,0.004342,0.268134,0.169256,-0.215579,0.138862,-0.355135,-0.851253,-0.002441,-0.40933
-3.793006,-2.024478,0.767958,-0.003098,0.047377,0.720437,-0.691894,0.179048,-0.164777,0.091271,0.182056,-0.355463,0.101518,-0.382036,0.026802,0.07026,0.213386,-0.116693,0.122812,-0.045105,-0.07376,0.018829,-0.026307,0.059896,-0.17628,0.689509,0.735,-0.005047,0.323764,0.232462,-0.172021,0.079619,-0.222823,-0.891383,0.013365,-0.399932
-3.79063,-2.040213,0.764188,-0.004395,0.04829,0.724129,-0.687958,0.208154,-0.174137,0.09626100000000001,0.172682,-0.374237,0.103809,-0.39185,0.039287,0.105848,0.221411,-0.117803,0.116276,-0.058872,-0.06455,0.016165,-0.021968,0.053002,-0.200147,0.662166,0.727682,-0.015959,0.372895,0.279843,-0.1308,0.0359,-0.081603,-0.913907,0.04351,-0.425609
-3.788517,-2.056297,0.760258,-0.005941,0.048808,0.727618,-0.684218,0.236853,-0.183031,0.10066,0.162558,-0.387371,0.103234,-0.404493,0.047994,0.126815,0.261768,-0.110743,0.110647,-0.072068,-0.055076,0.01365,-0.018998,0.056802,-0.220862,0.648502,0.721001,-0.024427,0.40222,0.322226,-0.090305,-0.000554,0.051157,-0.874454,0.080452,-0.412436
-3.786982,-2.07213,0.758287,-0.006489,0.047995,0.730258,-0.681453,0.264103,-0.187435,0.103418,0.15254,-0.394399,0.101081,-0.412925,0.05992,0.142111,0.310131,-0.089411,0.096033,-0.085168,-0.044611,0.010274,-0.026292,0.064261,-0.248821,0.6537,0.7219,-0.020915,0.406728,0.338242,-0.061491,-0.037421,0.170662,-0.828857,0.114617,-0.41093
-3.785943,-2.088244,0.757579,-0.006531,0.044779,0.732303,-0.679474,0.29065,-0.186462,0.106087,0.137661,-0.389392,0.096322,-0.415952,0.078819,0.16035,0.344651,-0.046773,0.057807,-0.098258,-0.03234,0.005583,-0.038994,0.074862,-0.281409,0.674725,0.733302,-0.004421,0.400015,0.352943,-0.044197,-0.075193,0.287407,-0.805521,0.147023,-0.442639
-3.785565,-2.104779,0.75814,-0.006559,0.040892,0.734696,-0.677132,0.313868,-0.182582,0.108986,0.128301,-0.372102,0.088019,-0.413889,0.094441,0.167555,0.371871,-0.019326,0.026308,-0.109998,-0.018167,3.8e-05,-0.051685,0.086756,-0.317107,0.712546,0.74732,0.019483,0.369754,0.362867,-0.02819,-0.109923,0.408894,-0.778629,0.182384,-0.44706
-3.785449,-2.122258,0.761082,-0.005718,0.036217,0.73727,-0.674602,0.33593,-0.175989,0.112744,0.129258,-0.346557,0.073011,-0.403421,0.107079,0.168264,0.397489,-0.032329,0.007619,-0.120047,-0.0028,-0.005381,-0.064124,0.098421,-0.352426,0.762745,0.759992,0.050196,0.313008,0.363155,-0.015244,-0.14601,0.532901,-0.751602,0.228325,-0.415546
-3.785776,-2.139573,0.764476,-0.0051,0.031677,0.738962,-0.672983,0.347681,-0.166587,0.115266,0.140612,-0.309758,0.05249,-0.386431,0.115842,0.166524,0.407934,-0.055614,-0.003849,-0.128911,0.013041,-0.010254,-0.075771,0.105754,-0.388405,0.821257,0.767389,0.086031,0.227823,0.355874,-0.010302,-0.179071,0.653139,-0.739663,0.294579,-0.35463
-3.786439,-2.156831,0.76859,-0.004569,0.026775,0.738706,-0.67348,0.351774,-0.154213,0.112646,0.160446,-0.261647,0.025707,-0.358452,0.120146,0.16215,0.396272,-0.074853,-0.012326,-0.136361,0.028169,-0.015032,-0.088016,0.113505,-0.429156,0.879743,0.774049,0.11691,0.120801,0.345025,-0.007704,-0.204171,0.753215,-0.735,0.361537,-0.269427
-3.787324,-2.173847,0.772963,-0.004162,0.022315,0.736748,-0.675786,0.347041,-0.14073,0.104888,0.193944,-0.207631,-0.00378,-0.3254,0.120729,0.155368,0.374467,-0.090445,-0.019115,-0.14194,0.041624,-0.019367,-0.101653,0.125398,-0.478915,0.928577,0.78709,0.129713,0.014647,0.339831,-0.009364,-0.211746,0.821083,-0.745526,0.414472,-0.175646
-3.788396,-2.190521,0.777068,-0.003692,0.0185,0.733407,-0.679528,0.332909,-0.12652,0.095155,0.244749,-0.153249,-0.034509,-0.290781,0.119559,0.146743,0.349532,-0.10173,-0.029574,-0.145225,0.052824,-0.02286,-0.115775,0.146902,-0.542839,0.96078,0.817805,0.118301,-0.072389,0.343694,-0.012915,-0.193916,0.85243,-0.775868,0.426492,-0.098738
-3.78968,-2.206725,0.780336,-0.002274,0.015883,0.729319,-0.683986,0.309842,-0.110902,0.086374,0.316303,-0.102218,-0.072683,-0.255346,0.118734,0.137131,0.326803,-0.112381,-0.042151,-0.146099,0.06107,-0.024663,-0.123297,0.173835,-0.602576,0.973961,0.85063,0.092378,-0.133874,0.356552,-0.013838,-0.167184,0.856603,-0.808643,0.399634,-0.047736
-3.791279,-2.222246,0.782257,-0.000271,0.014103,0.725314,-0.688274,0.271419,-0.093845,0.079346,0.419015,-0.058016,-0.115207,-0.224704,0.119903,0.127049,0.314754,-0.127233,-0.053622,-0.144823,0.066306,-0.02397,-0.119962,0.199668,-0.629375,0.968264,0.858881,0.067374,-0.160246,0.370573,-0.010914,-0.147238,0.842285,-0.829734,0.346443,-0.031398
