hanqing-shi/Humanoids-Motion-Generation/dataset/data_joint/walk/walk2_subject3_seg2.csv
root_x,root_y,root_z,root_qx,root_qy,root_qz,root_qw,left_hip_pitch_joint,left_hip_roll_joint,left_hip_yaw_joint,left_knee_joint,left_ankle_pitch_joint,left_ankle_roll_joint,right_hip_pitch_joint,right_hip_roll_joint,right_hip_yaw_joint,right_knee_joint,right_ankle_pitch_joint,right_ankle_roll_joint,waist_yaw_joint,waist_roll_joint,waist_pitch_joint,left_shoulder_pitch_joint,left_shoulder_roll_joint,left_shoulder_yaw_joint,left_elbow_joint,left_wrist_roll_joint,left_wrist_pitch_joint,left_wrist_yaw_joint,right_shoulder_pitch_joint,right_shoulder_roll_joint,right_shoulder_yaw_joint,right_elbow_joint,right_wrist_roll_joint,right_wrist_pitch_joint,right_wrist_yaw_joint
0.012246,-1.887018,0.75886,0.035059,0.007064,0.975716,0.2161,0.030989,-0.0773,0.346594,0.479898,-0.505925,0.126061,-0.366404,-0.152962,-0.110566,1.022425,-0.324458,-0.083234,0.016893,-0.079824,0.162052,0.125069,0.083643,-0.191882,0.476922,0.716807,0.282229,0.214904,0.19704,-0.223249,0.22656,0.47158,-0.83864,0.402209,-0.059768
0.004334,-1.886436,0.758232,0.034021,0.007608,0.97535,0.217894,0.043939,-0.083228,0.350028,0.471185,-0.511866,0.126359,-0.381892,-0.124387,-0.116963,0.918767,-0.335195,-0.076932,0.007497,-0.070932,0.154368,0.115117,0.09395,-0.219912,0.444314,0.711919,0.264811,0.217249,0.202572,-0.197954,0.207841,0.529574,-0.848555,0.418885,-0.053931
-0.003621,-1.885747,0.757877,0.032248,0.007028,0.975093,0.219328,0.057661,-0.087022,0.352316,0.458462,-0.514889,0.125515,-0.395674,-0.08899,-0.124125,0.804922,-0.328579,-0.072855,-0.004498,-0.059825,0.148154,0.110379,0.109235,-0.247848,0.412695,0.701371,0.251684,0.212344,0.210602,-0.174355,0.188458,0.583957,-0.861494,0.433601,-0.043162
-0.011649,-1.885131,0.757741,0.029515,0.005298,0.975022,0.220077,0.07155,-0.088995,0.352906,0.441955,-0.514313,0.123961,-0.408979,-0.054529,-0.141901,0.689781,-0.292684,-0.063657,-0.017629,-0.047091,0.143529,0.107989,0.127413,-0.272637,0.384845,0.684378,0.24546,0.203366,0.222791,-0.152478,0.169651,0.62881,-0.875682,0.436554,-0.033962
-0.019741,-1.884706,0.757757,0.025802,0.002969,0.97519,0.219839,0.085732,-0.090712,0.351392,0.420335,-0.508967,0.122247,-0.422656,-0.024605,-0.174678,0.577668,-0.232068,-0.056825,-0.030488,-0.033525,0.139815,0.105338,0.149843,-0.300364,0.366544,0.669792,0.245872,0.190517,0.240074,-0.130938,0.149409,0.664209,-0.888485,0.437084,-0.025142
-0.027954,-1.884386,0.757487,0.021156,0.00162,0.975585,0.218595,0.097509,-0.094484,0.34763,0.399083,-0.502516,0.121066,-0.43411,0.001504,-0.215951,0.468262,-0.20248,-0.045847,-0.042698,-0.019985,0.136234,0.100619,0.172936,-0.330333,0.357992,0.658812,0.256203,0.17601,0.26316,-0.112313,0.129705,0.688783,-0.901016,0.433588,-0.018211
-0.036364,-1.884163,0.757268,0.015807,0.000143,0.976419,0.215303,0.108782,-0.09844000000000001,0.340285,0.37631,-0.494448,0.120116,-0.447866,0.033341,-0.232963,0.372408,-0.186331,-0.027557,-0.055331,-0.006829,0.132343,0.095035,0.195262,-0.360242,0.358143,0.647788,0.268178,0.159879,0.288399,-0.095149,0.112976,0.707007,-0.914778,0.427126,-0.013705
-0.045145,-1.883929,0.75693,0.010367,-0.000577,0.977346,0.211393,0.121915,-0.104363,0.332081,0.350468,-0.485738,0.119189,-0.463427,0.064363,-0.230344,0.297037,-0.168175,-0.012626,-0.067623,0.005452,0.127816,0.091281,0.213272,-0.384988,0.372385,0.638144,0.284514,0.142316,0.312872,-0.080601,0.101486,0.721632,-0.929295,0.420762,-0.007177
-0.054328,-1.883638,0.756215,0.004643,-0.000341,0.978198,0.207623,0.13442,-0.111799,0.324343,0.325849,-0.479375,0.117544,-0.48218,0.086375,-0.230897,0.257797,-0.162437,0.002971,-0.078994,0.016181,0.123174,0.09019700000000001,0.223589,-0.399817,0.398705,0.634147,0.308588,0.134307,0.334775,-0.07058,0.09802300000000001,0.732651,-0.94642,0.41131,0.009179
-0.063946,-1.883263,0.755205,-0.001333,0.000455,0.978832,0.20466,0.144153,-0.119925,0.315752,0.306532,-0.474793,0.116295,-0.499457,0.09663,-0.257436,0.258325,-0.16275,0.000765,-0.088523,0.025236,0.118319,0.094615,0.223151,-0.400215,0.433696,0.62738,0.332892,0.136633,0.353985,-0.065191,0.097336,0.737726,-0.965506,0.402294,0.02827
-0.074228,-1.882688,0.754278,-0.007375,0.000716,0.979491,0.20135,0.151788,-0.125446,0.30859,0.294176,-0.47148,0.115694,-0.513146,0.105607,-0.28288,0.284344,-0.160457,-0.012578,-0.09821800000000001,0.034001,0.112798,0.103387,0.215511,-0.389185,0.478915,0.619017,0.359678,0.146547,0.370294,-0.058909,0.088164,0.732961,-0.973145,0.392102,0.050452
-0.085493,-1.881778,0.754255,-0.012961,0.000325,0.980237,0.1974,0.161539,-0.129008,0.302423,0.282991,-0.463273,0.116097,-0.515337,0.120242,-0.292247,0.313675,-0.160942,-0.018591,-0.108543,0.043199,0.10596,0.115493,0.205089,-0.376278,0.533429,0.614384,0.390091,0.154936,0.383857,-0.055869,0.075114,0.723534,-0.979266,0.384369,0.066203
-0.098229,-1.880422,0.75746,-0.018305,0.000222,0.981345,0.191382,0.174137,-0.133875,0.293867,0.27678,-0.449208,0.118323,-0.502265,0.135895,-0.284649,0.335344,-0.164615,-0.002312,-0.119194,0.053168,0.096881,0.12814,0.193018,-0.366813,0.59175,0.610589,0.418807,0.160613,0.396506,-0.053129,0.050098,0.706197,-0.9761240000000002,0.377169,0.071843
-0.112116,-1.878452,0.759097,-0.022455,-0.000128,0.983171,0.181303,0.188105,-0.136202,0.277727,0.272052,-0.428782,0.120412,-0.471653,0.150055,-0.258664,0.342845,-0.155002,0.00038,-0.129553,0.063125,0.085469,0.139373,0.190068,-0.382304,0.65343,0.621115,0.437352,0.141944,0.41002,-0.051517,0.020459,0.687035,-0.973011,0.374771,0.064829
-0.12719,-1.875932,0.759833,-0.024863,-7.9e-05,0.985493,0.167883,0.208927,-0.139042,0.253802,0.263061,-0.398265,0.121836,-0.43147,0.159072,-0.23894,0.315043,-0.129222,-0.075246,-0.137643,0.0728,0.072585,0.147585,0.197937,-0.421481,0.711343,0.643537,0.444325,0.095283,0.4235,-0.04969,-0.015422,0.667433,-0.966506,0.373976,0.055261
-0.142844,-1.873107,0.758896,-0.027275,-0.003436,0.9876760000000001,0.154082,0.231253,-0.133948,0.227545,0.252472,-0.354508,0.119682,-0.380263,0.165412,-0.252275,0.249959,-0.063076,-0.196633,-0.140171,0.083842,0.060837,0.154031,0.215974,-0.462498,0.751134,0.665772,0.439257,0.036632,0.431357,-0.041335,-0.055417,0.652193,-0.952631,0.377419,0.039111
-0.158334,-1.869943,0.761357,-0.028224,-0.006145,0.989053,0.144708,0.23786,-0.124848,0.209997,0.279727,-0.315019,0.111551,-0.358968,0.162771,-0.267585,0.246291,-0.058452,-0.22953,-0.138459,0.098159,0.0544,0.171933,0.233553,-0.476937,0.762533,0.678095,0.429058,-0.010839,0.419911,-0.039563,-0.09051600000000001,0.648093,-0.939974,0.390699,0.024368
-0.174189,-1.866791,0.763876,-0.025827,-0.009496,0.990038,0.138088,0.234181,-0.110761,0.198684,0.338122,-0.270156,0.081574,-0.344407,0.156894,-0.277442,0.277129,-0.082065,-0.23264,-0.134892,0.112829,0.052687,0.200609,0.242879,-0.454383,0.754804,0.673602,0.426549,-0.016412,0.399502,-0.050742,-0.110034,0.668629,-0.9466270000000001,0.406637,0.019604
-0.189817,-1.862883,0.766316,-0.021293,-0.013159,0.99151,0.127601,0.214107,-0.09119600000000001,0.169453,0.430411,-0.218764,0.015474,-0.320221,0.149984,-0.291449,0.301518,-0.109782,-0.231845,-0.133021,0.12369,0.05236,0.228517,0.249112,-0.423212,0.738394,0.662455,0.426755,0.004405,0.370565,-0.064146,-0.125318,0.699484,-0.969675,0.433302,0.030032
-0.204599,-1.85788,0.768145,-0.01577,-0.016697,0.99362,0.110416,0.166375,-0.066062,0.118848,0.571342,-0.15869,-0.110833,-0.286529,0.142124,-0.316151,0.309716,-0.135675,-0.2279,-0.133703,0.129082,0.052062,0.241867,0.268817,-0.416603,0.719619,0.660205,0.415054,0.006869,0.339312,-0.070848,-0.144817,0.725509,-0.996678,0.455295,0.049062
-0.218728,-1.852425,0.769751,-0.009419,-0.020562,0.995715,0.089666,0.100288,-0.04256,0.063716,0.742795,-0.095655,-0.227957,-0.250565,0.13486,-0.349238,0.313784,-0.161127,-0.222551,-0.136657,0.129989,0.052553,0.244496,0.307155,-0.42799,0.692656,0.667698,0.397124,-0.008418,0.310707,-0.069901,-0.180931,0.751918,-1.011226,0.45282,0.040809
-0.231859,-1.846362,0.769104,-0.003678,-0.02413,0.997535,0.065789,0.012565,-0.018568,0.053434,0.9363030000000001,-0.034282,-0.246998,-0.218175,0.128912,-0.390056,0.317659,-0.189892,-0.219878,-0.144416,0.126297,0.054371,0.232874,0.350409,-0.426259,0.653341,0.658905,0.380912,-0.019505,0.279148,-0.062624,-0.212467,0.763915,-1.016197,0.433226,0.019697
-0.244105,-1.840194,0.767117,0.002483,-0.028399,0.998528,0.046143,-0.082393,0.067512,0.092122,1.139766,-0.010321,-0.247556,-0.189975,0.129339,-0.425884,0.327013,-0.223828,-0.219769,-0.150155,0.121721,0.058066,0.225496,0.381134,-0.393943,0.603507,0.634029,0.376319,-0.013284,0.23795,-0.060351,-0.225363,0.766819,-1.025113,0.412143,0.007968
-0.256122,-1.834111,0.764824,0.009506,-0.033535,0.998594,0.039929,-0.16891,0.195088,0.096679,1.349672,-0.043439,-0.242076,-0.154849,0.144709,-0.440652,0.324143,-0.251977,-0.220619,-0.141015,0.121614,0.064165,0.223822,0.383018,-0.327685,0.547789,0.595671,0.371871,0.025835,0.192351,-0.065791,-0.223756,0.755167,-1.035848,0.384542,-0.005884
-0.267726,-1.828699,0.762755,0.015965,-0.039375,0.998188,0.042617,-0.259247,0.294051,0.079345,1.56879,-0.079043,-0.147689,-0.11844,0.167889,-0.437942,0.314765,-0.272792,-0.219441,-0.12076,0.124382,0.072663,0.228024,0.353857,-0.234551,0.49293,0.5508,0.370452,0.102072,0.147551,-0.074553,-0.207993,0.727809,-1.043109,0.362098,-0.023151
-0.27885,-1.823938,0.76142,0.021459,-0.043161,0.997524,0.051213,-0.355471,0.325099,0.026363,1.770726,-0.087571,-0.039497,-0.081552,0.190599,-0.42125,0.298599,-0.286382,-0.214564,-0.092985,0.124524,0.081317,0.237993,0.303443,-0.131335,0.446734,0.507193,0.360485,0.207362,0.106258,-0.080659,-0.194791,0.687868,-1.037791,0.345586,-0.05357
-0.289603,-1.819981,0.760831,0.02542,-0.045076,0.99689,0.05944,-0.437276,0.300956,-0.024705,1.90578,-0.118709,0.001098,-0.048811,0.206617,-0.402552,0.283701,-0.296464,-0.204693,-0.065535,0.11989,0.087779,0.253362,0.249857,-0.047997,0.41174,0.467261,0.341337,0.306436,0.069882,-0.08081,-0.176387,0.639938,-1.020858,0.329176,-0.080586
-0.300204,-1.816796,0.761097,0.027987,-0.043412,0.996474,0.066123,-0.500331,0.235962,-0.056195,1.956053,-0.152415,0.006539,-0.021701,0.210983,-0.385414,0.273736,-0.305356,-0.191738,-0.041666,0.110283,0.090671,0.264816,0.205996,-0.005029,0.396622,0.449699,0.333726,0.376437,0.049514,-0.079008,-0.152582,0.58892,-0.989777,0.312458,-0.11078
-0.310804,-1.813932,0.761813,0.02939,-0.0392,0.996325,0.070257,-0.550787,0.15591,-0.079243,1.926294,-0.171529,-0.0002,-0.000201,0.207184,-0.371836,0.270131,-0.315739,-0.180696,-0.021477,0.09535,0.09058600000000001,0.270487,0.175557,-0.000927,0.394345,0.453261,0.334776,0.398576,0.040441,-0.08254,-0.112164,0.541328,-0.961323,0.289027,-0.125492
-0.321415,-1.811014,0.762569,0.028983,-0.03415,0.99631,0.073214,-0.593619,0.088533,-0.102703,1.832299,-0.195269,-0.011226,0.015624,0.201218,-0.36087,0.26998,-0.32575,-0.177894,-0.00306,0.077246,0.088566,0.280745,0.162757,-0.019331,0.399862,0.472772,0.338337,0.37173,0.041332,-0.094436,-0.062766,0.494093,-0.933784,0.259031,-0.124272
-0.332166,-1.807817,0.763077,0.025872,-0.02811,0.996404,0.075626,-0.627828,0.041134,-0.114257,1.680817,-0.225699,0.001349,0.025552,0.194135,-0.351131,0.270604,-0.337033,-0.184371,0.014995,0.058098,0.084803,0.285385,0.149134,-0.035127,0.414592,0.489452,0.333637,0.324502,0.047483,-0.118428,-0.009532,0.439318,-0.914146,0.233482,-0.107911
-0.343162,-1.80406,0.762684,0.020123,-0.024014,0.99642,0.078526,-0.647126,0.023909,-0.10116,1.480314,-0.243499,0.048818,0.029587,0.192339,-0.341018,0.273552,-0.352224,-0.18929,0.033388,0.040054,0.07915,0.29576,0.133958,-0.043259,0.432238,0.502783,0.334729,0.282021,0.054767,-0.1414,0.046759,0.390594,-0.900086,0.213951,-0.09340300000000001
-0.354675,-1.799584,0.761064,0.012826,-0.022584,0.996151,0.083718,-0.646541,0.015568,-0.071021,1.234252,-0.254805,0.063182,0.02678,0.195978,-0.329046,0.288043,-0.375869,-0.1891,0.05165,0.025102,0.07212,0.312515,0.112518,-0.03956,0.453189,0.508701,0.336176,0.256524,0.059018,-0.162696,0.103584,0.356603,-0.891389,0.207555,-0.073579
-0.367067,-1.794156,0.758546,0.00362,-0.02369,0.995658,0.08995,-0.621851,0.012625,-0.026002,0.941143,-0.268175,0.015085,0.024963,0.207135,-0.315566,0.298764,-0.399906,-0.186187,0.067942,0.013894,0.063335,0.331406,0.084569,-0.023617,0.484758,0.512134,0.345895,0.254889,0.057765,-0.179241,0.158237,0.335798,-0.887795,0.206712,-0.059755
-0.380162,-1.787798,0.755653,-0.005644,-0.024995,0.994977,0.09677,-0.584588,-0.00524,0.013784,0.630108,-0.264535,-0.06902,0.032191,0.222415,-0.298055,0.294888,-0.417807,-0.181755,0.080572,0.005195,0.053466,0.35239,0.049463,-0.003621,0.52649,0.518135,0.367018,0.265814,0.052797,-0.190481,0.206769,0.333831,-0.881475,0.217669,-0.039148
-0.393317,-1.780822,0.753147,-0.014482,-0.02361,0.994378,0.102204,-0.552094,-0.04179,0.041834,0.364402,-0.251023,-0.138463,0.0478,0.234728,-0.278963,0.273312,-0.423836,-0.176202,0.088511,-0.00279,0.044244,0.372089,0.010306,0.00892,0.57757,0.525913,0.388121,0.274933,0.043857,-0.201763,0.251903,0.348265,-0.880452,0.235985,-0.016194
-0.406673,-1.773753,0.750707,-0.021888,-0.023324,0.993851,0.106009,-0.547581,-0.083227,0.04719,0.2196,-0.217861,-0.241711,0.061323,0.246527,-0.261462,0.261634,-0.426862,-0.17013,0.09284800000000001,-0.010378,0.038454,0.388151,-0.018421,0.002387,0.6402,0.544498,0.41496,0.263725,0.035512,-0.205107,0.290195,0.375858,-0.878131,0.256681,0.000953
-0.420345,-1.766818,0.748892,-0.027509,-0.023668,0.993452,0.108335,-0.56828,-0.119305,0.040535,0.229531,-0.191607,-0.247238,0.069214,0.256126,-0.246088,0.26682,-0.425858,-0.167878,0.095288,-0.01724,0.037176,0.399921,-0.03432,-0.026564,0.705864,0.575444,0.426897,0.220081,0.029719,-0.204226,0.322179,0.418111,-0.882903,0.28031,0.01351
-0.434818,-1.75995,0.748823,-0.031128,-0.023885,0.992816,0.113032,-0.586391,-0.100901,0.072924,0.309201,-0.175402,-0.240395,0.077985,0.263778,-0.228411,0.278374,-0.415836,-0.173025,0.099762,-0.022593,0.037771,0.409746,-0.03735,-0.075636,0.771135,0.624652,0.435498,0.135421,0.030622,-0.195214,0.345335,0.472737,-0.88974,0.311845,0.021483
-0.451202,-1.752743,0.75392,-0.033663,-0.021355,0.990707,0.130043,-0.566247,-0.086099,0.102789,0.330568,-0.176674,-0.165559,0.09673300000000001,0.266432,-0.197751,0.285109,-0.389436,-0.18018,0.110308,-0.028949,0.034801,0.428243,-0.043516,-0.103295,0.807602,0.663597,0.429111,0.054663,0.029921,-0.17944,0.371706,0.541718,-0.901125,0.339563,0.031395
-0.469324,-1.745408,0.758178,-0.034395,-0.016895,0.987057,0.155722,-0.515845,-0.084093,0.098098,0.292762,-0.168309,-0.095921,0.121879,0.260245,-0.156376,0.289834,-0.35085,-0.185107,0.123694,-0.037714,0.027932,0.460009,-0.058276,-0.089424,0.813306,0.673956,0.426716,0.006752,0.026539,-0.162564,0.405923,0.622967,-0.918643,0.370218,0.052004
-0.489131,-1.73765,0.761641,-0.033712,-0.010069,0.982412,0.183383,-0.461991,-0.090369,0.091148,0.244893,-0.122525,-0.030692,0.140362,0.244723,-0.111217,0.317047,-0.31043,-0.184346,0.132118,-0.04863,0.020271,0.495574,-0.075972,-0.064033,0.806409,0.672319,0.425281,-0.009734,0.021813,-0.157911,0.456085,0.699357,-0.941584,0.379494,0.098903
-0.510195,-1.729971,0.76458,-0.029642,-0.002671,0.977836,0.207245,-0.417964,-0.094045,0.108429,0.229319,-0.080041,0.023237,0.14862,0.223818,-0.066264,0.3792,-0.275149,-0.173161,0.133387,-0.06136,0.014668,0.522663,-0.08681,-0.047752,0.807091,0.670124,0.416213,-0.001337,0.022265,-0.167968,0.512791,0.756348,-0.966908,0.369711,0.166663
-0.532643,-1.721851,0.764712,-0.021412,0.004162,0.973984,0.225564,-0.382844,-0.093964,0.145019,0.257248,-0.056064,0.077545,0.148847,0.200348,-0.028433,0.473265,-0.235904,-0.135493,0.130392,-0.074395,0.012815,0.528187,-0.080082,-0.065422,0.834344,0.693237,0.408978,0.004898,0.036165,-0.188766,0.554857,0.78217,-0.978905,0.344366,0.224595
-0.555352,-1.714287,0.765358,-0.008267,0.0127,0.969766,0.243567,-0.351117,-0.101297,0.18477,0.310449,-0.092169,0.123045,0.12748,0.166193,0.007314,0.616215,-0.178802,-0.041734,0.129074,-0.08598,0.014177,0.511539,-0.06437,-0.108026,0.881585,0.743452,0.413479,-0.013578,0.063691,-0.21801,0.5679,0.781222,-0.973072,0.330729,0.250198
-0.578178,-1.707461,0.764502,0.008026,0.021932,0.963379,0.267126,-0.304979,-0.110517,0.234396,0.351022,-0.145927,0.144396,0.083029,0.125855,0.04715,0.796307,-0.09087,0.095969,0.134118,-0.095118,0.016777,0.483484,-0.054233,-0.134253,0.9240330000000002,0.789774,0.438206,-0.045528,0.094341,-0.251683,0.571091,0.765695,-0.963706,0.331705,0.246021
-0.600556,-1.700344,0.764599,0.023525,0.030474,0.954348,0.296205,-0.250469,-0.117994,0.290041,0.372696,-0.19942,0.148553,0.014572,0.095177,0.091528,0.996464,0.012249,0.234776,0.145558,-0.101408,0.021591,0.448334,-0.049536,-0.127755,0.943177,0.819938,0.466239,-0.053131,0.113506,-0.283756,0.569992,0.743404,-0.949887,0.335424,0.227601
-0.621121,-1.693253,0.763103,0.035701,0.036414,0.943297,0.328011,-0.19803,-0.121138,0.349389,0.378937,-0.244169,0.149049,-0.078604,0.047749,0.06669,1.190197,0.062372,0.247212,0.163355,-0.104139,0.028998,0.405673,-0.048801,-0.081394,0.942315,0.823599,0.476274,-0.019124,0.122137,-0.313357,0.557765,0.719473,-0.934935,0.347446,0.199141
-0.639522,-1.685681,0.760823,0.046197,0.043177,0.935241,0.348319,-0.156133,-0.133874,0.39167,0.386565,-0.283242,0.150344,-0.168902,-0.025892,0.083044,1.329535,0.006511,0.246208,0.167433,-0.107905,0.038923,0.342957,-0.044832,-0.016375,0.946082,0.818607,0.478094,0.062754,0.133176,-0.339085,0.519573,0.695242,-0.916011,0.365082,0.157316
-0.656231,-1.677187,0.759219,0.054526,0.046723,0.931752,0.355923,-0.114421,-0.149625,0.407892,0.384282,-0.313231,0.150042,-0.250833,-0.113449,0.090135,1.4011,-0.083062,0.210882,0.156235,-0.113044,0.049318,0.292067,-0.041437,0.033844,0.916289,0.814365,0.475377,0.137126,0.147622,-0.330087,0.442888,0.670135,-0.883296,0.397784,0.094296
-0.671451,-1.667742,0.758705,0.059917,0.048693,0.93152,0.355401,-0.073129,-0.16556,0.405506,0.371096,-0.333622,0.146917,-0.323595,-0.180567,0.062528,1.406863,-0.1521,0.077428,0.133336,-0.116585,0.058139,0.237358,-0.028926,0.072056,0.887356,0.807605,0.452367,0.210329,0.173519,-0.298358,0.331985,0.638969,-0.838167,0.433719,0.01502
-0.685416,-1.657755,0.759321,0.062156,0.048626,0.933341,0.350211,-0.035088,-0.176612,0.391317,0.353297,-0.346908,0.141355,-0.378824,-0.197823,0.033902,1.34521,-0.222292,-0.052007,0.101766,-0.11524,0.062872,0.167973,-0.005664,0.081975,0.858069,0.805125,0.424063,0.230532,0.203844,-0.25338,0.216648,0.613509,-0.788324,0.447897,-0.07594
-0.698617,-1.647485,0.76085,0.060933,0.045723,0.936452,0.342423,-0.004799,-0.178288,0.369247,0.341822,-0.359719,0.13499,-0.41568,-0.183872,0.003482,1.22127,-0.270809,-0.11236,0.066271,-0.107379,0.064048,0.106357,0.02584,0.081786,0.806938,0.789895,0.381344,0.229773,0.224818,-0.214135,0.124318,0.589928,-0.750287,0.456169,-0.140354
-0.711707,-1.637363,0.763007,0.055459,0.039778,0.941,0.331453,0.018834,-0.171157,0.341431,0.332023,-0.371637,0.129273,-0.444144,-0.127471,0.004244,1.060887,-0.259094,-0.160034,0.028644,-0.093199,0.062869,0.046777,0.061885,0.072176,0.739522,0.758317,0.333307,0.218292,0.246561,-0.186559,0.067813,0.56045,-0.734079,0.448914,-0.172063
-0.725092,-1.627582,0.764242,0.047949,0.034199,0.945583,0.320005,0.035363,-0.162378,0.312838,0.329148,-0.387787,0.123814,-0.457721,-0.060339,0.029509,0.871209,-0.251252,-0.132922,-0.006929,-0.075224,0.060128,-0.000608,0.109794,0.045143,0.663249,0.72838,0.290202,0.207824,0.261593,-0.170596,0.039956,0.542667,-0.735618,0.430337,-0.17177
-0.739036,-1.618354,0.76422,0.038853,0.030068,0.949672,0.309369,0.050408,-0.156322,0.28548,0.321687,-0.404811,0.118569,-0.462383,-0.022871,0.021862,0.664222,-0.240005,-0.038755,-0.035969,-0.056767,0.05599,-0.045354,0.159157,0.011787,0.581546,0.694628,0.249085,0.210371,0.280245,-0.158349,0.020227,0.525318,-0.746079,0.412094,-0.16373
-0.753528,-1.60989,0.763602,0.028924,0.026344,0.9528970000000001,0.300759,0.069906,-0.152935,0.260293,0.300798,-0.416888,0.115369,-0.465962,0.017929,0.033706,0.463983,-0.229053,0.002612,-0.06054,-0.038546,0.050632,-0.085321,0.210008,-0.016487,0.501105,0.661773,0.225105,0.221033,0.29792,-0.142223,0.006618,0.515285,-0.758291,0.400524,-0.15143
-0.768378,-1.601838,0.76233,0.018715,0.02402,0.954777,0.295758,0.090003,-0.151501,0.241873,0.276033,-0.427912,0.11232,-0.474762,0.045906,0.017176,0.295837,-0.205407,0.046195,-0.07736,-0.022368,0.044888,-0.118165,0.256356,-0.035401,0.424375,0.636962,0.217873,0.238777,0.312251,-0.12023,-0.004884,0.516469,-0.765124,0.395996,-0.143974
-0.783567,-1.593836,0.759983,0.01035,0.025027,0.954871,0.295783,0.109086,-0.155864,0.233618,0.257202,-0.44105,0.110305,-0.495146,0.047323,-0.087739,0.207335,-0.194869,0.12016,-0.085408,-0.011002,0.039822,-0.140709,0.288324,-0.039223,0.356235,0.606637,0.219329,0.25307,0.321887,-0.099958,-0.008427,0.538069,-0.776699,0.401606,-0.130508
-0.799109,-1.585537,0.757227,0.003544,0.026216,0.95472,0.296329,0.127017,-0.159993,0.227818,0.246665,-0.45338,0.108395,-0.519928,0.039032,-0.201074,0.213334,-0.192185,0.142853,-0.093164,-0.001565,0.035703,-0.149679,0.305134,-0.031483,0.299929,0.573545,0.226099,0.27063,0.323298,-0.082858,-0.000409,0.58281,-0.799622,0.417085,-0.103995
-0.815441,-1.576413,0.754569,-0.001583,0.025809,0.95578,0.292945,0.148614,-0.160577,0.217771,0.240301,-0.46255,0.105636,-0.531117,0.030443,-0.283054,0.256548,-0.188051,0.07169,-0.104864,0.008294,0.031169,-0.149586,0.312249,-0.028905,0.262359,0.555423,0.236258,0.289803,0.321816,-0.067305,0.017357,0.642422,-0.834935,0.434638,-0.062969
-0.832687,-1.5661,0.75222,-0.00491,0.024322,0.958542,0.283869,0.174706,-0.157607,0.199141,0.237427,-0.468575,0.101193,-0.516967,0.029788,-0.325406,0.287772,-0.200442,0.050251,-0.120113,0.01873,0.02468,-0.145266,0.306008,-0.038822,0.24881,0.540667,0.252276,0.302967,0.323162,-0.053358,0.03863,0.705434,-0.879254,0.447119,0.000364
-0.850834,-1.554592,0.750866,-0.00727,0.02125,0.9629700000000002,0.268671,0.205676,-0.148957,0.170039,0.233507,-0.466529,0.094927,-0.484084,0.038936,-0.318346,0.297187,-0.202261,0.037518,-0.13691,0.030288,0.016202,-0.140361,0.295903,-0.071785,0.257797,0.538769,0.270015,0.299359,0.331029,-0.038462,0.052494,0.756487,-0.922669,0.451664,0.070983
-0.869721,-1.542066,0.751764,-0.009978,0.015279,0.967602,0.251819,0.239435,-0.130534,0.138411,0.225515,-0.444256,0.0856,-0.435988,0.053208,-0.329378,0.259701,-0.162149,-0.01143,-0.149505,0.042197,0.006432,-0.134164,0.287068,-0.124341,0.28404,0.550178,0.286919,0.272743,0.344612,-0.013892,0.043929,0.784023,-0.949014,0.447704,0.120144
-0.889922,-1.528298,0.757229,-0.011932,0.00709,0.970861,0.239241,0.271342,-0.104975,0.115543,0.23744,-0.40466,0.07215,-0.380462,0.075709,-0.351907,0.20195,-0.067717,-0.115167,-0.157451,0.056474,-0.001533,-0.116528,0.280854,-0.183614,0.316859,0.570706,0.3057,0.233819,0.355912,0.014594,0.018313,0.799285,-0.960623,0.445874,0.146767
-0.910305,-1.514232,0.758893,-0.01065,-0.002136,0.972215,0.233837,0.283773,-0.076536,0.102126,0.297924,-0.364879,0.052718,-0.344988,0.093516,-0.36583,0.213873,-0.044324,-0.187524,-0.160858,0.072451,-0.002974,-0.079908,0.273251,-0.239212,0.351453,0.597272,0.319342,0.191534,0.35916,0.038316,-0.015184,0.809282,-0.96642,0.446746,0.144434
-0.930675,-1.499726,0.761271,-0.004388,-0.012761,0.972693,0.231703,0.275686,-0.044866,0.084928,0.411181,-0.299557,0.010649,-0.311939,0.110903,-0.373269,0.256675,-0.080085,-0.219636,-0.163117,0.086613,5e-05,-0.023083,0.255108,-0.285687,0.395567,0.615229,0.335607,0.171794,0.355038,0.055537,-0.045363,0.819717,-0.979551,0.451843,0.137966
-0.950348,-1.484514,0.762196,0.00363,-0.024515,0.974228,0.224201,0.232131,-0.001922,0.058446,0.589682,-0.223981,-0.108956,-0.270324,0.128074,-0.389807,0.291989,-0.122558,-0.23668,-0.168253,0.094298,0.00375,0.033401,0.236226,-0.340555,0.459946,0.622916,0.356568,0.15596,0.349189,0.076763,-0.085261,0.815816,-0.984743,0.455475,0.130703
-0.969818,-1.468886,0.762643,0.013327,-0.035052,0.977109,0.209409,0.156591,0.04311,0.024384,0.816939,-0.138292,-0.220882,-0.216643,0.142802,-0.414554,0.309047,-0.16854,-0.242618,-0.176466,0.095606,0.007906,0.073615,0.230429,-0.418834,0.542286,0.629168,0.375357,0.107191,0.344969,0.099344,-0.129646,0.792325,-0.980798,0.448329,0.119747
-0.988744,-1.453617,0.761638,0.02267,-0.043732,0.980158,0.191998,0.054203,0.101246,0.026281,1.061076,-0.072682,-0.246556,-0.158089,0.157796,-0.442601,0.308088,-0.208883,-0.242549,-0.184075,0.09361,0.012494,0.098233,0.237644,-0.508923,0.626605,0.64097,0.389646,0.021004,0.336045,0.118503,-0.173904,0.756971,-0.957617,0.425472,0.09689900000000001
-1.007128,-1.439365,0.760329,0.029739,-0.051288,0.981462,0.182256,-0.05701,0.189438,0.034202,1.279304,-0.0441,-0.245555,-0.103331,0.179183,-0.45794,0.298633,-0.241799,-0.240426,-0.180519,0.094061,0.018307,0.117064,0.244758,-0.584592,0.70252,0.656959,0.39273,-0.063615,0.314535,0.121192,-0.199303,0.727139,-0.93225,0.391678,0.073359
-1.024686,-1.426783,0.759372,0.034353,-0.056921,0.980593,0.184438,-0.170248,0.235716,-0.00732,1.440488,-0.072358,-0.197626,-0.053809,0.204511,-0.450691,0.281678,-0.262507,-0.237403,-0.160919,0.097417,0.024184,0.150347,0.235393,-0.602451,0.764228,0.662298,0.409105,-0.089687,0.28042,0.097473,-0.200574,0.711375,-0.93827,0.356728,0.049149
-1.041283,-1.416125,0.758898,0.035882,-0.060149,0.978826,0.192339,-0.284977,0.231903,-0.053429,1.538406,-0.098885,-0.079924,-0.019307,0.222531,-0.430962,0.277588,-0.278557,-0.232729,-0.132478,0.100033,0.029615,0.18286,0.201828,-0.562567,0.839846,0.650274,0.446844,-0.028183,0.24154,0.070869,-0.193974,0.702287,-0.963978,0.349422,0.019042
-1.057176,-1.406554,0.759275,0.034917,-0.06075,0.976616,0.203252,-0.38637,0.188754,-0.0996,1.564136,-0.131766,0.012284,0.009587,0.235257,-0.403964,0.27101,-0.285201,-0.224714,-0.099908,0.0996,0.032986,0.215977,0.164882,-0.481704,0.906776,0.629756,0.474975,0.078293,0.199506,0.043976,-0.192602,0.681059,-0.98377,0.349047,-0.011023
-1.072629,-1.397631,0.760276,0.032376,-0.058432,0.974007,0.216443,-0.466059,0.12851,-0.13175,1.517144,-0.17216,0.062855,0.031157,0.240182,-0.371748,0.269998,-0.288185,-0.212818,-0.066369,0.09553,0.034432,0.248257,0.131602,-0.391523,0.969451,0.615868,0.484546,0.171019,0.164618,0.01492,-0.188171,0.650602,-0.997522,0.350031,-0.030615
-1.087852,-1.388609,0.761218,0.028784,-0.054417,0.970837,0.231701,-0.51926,0.068364,-0.145874,1.405001,-0.217774,0.097682,0.047907,0.240602,-0.338534,0.274917,-0.294495,-0.20091,-0.033713,0.088398,0.034058,0.27853,0.09944,-0.321159,0.997356,0.60458,0.484885,0.207875,0.134854,-0.021438,-0.17621,0.610261,-0.997042,0.336408,-0.037305
-1.10289,-1.378866,0.761489,0.023781,-0.049513,0.966776,0.249656,-0.548682,0.024329,-0.137124,1.237584,-0.252325,0.133955,0.059528,0.240127,-0.303237,0.286401,-0.308171,-0.19304,-0.003129,0.078894,0.0319,0.309471,0.075483,-0.282992,0.9904520000000001,0.600281,0.480875,0.183578,0.105511,-0.060107,-0.162338,0.56652,-0.978172,0.312182,-0.040631
-1.117722,-1.367958,0.76083,0.018011,-0.044236,0.961708,0.269884,-0.554368,0.002056,-0.098686,1.016842,-0.270628,0.128604,0.070488,0.241441,-0.264013,0.298703,-0.326422,-0.189811,0.022518,0.068184,0.027457,0.345785,0.061708,-0.262094,0.961487,0.598928,0.460142,0.130075,0.07434,-0.09766300000000001,-0.143404,0.53043,-0.956766,0.296497,-0.046172
-1.132368,-1.355612,0.758902,0.010533,-0.039996,0.956469,0.288888,-0.543432,-0.005289,-0.03951,0.761841,-0.279024,0.042029,0.08451,0.248892,-0.223885,0.303037,-0.346577,-0.191147,0.041112,0.057884,0.021237,0.382215,0.057102,-0.243563,0.924922,0.601512,0.427313,0.092751,0.040061,-0.126704,-0.1234,0.501525,-0.93434,0.292402,-0.053546
-1.146949,-1.34222,0.756345,0.003227,-0.035715,0.951401,0.305859,-0.522425,-0.028338,-0.003919,0.506585,-0.265992,-0.072459,0.106922,0.25764,-0.182311,0.29421,-0.362714,-0.194509,0.053239,0.046729,0.014263,0.415373,0.048976,-0.218048,0.888115,0.601456,0.405366,0.07891,0.008425,-0.148851,-0.099991,0.477036,-0.915832,0.292672,-0.056954
-1.161341,-1.328294,0.753889,-0.002963,-0.030337,0.947114,0.319448,-0.501818,-0.066624,-0.01804,0.297561,-0.240926,-0.152687,0.133712,0.262754,-0.14308,0.278935,-0.372851,-0.197631,0.060884,0.03469,0.008153,0.434053,0.036847,-0.197121,0.864847,0.612952,0.404345,0.09867600000000001,-0.016135,-0.166857,-0.076957,0.455441,-0.906431,0.298972,-0.061026
-1.175876,-1.314369,0.751951,-0.007176,-0.02656,0.9440400000000002,0.328682,-0.488557,-0.0918,-0.025328,0.205715,-0.219889,-0.231538,0.156952,0.265657,-0.112722,0.27888,-0.386076,-0.199709,0.063984,0.02419,0.004006,0.438004,0.022013,-0.180897,0.858207,0.629763,0.413581,0.122509,-0.02868,-0.176216,-0.061832,0.432824,-0.89338,0.301794,-0.06952
-1.190947,-1.300082,0.754273,-0.008717,-0.022824,0.942291,0.333902,-0.476918,-0.095972,0.009509,0.245583,-0.164496,-0.226115,0.179838,0.265217,-0.093705,0.293666,-0.395126,-0.201426,0.064316,0.015369,0.001411,0.425128,0.005831,-0.16746,0.866488,0.647282,0.425553,0.134035,-0.027145,-0.174963,-0.058412,0.414352,-0.872536,0.311581,-0.085649
-1.207076,-1.285332,0.756381,-0.007168,-0.018187,0.9394380000000001,0.342161,-0.450993,-0.106986,0.019395,0.283156,-0.129392,-0.127952,0.206539,0.255538,-0.077082,0.30695,-0.382506,-0.202962,0.069023,0.005674,-0.002989,0.403056,-0.013719,-0.146147,0.878095,0.659186,0.444315,0.137484,-0.013971,-0.168185,-0.046852,0.41287,-0.864936,0.324105,-0.102983
-1.224154,-1.269927,0.759655,-0.003011,-0.007806,0.933992,0.357196,-0.398529,-0.14011,-0.009045,0.238985,-0.071289,-0.072963,0.231386,0.228726,-0.054804,0.32208,-0.341711,-0.194592,0.078647,-0.007416,-0.010383,0.380209,-0.037648,-0.119967,0.88111,0.668384,0.457058,0.134056,0.000887,-0.1518,-0.030119,0.433289,-0.859718,0.345109,-0.122209
-1.242355,-1.254008,0.763156,0.00358,-4.8e-05,0.928035,0.372476,-0.348499,-0.153832,0.001279,0.223244,-0.035124,-0.011618,0.234067,0.200572,-0.031619,0.39442,-0.289942,-0.168508,0.086808,-0.021017,-0.015485,0.363749,-0.059028,-0.076422,0.867975,0.664686,0.458386,0.138318,0.015591,-0.132094,0.000423,0.481931,-0.863076,0.371043,-0.122394
-1.261474,-1.237484,0.763791,0.012886,0.005041,0.9218670000000002,0.387259,-0.307683,-0.159704,0.031477,0.250989,-0.059347,0.032989,0.213316,0.170839,-0.006545,0.522111,-0.220605,-0.07812,0.093538,-0.032656,-0.015358,0.350819,-0.078868,-0.025427,0.845434,0.649185,0.446777,0.146565,0.02758,-0.118953,0.052344,0.560742,-0.883832,0.403141,-0.094046
-1.280413,-1.221785,0.764687,0.024409,0.009015,0.913699,0.405558,-0.273286,-0.166448,0.067073,0.292881,-0.100383,0.086558,0.160109,0.136789,0.020734,0.704768,-0.124394,0.08314,0.101796,-0.04066,-0.011248,0.335824,-0.09488700000000001,0.018198,0.82431,0.633636,0.429402,0.160056,0.029526,-0.119814,0.140432,0.66545,-0.927135,0.422981,-0.020621
-1.2993,-1.205995,0.765557,0.038275,0.014963,0.901514,0.430794,-0.227624,-0.174447,0.117913,0.317836,-0.146851,0.123752,0.080084,0.096293,0.048221,0.925703,-0.026215,0.233379,0.113536,-0.044724,-0.00366,0.316674,-0.108289,0.039654,0.807218,0.6312,0.410083,0.171475,0.017317,-0.142382,0.27127,0.776025,-0.999524,0.400014,0.116047
-1.317206,-1.190525,0.764198,0.051635,0.020918,0.884613,0.462986,-0.179527,-0.178938,0.181912,0.330846,-0.194281,0.143726,-0.028542,0.038524,0.02518,1.154353,0.037266,0.247035,0.131963,-0.046458,0.006732,0.291867,-0.115273,0.041815,0.790893,0.644368,0.393203,0.178864,-0.002382,-0.172341,0.401212,0.860557,-1.077439,0.339693,0.270161
-1.333392,-1.174965,0.761781,0.064258,0.028351,0.870962,0.486305,-0.136149,-0.193252,0.233534,0.340752,-0.238016,0.153233,-0.137682,-0.052982,0.05519,1.325417,-9e-05,0.243398,0.138282,-0.053278,0.020167,0.256264,-0.113339,0.031375,0.776813,0.660955,0.37107,0.193955,-0.006459,-0.183792,0.44901,0.89,-1.104746,0.313051,0.358935
-1.347806,-1.158859,0.759597,0.074709,0.033786,0.862044,0.500158,-0.09133,-0.211151,0.262369,0.340314,-0.27454,0.155291,-0.240871,-0.151106,0.065635,1.422224,-0.074612,0.151764,0.131364,-0.06503,0.033648,0.214745,-0.09007200000000001,0.010142,0.798625,0.691458,0.329003,0.220616,0.022098,-0.176879,0.413855,0.87346,-1.078416,0.325677,0.347054
-1.360174,-1.142262,0.758239,0.081459,0.038303,0.857867,0.505926,-0.050429,-0.228475,0.271364,0.333294,-0.302193,0.153033,-0.33037,-0.221116,0.051362,1.43739,-0.147805,0.005855,0.110244,-0.076638,0.043135,0.175854,-0.063654,-0.020823,0.795856,0.728408,0.306383,0.223493,0.066711,-0.142784,0.328462,0.844693,-1.020207,0.365511,0.228684
-1.370858,-1.125228,0.758321,0.083395,0.039863,0.857432,0.506229,-0.012293,-0.237771,0.264459,0.320475,-0.321048,0.14901,-0.397423,-0.226237,0.036725,1.372508,-0.215143,-0.119742,0.078526,-0.083656,0.046623,0.139794,-0.036215,-0.026073,0.782554,0.743028,0.308025,0.217079,0.115872,-0.109667,0.241456,0.808615,-0.957444,0.380779,0.088777
-1.380267,-1.107913,0.759566,0.080541,0.038715,0.861015,0.500668,0.014017,-0.23601,0.244942,0.320325,-0.33815,0.142915,-0.44393,-0.178784,0.033589,1.246317,-0.251462,-0.163831,0.041095,-0.082627,0.044791,0.106115,-0.011913,-0.025179,0.762291,0.740097,0.312399,0.196148,0.164809,-0.089283,0.183615,0.777537,-0.916957,0.388559,-0.012023
-1.38944,-1.090584,0.761737,0.072774,0.034304,0.867726,0.490488,0.03551,-0.224415,0.214919,0.320254,-0.352335,0.136643,-0.466379,-0.113667,0.032738,1.060819,-0.257488,-0.167749,0.001746,-0.074806,0.039621,0.071873,0.016694,-0.032512,0.73837,0.731122,0.314136,0.169245,0.212064,-0.079782,0.155764,0.746438,-0.901727,0.389246,-0.057409
-1.398912,-1.073669,0.763397,0.06203,0.030419,0.876358,0.476681,0.050254,-0.211782,0.178271,0.320694,-0.365239,0.131131,-0.473353,-0.052799,0.037798,0.839315,-0.253997,-0.150261,-0.036984,-0.062526,0.032454,0.03307,0.050955,-0.05763,0.71514,0.72743,0.309914,0.149158,0.255344,-0.07555,0.133762,0.713514,-0.892666,0.385591,-0.066239
-1.409242,-1.057448,0.764327,0.050009,0.025706,0.884405,0.463321,0.069176,-0.198466,0.140241,0.310311,-0.375928,0.127228,-0.467745,-0.006413,0.030928,0.60248,-0.238182,-0.091172,-0.068888,-0.048178,0.024383,-0.008064,0.092053,-0.097261,0.693631,0.72935,0.303418,0.130431,0.293209,-0.070153,0.113273,0.688259,-0.882973,0.382001,-0.060412
-1.420213,-1.042049,0.764224,0.038732,0.02275,0.890349,0.453058,0.092107,-0.189449,0.106912,0.289906,-0.386014,0.125564,-0.465472,0.025501,0.009635,0.391502,-0.20884,-0.023282,-0.091521,-0.033934,0.01639,-0.048078,0.133788,-0.138463,0.669035,0.731649,0.293716,0.116434,0.323053,-0.063983,0.090727,0.674462,-0.867737,0.378716,-0.049053
-1.431694,-1.027,0.762584,0.029706,0.022313,0.893585,0.447355,0.117099,-0.186162,0.081951,0.269997,-0.401764,0.125803,-0.471588,0.042792,-0.044743,0.236492,-0.191056,0.038893,-0.10468,-0.022409,0.009798,-0.080584,0.168573,-0.16656,0.638124,0.724549,0.287837,0.111891,0.340596,-0.064181,0.08255,0.685013,-0.870169,0.386582,-0.038153
-1.443413,-1.012002,0.759531,0.022915,0.024349,0.8945,0.445816,0.138873,-0.187843,0.067187,0.260547,-0.424654,0.127973,-0.491788,0.04277,-0.138575,0.185637,-0.19359,0.117588,-0.110988,-0.014724,0.005851,-0.102488,0.193715,-0.174111,0.601342,0.706535,0.287287,0.125537,0.343117,-0.068399,0.086539,0.718113,-0.888641,0.402205,-0.019036
-1.45538,-0.996714,0.756363,0.017321,0.02468,0.895094,0.444857,0.160767,-0.185716,0.059161,0.258004,-0.444519,0.130291,-0.506461,0.036766,-0.221675,0.21466,-0.17921,0.076231,-0.117292,-0.007936,0.003507,-0.107668,0.2066,-0.159749,0.562961,0.676964,0.287859,0.156185,0.329661,-0.075014,0.109795,0.775683,-0.932316,0.423735,0.017049
-1.467835,-0.980736,0.753797,0.013721,0.023922,0.896398,0.442391,0.186667,-0.181875,0.053497,0.256615,-0.450636,0.131999,-0.497508,0.03369,-0.268678,0.25109,-0.172481,0.011125,-0.12607,-0.000502,0.000172,-0.098572,0.203276,-0.135142,0.535077,0.640128,0.285227,0.198934,0.309027,-0.08015,0.135959,0.838172,-0.986214,0.441027,0.078372
-1.480815,-0.963556,0.752424,0.01132,0.022105,0.900698,0.433735,0.215527,-0.174033,0.040333,0.257344,-0.438363,0.13113,-0.459667,0.039338,-0.271848,0.262793,-0.164493,-0.000725,-0.137325,0.007223,-0.00626,-0.083995,0.184896,-0.116007,0.527988,0.609813,0.292888,0.246284,0.296088,-0.077942,0.141977,0.877261,-1.028856,0.452904,0.135814
-1.494124,-0.944975,0.757435,0.007602,0.017816,0.906229,0.422342,0.246346,-0.158213,0.023107,0.257867,-0.401924,0.127103,-0.407534,0.049861,-0.2867,0.221527,-0.12784,-0.028296,-0.145671,0.015539,-0.014783,-0.070652,0.165575,-0.117046,0.539308,0.592735,0.304808,0.273738,0.295618,-0.063812,0.118642,0.878068,-1.048208,0.457694,0.169167
-1.507686,-0.925865,0.760962,0.00495,0.012247,0.909474,0.415551,0.271839,-0.139491,0.012886,0.273069,-0.358981,0.119026,-0.355372,0.062482,-0.31744,0.174994,-0.039101,-0.098677,-0.148342,0.025996,-0.021517,-0.050632,0.149728,-0.129575,0.561122,0.580916,0.321243,0.278436,0.30203,-0.041977,0.068061,0.84926,-1.037346,0.451118,0.159911
-1.521473,-0.906083,0.761384,0.004602,0.004444,0.909078,0.416578,0.285368,-0.120712,0.00872,0.325426,-0.316912,0.103396,-0.331078,0.079851,-0.323648,0.204114,-0.022022,-0.177197,-0.148546,0.039218,-0.021483,-0.013879,0.143346,-0.153142,0.586158,0.577887,0.333329,0.265295,0.302542,-0.020046,0.016567,0.820841,-1.008705,0.434547,0.131436
-1.53452,-0.885657,0.76311,0.00778,-0.006825,0.908393,0.41799,0.280979,-0.094726,-0.00013,0.425709,-0.260738,0.050517,-0.306311,0.100547,-0.32641,0.255363,-0.051847,-0.2194,-0.149121,0.051954,-0.017075,0.032967,0.140534,-0.192008,0.620095,0.583997,0.344535,0.24121,0.294928,-0.004059,-0.019446,0.805377,-0.988247,0.419,0.099364
-1.546429,-0.865171,0.763713,0.011686,-0.021102,0.910926,0.411864,0.243908,-0.056143,-0.01814,0.584111,-0.193236,-0.063452,-0.269316,0.120711,-0.343737,0.293396,-0.094664,-0.230301,-0.153726,0.060503,-0.010103,0.07325,0.146002,-0.258708,0.671096,0.603982,0.360287,0.196828,0.284274,0.013332,-0.044206,0.79268,-0.983822,0.411623,0.079841
-1.557484,-0.845229,0.763311,0.01603,-0.035968,0.916669,0.397704,0.169834,-0.011512,-0.043831,0.798758,-0.118153,-0.203207,-0.227973,0.137145,-0.373662,0.321176,-0.140574,-0.2263,-0.163247,0.065344,-0.000839,0.099678,0.161941,-0.353741,0.730794,0.635432,0.371525,0.124255,0.275313,0.039014,-0.081529,0.765399,-0.975276,0.411546,0.059484
-1.567958,-0.826176,0.761501,0.020478,-0.048034,0.923875,0.379116,0.064673,0.032282,-0.035355,1.03666,-0.055522,-0.245897,-0.186047,0.148871,-0.408672,0.337635,-0.182548,-0.220991,-0.176407,0.067319,0.011032,0.119874,0.185643,-0.459569,0.77742,0.679847,0.37543,0.027091,0.263481,0.07006,-0.131003,0.729509,-0.950696,0.401302,0.024792
-1.578291,-0.808515,0.759936,0.023264,-0.057558,0.929399,0.363818,-0.061093,0.116246,-0.001037,1.2552,-0.027482,-0.247537,-0.143514,0.16345,-0.438848,0.335808,-0.214722,-0.215359,-0.182825,0.07099,0.025509,0.130847,0.207564,-0.545729,0.808936,0.717227,0.369318,-0.072952,0.242796,0.094161,-0.172487,0.692889,-0.917167,0.379801,-0.024039
-1.58876,-0.792733,0.758779,0.024496,-0.065941,0.929959,0.360872,-0.180384,0.172704,-0.043648,1.407607,-0.061039,-0.243091,-0.101577,0.187578,-0.445767,0.320088,-0.238194,-0.208446,-0.169799,0.078652,0.038611,0.150189,0.205334,-0.558503,0.828464,0.712455,0.381197,-0.103572,0.215412,0.102343,-0.183776,0.677324,-0.89334,0.343189,-0.074492
-1.599568,-0.778829,0.758428,0.024092,-0.070738,0.928111,0.364728,-0.294077,0.200917,-0.074719,1.484151,-0.093645,-0.148728,-0.066441,0.208029,-0.434333,0.304494,-0.256656,-0.196091,-0.146076,0.086459,0.048137,0.181306,0.188555,-0.497139,0.832532,0.67802,0.411537,-0.05493,0.18172,0.085382,-0.157778,0.674498,-0.9051650000000001,0.322973,-0.089712
-1.610553,-0.766267,0.75908,0.022001,-0.07143,0.924563,0.373626,-0.391144,0.205519,-0.08931,1.477357,-0.118162,-0.040452,-0.03789,0.221778,-0.411175,0.289526,-0.267761,-0.178184,-0.115453,0.090368,0.053366,0.219683,0.160203,-0.397882,0.826551,0.631208,0.430803,0.047181,0.150315,0.054959,-0.113447,0.667085,-0.939723,0.306813,-0.078085
-1.621729,-0.754557,0.760285,0.018996,-0.068982,0.91992,0.385522,-0.464702,0.181974,-0.094811,1.397298,-0.164218,0.048567,-0.018899,0.226396,-0.383557,0.287576,-0.278848,-0.159411,-0.081856,0.089058,0.05607,0.257051,0.130487,-0.303143,0.821602,0.590913,0.437934,0.147305,0.126654,0.022223,-0.073271,0.648563,-0.969588,0.294561,-0.047147
-1.632965,-0.742942,0.761584,0.015712,-0.06388,0.9147400000000001,0.398652,-0.512691,0.130734,-0.102663,1.261824,-0.214556,0.08709,-0.007892,0.224182,-0.353227,0.298613,-0.29267,-0.14978,-0.050048,0.082944,0.055737,0.289219,0.107723,-0.241054,0.818756,0.572185,0.436171,0.215809,0.108726,-0.011884,-0.039952,0.618393,-0.979305,0.28034,-0.015585
-1.643958,-0.730697,0.762339,0.012324,-0.057979,0.90918,0.412162,-0.53595,0.080127,-0.105553,1.082927,-0.240967,0.103762,0.002108,0.221799,-0.322215,0.31203,-0.310352,-0.147935,-0.022985,0.073324,0.052276,0.315241,0.096284,-0.215288,0.822651,0.574286,0.433938,0.218927,0.095122,-0.048775,-0.008996,0.584395,-0.973509,0.262365,0.009406
-1.654367,-0.717581,0.762097,0.007779,-0.051793,0.903751,0.424843,-0.539781,0.047823,-0.088844,0.869606,-0.257541,0.063039,0.014425,0.222682,-0.292939,0.316948,-0.331448,-0.151478,-0.001821,0.06211,0.0464,0.336863,0.088784,-0.188903,0.819626,0.575997,0.426587,0.194283,0.077591,-0.082712,0.013633,0.555908,-0.9557040000000001,0.251254,0.027471
-1.664073,-0.703627,0.7609,0.002483,-0.044404,0.898599,0.43651,-0.532331,0.018451,-0.063261,0.643942,-0.260558,-0.001212,0.03165,0.225312,-0.263485,0.308241,-0.35691,-0.156891,0.013605,0.050229,0.038867,0.35535,0.078142,-0.151947,0.812336,0.574184,0.425966,0.168135,0.055446,-0.111619,0.027496,0.534448,-0.939593,0.254019,0.031263
-1.673267,-0.689028,0.75898,-0.003687,-0.037833,0.894006,0.446439,-0.51952,-0.010399,-0.042987,0.428377,-0.247572,-0.099418,0.051135,0.230393,-0.237366,0.2939,-0.379935,-0.163735,0.023477,0.037994,0.031035,0.368839,0.06403,-0.109302,0.80331,0.573058,0.429284,0.154837,0.02944,-0.131379,0.034178,0.526593,-0.9294770000000001,0.274702,0.020408
-1.682168,-0.674045,0.756672,-0.009242,-0.032036,0.890263,0.454226,-0.509542,-0.038007,-0.031528,0.257175,-0.234723,-0.195968,0.073085,0.235148,-0.213883,0.277645,-0.399957,-0.166174,0.028647,0.025699,0.024516,0.377464,0.046178,-0.061638,0.791686,0.571868,0.436992,0.163571,0.005191,-0.142094,0.038718,0.529858,-0.929233,0.30677,-0.003124
-1.691129,-0.658831,0.754163,-0.013546,-0.027405,0.887982,0.458861,-0.509233,-0.059579,-0.018136,0.188476,-0.232337,-0.24419,0.090403,0.237407,-0.195753,0.276461,-0.420311,-0.166136,0.030979,0.014413,0.021148,0.377999,0.029792,-0.027137,0.785315,0.581393,0.438855,0.183408,-0.012017,-0.145672,0.039768,0.54146,-0.932272,0.338713,-0.036049
-1.700325,-0.643329,0.752126,-0.015802,-0.024539,0.888417,0.458109,-0.511017,-0.058993,0.041415,0.229624,-0.212466,-0.244551,0.108717,0.237933,-0.189511,0.281456,-0.434951,-0.164699,0.031918,0.004466,0.019772,0.368481,0.015433,-0.003941,0.788663,0.597194,0.444045,0.198591,-0.014718,-0.143848,0.035848,0.560767,-0.9321140000000001,0.368049,-0.068615
-1.710254,-0.627091,0.751905,-0.01538,-0.022599,0.88814,0.458758,-0.487448,-0.056744,0.094555,0.285451,-0.21182,-0.236084,0.131134,0.235425,-0.183136,0.29161,-0.434808,-0.163077,0.036568,-0.005641,0.016829,0.356915,0.002168,0.016742,0.791795,0.61162,0.446082,0.200379,-0.005897,-0.137966,0.041189,0.593281,-0.934618,0.393577,-0.085217
-1.721134,-0.609626,0.756852,-0.012181,-0.017851,0.883629,0.467689,-0.445649,-0.086459,0.054126,0.290884,-0.210233,-0.227573,0.161017,0.225757,-0.160872,0.300177,-0.416321,-0.15941,0.048861,-0.017601,0.009908,0.347766,-0.016302,0.045737,0.786761,0.615604,0.445988,0.191706,0.002469,-0.135758,0.068277,0.641388,-0.944925,0.409339,-0.069014
-1.73258,-0.591664,0.761277,-0.007963,-0.008851,0.878247,0.478058,-0.390573,-0.124018,0.014765,0.230733,-0.142311,-0.175787,0.187698,0.204487,-0.133619,0.305584,-0.380782,-0.151959,0.060303,-0.031236,0.000438,0.341489,-0.039589,0.076683,0.772708,0.611758,0.43579,0.185176,0.009913000000000002,-0.143273,0.118014,0.697296,-0.968951,0.411481,-0.021087
-1.744562,-0.573358,0.764841,-0.003622,-0.002685,0.874808,0.484448,-0.348268,-0.140917,0.018784,0.20698,-0.076455,-0.109193,0.19773,0.184366,-0.113891,0.351979,-0.346119,-0.138922,0.066522,-0.045343,-0.00676,0.33553,-0.055696,0.103293,0.760155,0.604829,0.418065,0.180778,0.021223,-0.15353,0.178938,0.750709,-1.000548,0.400015,0.046651
-1.756764,-0.554654,0.767002,0.001743,0.001103,0.872453,0.488693,-0.324878,-0.154912,0.026659,0.233347,-0.077292,-0.039801,0.186375,0.163445,-0.099375,0.443232,-0.296081,-0.095182,0.071027,-0.058464,-0.009567,0.320572,-0.060199,0.111223,0.762776,0.613027,0.405291,0.180673,0.036957,-0.162322,0.243271,0.795129,-1.034123,0.377655,0.121994
-1.769634,-0.535842,0.766222,0.009831,0.003128,0.867844,0.496729,-0.299338,-0.169769,0.03333,0.278826,-0.094714,0.050041,0.145226,0.137181,-0.075994,0.596049,-0.218818,0.007485,0.077574,-0.067247,-0.00875,0.296863,-0.060638,0.106932,0.780681,0.632427,0.400591,0.174649,0.053346,-0.171021,0.305826,0.826582,-1.066451,0.3505,0.185125
-1.782943,-0.518187,0.765649,0.020078,0.005481,0.858867,0.511776,-0.270845,-0.180415,0.059892,0.318163,-0.134451,0.110257,0.075851,0.106327,-0.038455,0.790778,-0.112998,0.151296,0.087693,-0.071062,-0.005634,0.271325,-0.061877,0.099431,0.800503,0.65936,0.409781,0.159151,0.064828,-0.18297,0.364854,0.845846,-1.09305,0.319948,0.245868
-1.796353,-0.500322,0.765781,0.031941,0.008512,0.843454,0.536183,-0.229087,-0.184659,0.108291,0.335741,-0.177689,0.14892,-0.014552,0.08188,-0.001169,1.008167,-0.013322,0.24351,0.103004,-0.071356,-0.000647,0.2379,-0.065353,0.103406,0.820032,0.680176,0.410009,0.134089,0.068206,-0.204442,0.409141,0.84243,-1.106329,0.290299,0.301233
-1.809095,-0.483006,0.764159,0.042919,0.012032,0.824003,0.56483,-0.189805,-0.185363,0.168687,0.34847,-0.221999,0.163687,-0.120646,0.030748,-0.005254,1.214245,0.023788,0.247523,0.12098,-0.072148,0.008,0.212363,-0.070868,0.113982,0.819138,0.690839,0.395805,0.125067,0.06303,-0.219386,0.427479,0.819078,-1.095709,0.273829,0.337598
-1.820809,-0.46579,0.761837,0.054829,0.015987,0.810365,0.583135,-0.149862,-0.197368,0.213255,0.358038,-0.262778,0.16868,-0.214912,-0.052895,0.04388,1.354848,-0.051236,0.244622,0.122956,-0.077895,0.018922,0.204071,-0.069688,0.121117,0.82034,0.697428,0.347212,0.150034,0.067254,-0.220543,0.408731,0.776268,-1.058311,0.280262,0.317226
-1.831374,-0.448395,0.760069,0.063943,0.019155,0.801846,0.593791,-0.107408,-0.214126,0.237194,0.353724,-0.292795,0.172597,-0.306402,-0.137043,0.077239,1.421853,-0.117905,0.175059,0.110765,-0.085978,0.028815,0.190993,-0.061478,0.113714,0.806768,0.710694,0.326909,0.172652,0.078592,-0.202243,0.361257,0.730041,-1.009817,0.304234,0.237259
-1.840508,-0.430782,0.759215,0.06983,0.020635,0.797956,0.598301,-0.06476,-0.228953,0.243331,0.342597,-0.31628,0.172368,-0.383253,-0.187664,0.080298,1.410295,-0.168679,0.000336,0.087553,-0.09194600000000001,0.035352,0.168155,-0.040477,0.094875,0.798216,0.736204,0.320175,0.182433,0.100693,-0.176345,0.29726,0.68725,-0.958126,0.33454,0.119945
-1.848398,-0.413214,0.759435,0.070636,0.020044,0.799031,0.59679,-0.029688,-0.23656,0.232503,0.334283,-0.334331,0.171606,-0.435509,-0.194434,0.063032,1.323045,-0.227259,-0.126508,0.056735,-0.09217,0.038244,0.141075,-0.014659,0.073819,0.788146,0.757592,0.321803,0.17017,0.126336,-0.149726,0.239327,0.65148,-0.915995,0.357185,0.009062
-1.855634,-0.395759,0.760382,0.067614,0.018365,0.804547,0.589742,-0.003576,-0.237701,0.210719,0.335135,-0.350788,0.17038,-0.464074,-0.170736,0.038453,1.176956,-0.25866,-0.176014,0.021464,-0.086009,0.03885,0.113045,0.013038,0.05153,0.770755,0.768863,0.322502,0.144297,0.154545,-0.130185,0.193885,0.621633,-0.886935,0.367669,-0.067783
-1.863169,-0.378648,0.761678,0.061898,0.015797,0.812623,0.579277,0.019302,-0.236119,0.180758,0.335954,-0.362068,0.170236,-0.47704,-0.11707,0.034064,0.992679,-0.24998,-0.17327,-0.014655,-0.075063,0.038555,0.085779,0.04127,0.028226,0.74552,0.769073,0.316929,0.122933,0.183344,-0.117308,0.156955,0.595381,-0.865215,0.369954,-0.102053
-1.87141,-0.362033,0.762382,0.05298,0.013752,0.821086,0.568175,0.038239,-0.232616,0.149194,0.333104,-0.372434,0.171607,-0.482244,-0.051194,0.04826,0.783933,-0.226722,-0.123918,-0.046835,-0.061348,0.036763,0.052085,0.068097,0.002288,0.721169,0.76016,0.30275,0.116753,0.209579,-0.103687,0.125499,0.567891,-0.845857,0.37704,-0.110294
-1.880638,-0.345971,0.762168,0.043106,0.012276,0.828145,0.558719,0.060055,-0.230134,0.119396,0.320103,-0.380796,0.175103,-0.484217,0.012674,0.079285,0.574741,-0.197937,-0.038316,-0.071757,-0.046281,0.033074,0.024414,0.102496,-0.027874,0.693527,0.752136,0.290919,0.115124,0.231626,-0.094861,0.101095,0.552116,-0.828657,0.376879,-0.109391
-1.890672,-0.330506,0.761114,0.032773,0.012526,0.833048,0.552087,0.08393,-0.231002,0.092635,0.295971,-0.386649,0.180912,-0.489786,0.054253,0.082501,0.379438,-0.174231,0.048786,-0.086884,-0.033402,0.028137,0.001199,0.139957,-0.05192,0.651513,0.739886,0.28109,0.1124,0.241106,-0.089481,0.085672,0.563943,-0.823631,0.381183,-0.102649
-1.901043,-0.315227,0.758851,0.023663,0.015257,0.835839,0.548252,0.106042,-0.236282,0.07143,0.273176,-0.397273,0.186811,-0.502056,0.068402,0.013138,0.229416,-0.160862,0.127678,-0.092603,-0.02446,0.022804,-0.018147,0.168601,-0.067592,0.609297,0.723464,0.272597,0.123199,0.250165,-0.086296,0.077776,0.589193,-0.830553,0.390253,-0.088059
-1.911551,-0.299764,0.755554,0.017104,0.019551,0.836877,0.546775,0.123902,-0.245228,0.057593,0.263942,-0.414205,0.193004,-0.526796,0.062735,-0.120721,0.189188,-0.171531,0.206797,-0.093482,-0.019365,0.018845,-0.029982,0.187478,-0.073573,0.574813,0.709909,0.273018,0.150213,0.255598,-0.085831,0.078012,0.628536,-0.851222,0.407122,-0.063375
-1.922405,-0.28384,0.752689,0.010929,0.020518,0.8392,0.543325,0.143316,-0.248006,0.043993,0.26168,-0.427876,0.198663,-0.549022,0.064322,-0.191155,0.228712,-0.153206,0.149856,-0.09966,-0.01348,0.01727,-0.034058,0.191296,-0.063391,0.547816,0.681563,0.275432,0.18155,0.255143,-0.084231,0.084742,0.679847,-0.879464,0.425771,-0.025393
-1.933739,-0.266775,0.751098,0.006443,0.020263,0.844784,0.534686,0.167135,-0.248522,0.025824,0.263327,-0.430991,0.204139,-0.548244,0.067889,-0.222145,0.272407,-0.158362,0.102054,-0.110631,-0.006379,0.014504,-0.033573,0.184888,-0.058864,0.537845,0.659413,0.282281,0.219541,0.256342,-0.081883,0.087913,0.732336,-0.909292,0.438954,0.017356
-1.945642,-0.248176,0.753632,0.002386,0.01953,0.854495,0.519086,0.19489,-0.246771,-0.00088,0.269492,-0.418399,0.208097,-0.516343,0.074306,-0.212677,0.285076,-0.163643,0.103936,-0.125082,0.002164,0.007799,-0.035398,0.169467,-0.072013,0.552721,0.64296,0.294592,0.241444,0.267016,-0.079017,0.082886,0.776974,-0.943524,0.452568,0.061593
-1.957924,-0.228514,0.755858,-0.002262,0.016886,0.866559,0.498783,0.22285,-0.236574,-0.037393,0.276313,-0.392569,0.209216,-0.470898,0.087423,-0.182816,0.269125,-0.138382,0.095239,-0.138019,0.012127,-0.002426,-0.043498,0.156311,-0.110517,0.589448,0.640246,0.314012,0.233947,0.287919,-0.066479,0.060756,0.799494,-0.967412,0.460304,0.091892
-1.970683,-0.207941,0.758188,-0.009107,0.009876,0.875994,0.482135,0.252639,-0.213532,-0.069709,0.27712,-0.346742,0.203317,-0.410276,0.109974,-0.182007,0.194257,-0.045615,-0.0161,-0.145797,0.024475,-0.014084,-0.046965,0.154067,-0.166907,0.633781,0.651801,0.332857,0.200161,0.30924,-0.045373,0.033268,0.809026,-0.981934,0.462438,0.10806
-1.983431,-0.1869,0.760317,-0.013011,0.002019,0.88068,0.473528,0.270325,-0.192555,-0.091053,0.313943,-0.306838,0.17679,-0.378837,0.121622,-0.204781,0.195085,0.002948,-0.090229,-0.14787,0.038901,-0.02005,-0.033056,0.153413,-0.218906,0.670799,0.65928,0.341708,0.156957,0.320879,-0.028307,0.005266,0.813769,-0.985209,0.452593,0.109193
-1.996132,-0.165146,0.759914,-0.011968,-0.008189,0.88259,0.46992,0.269398,-0.172923,-0.105536,0.404784,-0.270245,0.104212,-0.361043,0.135518,-0.216325,0.258117,-0.025305,-0.173218,-0.152225,0.053636,-0.019448,0.003313,0.151378,-0.263252,0.702123,0.665792,0.348386,0.123485,0.321876,-0.020511,-0.006932,0.828733,-1.002304,0.445784,0.107882
-2.007751,-0.143396,0.760702,-0.009582,-0.020357,0.88866,0.458015,0.232446,-0.142476,-0.119222,0.561003,-0.217869,-0.055077,-0.332889,0.145075,-0.242767,0.310031,-0.076688,-0.212679,-0.163057,0.063299,-0.015213,0.039701,0.150065,-0.31538,0.738158,0.677632,0.353284,0.100974,0.316397,-0.006119,-0.025818,0.837751,-1.019309,0.448134,0.112665
-2.018887,-0.121623,0.762356,-0.006526,-0.034259,0.900527,0.433399,0.159746,-0.10262,-0.130454,0.776373,-0.147625,-0.221646,-0.287062,0.149162,-0.290844,0.332122,-0.127411,-0.226045,-0.180503,0.067231,-0.009164,0.058331,0.156019,-0.390806,0.786319,0.700444,0.363682,0.058436,0.316384,0.024568,-0.064582,0.820217,-1.022709,0.45478,0.097461
-2.029702,-0.100238,0.762424,-0.001757,-0.047101,0.915973,0.398462,0.05732,-0.056073,-0.083931,1.017842,-0.083974,-0.246719,-0.228503,0.148445,-0.354523,0.329776,-0.173376,-0.226956,-0.204364,0.065806,-0.002437,0.05669,0.172707,-0.483041,0.83791,0.730261,0.366497,-0.020596,0.321926,0.065971,-0.116872,0.780494,-0.998428,0.444114,0.068881
-2.04089,-0.07952,0.762128,0.004016,-0.058587,0.928243,0.367311,-0.054851,0.036178,-0.054251,1.23164,-0.057777,-0.24749,-0.162581,0.156024,-0.411352,0.309857,-0.208186,-0.225652,-0.217633,0.066218,0.006235,0.047626,0.191534,-0.5619,0.870215,0.753897,0.356042,-0.100715,0.318043,0.09868,-0.158403,0.740296,-0.959468,0.416488,0.032605
-2.052371,-0.060601,0.760975,0.00812,-0.069871,0.933949,0.350415,-0.161441,0.106181,-0.099054,1.389799,-0.092711,-0.241,-0.108131,0.176424,-0.444156,0.295857,-0.237365,-0.225118,-0.210815,0.07097,0.015812,0.05259,0.205079,-0.582697,0.873765,0.753232,0.366366,-0.137882,0.291109,0.111451,-0.162317,0.7112,-0.938904,0.39804,0.01237
-2.064419,-0.043625,0.759943,0.012452,-0.07713,0.935937,0.343391,-0.259078,0.156414,-0.111242,1.481511,-0.125649,-0.137048,-0.06032,0.194628,-0.454437,0.285822,-0.262658,-0.22276,-0.193516,0.076853,0.023084,0.072118,0.202734,-0.541371,0.860943,0.725259,0.387167,-0.097806,0.258508,0.097608,-0.131983,0.704791,-0.95124,0.372442,0.009509
-2.076981,-0.028718,0.759257,0.01603,-0.080689,0.9354920000000002,0.343637,-0.345731,0.171505,-0.117928,1.509848,-0.159747,-0.027909,-0.022804,0.205212,-0.448849,0.287277,-0.287449,-0.217917,-0.168599,0.081435,0.028598,0.106661,0.181203,-0.455527,0.85223,0.675458,0.410962,0.016381,0.228543,0.070293,-0.102764,0.71819,-0.982911,0.349928,0.006189
-2.089698,-0.015466,0.759136,0.018849,-0.080619,0.933779,0.348142,-0.417284,0.144292,-0.12749,1.476631,-0.196448,0.062476,0.007,0.207624,-0.434304,0.294125,-0.309338,-0.211383,-0.138889,0.082567,0.032601,0.147104,0.152219,-0.346699,0.838677,0.617106,0.416414,0.147086,0.187961,0.043503,-0.08569,0.712632,-1.00361,0.340644,0.01448
-2.102439,-0.003174,0.759336,0.020047,-0.077532,0.931383,0.355122,-0.471891,0.098215,-0.13386,1.387158,-0.240997,0.086663,0.027002,0.202726,-0.415769,0.309881,-0.332868,-0.203714,-0.108003,0.079311,0.035017,0.183867,0.122634,-0.251204,0.826553,0.573878,0.420981,0.255503,0.15054,0.016898,-0.073748,0.690023,-1.01154,0.32719,0.018957
-2.114925,0.009006,0.759847,0.019865,-0.071415,0.928,0.365131,-0.508769,0.045476,-0.136854,1.246517,-0.256083,0.102448,0.043345,0.194196,-0.3926,0.323086,-0.355334,-0.195387,-0.078136,0.072381,0.035468,0.214726,0.095466,-0.190372,0.817251,0.548218,0.422267,0.307518,0.115762,-0.012295,-0.064839,0.658653,-1.006156,0.3127,0.013107
-2.126901,0.021643,0.760191,0.018001,-0.063562,0.924242,0.376049,-0.525378,0.011535,-0.117851,1.054535,-0.270302,0.091498,0.058931,0.185828,-0.367508,0.329239,-0.377263,-0.186184,-0.052392,0.06311,0.033592,0.24005,0.078266,-0.167713,0.813568,0.545406,0.420892,0.309038,0.081773,-0.042332,-0.055491,0.626627,-0.993042,0.300447,0.001938
-2.1382,0.035,0.759793,0.013592,-0.055467,0.9205620000000002,0.3864,-0.527593,-0.007412,-0.080605,0.824926,-0.280002,0.035114,0.073912,0.181439,-0.342726,0.326964,-0.398095,-0.179471,-0.032086,0.052643,0.029375,0.260843,0.072372,-0.175859,0.816255,0.561545,0.413446,0.264409,0.048147,-0.071875,-0.042692,0.598693,-0.981062,0.294625,-0.016819
-2.148746,0.049109,0.758802,0.007749,-0.047488,0.917326,0.395219,-0.516142,-0.022731,-0.039105,0.574708,-0.277041,-0.053933,0.09227,0.181653,-0.318491,0.311981,-0.412349,-0.174655,-0.018138,0.041897,0.023192,0.278128,0.071401,-0.187848,0.81768,0.579721,0.403866,0.206594,0.015686,-0.096281,-0.029736,0.57465,-0.964792,0.293491,-0.029095
-2.158727,0.063573,0.757212,0.00235,-0.040424,0.914492,0.402573,-0.498733,-0.045484,-0.020177,0.349731,-0.272517,-0.127567,0.113719,0.183862,-0.295727,0.293168,-0.424242,-0.170875,-0.009201,0.030638,0.016826,0.294984,0.070768,-0.195592,0.818092,0.596794,0.395039,0.155484,-0.012649,-0.115971,-0.015705,0.554926,-0.9481830000000001,0.295775,-0.037479
-2.168443,0.077921,0.755019,-0.002408,-0.034805,0.912318,0.407993,-0.489127,-0.066809,-0.022851,0.220282,-0.25244,-0.196683,0.132068,0.185615,-0.277282,0.284049,-0.438322,-0.167248,-0.004597,0.019292,0.012483,0.308385,0.067948,-0.194695,0.818932,0.609501,0.393611,0.122379,-0.036059,-0.13107,-0.001683,0.540379,-0.934966,0.300668,-0.049373
-2.178349,0.09207000000000001,0.752523,-0.006429,-0.031924,0.911582,0.409826,-0.491623,-0.069491,-0.002076,0.233241,-0.221516,-0.215239,0.146115,0.187939,-0.267151,0.289837,-0.455935,-0.163577,-0.003525,0.009964,0.010433,0.314337,0.065393,-0.191365,0.825271,0.624372,0.398203,0.104763,-0.051972,-0.140987,0.011906,0.533923,-0.922474,0.304567,-0.057347
-2.189035,0.106441,0.751519,-0.009355,-0.029103,0.910261,0.412904,-0.482687,-0.060994,0.033796,0.293507,-0.177254,-0.138612,0.161161,0.186173,-0.259079,0.297904,-0.46244,-0.158746,-0.000701,0.001602,0.007292,0.31412,0.058134,-0.180858,0.836273,0.638353,0.40924,0.102673,-0.059837,-0.14248,0.022324,0.536934,-0.914926,0.320032,-0.071623
-2.200946,0.121555,0.757004,-0.009529,-0.022241,0.905645,0.423346,-0.44953,-0.066565,0.04809,0.277383,-0.130287,-0.073136,0.186538,0.175218,-0.240358,0.290916,-0.433673,-0.153309,0.007657,-0.008654,0.0006,0.312413,0.041535,-0.158921,0.84611,0.648551,0.422411,0.110855,-0.062475,-0.137128,0.041958,0.556133,-0.914348,0.335297,-0.076462
-2.213739,0.137283,0.762492,-0.007477,-0.014723,0.899195,0.437237,-0.398695,-0.08192,0.040886,0.224299,-0.044287,-0.04213,0.204909,0.155385,-0.215024,0.304034,-0.391766,-0.148461,0.018166,-0.021494,-0.008302,0.314066,0.020929,-0.125502,0.850808,0.654513,0.434955,0.120152,-0.060267,-0.126278,0.067821,0.592917,-0.91729,0.355599,-0.07623
-2.227441,0.153982,0.767099,-0.003373,-0.009153,0.895092,0.445774,-0.360141,-0.090271,0.053868,0.214755,-0.028984,-0.01291,0.213876,0.133279,-0.194802,0.348779,-0.341087,-0.144536,0.024952,-0.035198,-0.014955,0.316948,0.003105,-0.089342,0.850937,0.657666,0.44309,0.130991,-0.050191,-0.11677,0.101879,0.643052,-0.926696,0.375175,-0.051513
-2.24168,0.171188,0.769953,0.004037,-0.003652,0.891937,0.452128,-0.330038,-0.101834,0.071445,0.239993,-0.053459,0.02071,0.210236,0.104203,-0.181359,0.429818,-0.283598,-0.130072,0.02913,-0.048993,-0.017419,0.316133,-0.012451,-0.059759,0.852111,0.655518,0.43841,0.135597,-0.035354,-0.116884,0.152314,0.69921,-0.951181,0.383788,-0.000857
-2.25658,0.18824,0.769399,0.014156,0.000895,0.887336,0.460905,-0.298031,-0.115734,0.089998,0.280389,-0.084418,0.069518,0.177888,0.062646,-0.173529,0.571845,-0.208489,-0.091329,0.034854,-0.059704,-0.015611,0.309141,-0.02338,-0.04693,0.858296,0.66458,0.433107,0.133449,-0.019753,-0.124962,0.217487,0.754598,-0.984922,0.374099,0.071413
-2.271459,0.204158,0.768597,0.025496,0.006356,0.880234,0.473812,-0.264886,-0.131018,0.118449,0.311458,-0.122849,0.112777,0.112666,0.009474,-0.151838,0.763712,-0.117649,-0.007056,0.04215,-0.066404,-0.010379,0.296283,-0.035856,-0.040198,0.861847,0.676245,0.427247,0.122047,-0.009668,-0.145679,0.295567,0.800543,-1.02966,0.348208,0.16333
-2.286256,0.220238,0.768217,0.037508,0.011058,0.870498,0.490616,-0.222132,-0.142997,0.154356,0.32813,-0.166055,0.133836,0.023029,-0.038761,-0.107075,0.97916,-0.027915,0.092255,0.050799,-0.071152,-0.002983,0.281202,-0.047714,-0.032742,0.855614,0.687518,0.419476,0.116306,-0.002688,-0.16698,0.360557,0.823466,-1.060435,0.313764,0.24948
-2.300262,0.236294,0.76682,0.048481,0.015003,0.859365,0.508838,-0.174966,-0.152553,0.192795,0.331921,-0.208049,0.139227,-0.082838,-0.081593,-0.056558,1.183644,0.035113,0.182885,0.058401,-0.077331,0.008062,0.261868,-0.057369,-0.019813,0.84166,0.691877,0.407406,0.125355,0.003506,-0.180372,0.393478,0.823734,-1.066162,0.294177,0.298628
-2.312847,0.252133,0.764983,0.059565,0.021535,0.84919,0.524275,-0.131437,-0.169801,0.227497,0.330396,-0.243033,0.143875,-0.184347,-0.137595,-0.016861,1.329296,-0.010608,0.141507,0.059576,-0.086755,0.020067,0.237206,-0.064513,-0.012428,0.831074,0.696164,0.392392,0.146482,0.015311,-0.189387,0.397209,0.810762,-1.059532,0.298144,0.283711
-2.323862,0.268255,0.763879,0.066816,0.024717,0.843853,0.531825,-0.09223,-0.182932,0.242891,0.327551,-0.272735,0.144322,-0.273211,-0.182877,0.000955,1.394767,-0.07524,0.060714,0.05055,-0.097084,0.028667,0.204433,-0.058059,-0.019024,0.833173,0.712159,0.38247,0.165484,0.03976,-0.183477,0.374269,0.792002,-1.040872,0.316456,0.210144
-2.333721,0.284741,0.763912,0.070516,0.024726,0.843097,0.532544,-0.052475,-0.191755,0.239767,0.31747,-0.295433,0.142777,-0.343651,-0.20664,-0.001642,1.374677,-0.116404,-0.033498,0.03183,-0.103067,0.031676,0.161875,-0.039711,-0.033842,0.85581,0.743984,0.382423,0.160734,0.078034,-0.171019,0.335741,0.774426,-1.019946,0.34298,0.12087
-2.342797,0.30143,0.764709,0.069778,0.023453,0.845458,0.528944,-0.021712,-0.194456,0.225692,0.313549,-0.317368,0.141651,-0.393358,-0.195834,-0.013483,1.274552,-0.172731,-0.106717,0.007407,-0.102509,0.03118,0.128399,-0.016251,-0.049497,0.867127,0.767338,0.370677,0.143581,0.118351,-0.150876,0.297734,0.74987,-0.998589,0.364852,0.05742
-2.351597,0.318265,0.765748,0.066302,0.021697,0.849894,0.522316,0.000411,-0.192793,0.205031,0.320704,-0.343383,0.141165,-0.425501,-0.164789,-0.02756,1.117311,-0.21082,-0.137104,-0.018825,-0.09522000000000001,0.029352,0.085038,0.005569,-0.062633,0.866275,0.781273,0.363635,0.117582,0.156854,-0.136271,0.261957,0.722749,-0.972287,0.375756,0.026889
-2.360798,0.334889,0.766829,0.059094,0.018333,0.855547,0.514014,0.021236,-0.186128,0.179345,0.321889,-0.365987,0.141102,-0.44015,-0.114502,-0.034599,0.911033,-0.21826,-0.15426,-0.045013,-0.082557,0.026281,0.045092,0.030386,-0.076186,0.847691,0.78448,0.350839,0.094673,0.191507,-0.130315,0.227255,0.690752,-0.939066,0.369675,0.023501
-2.370681,0.351104,0.766894,0.050465,0.015586,0.860635,0.506476,0.043512,-0.180011,0.154419,0.314119,-0.384718,0.140259,-0.442538,-0.055711,-0.025258,0.681852,-0.212949,-0.113079,-0.068296,-0.066632,0.021627,0.010195,0.054421,-0.096524,0.817193,0.781421,0.328979,0.089243,0.224681,-0.131231,0.194283,0.657706,-0.907195,0.357203,0.022151
-2.381209,0.366534,0.766435,0.040549,0.013239,0.864695,0.500483,0.068912,-0.17379,0.13372,0.292342,-0.396176,0.139223,-0.441105,0.002614,0.00069,0.448967,-0.192816,-0.03084,-0.08685,-0.049798,0.015841,-0.016239,0.085848,-0.117492,0.769484,0.770889,0.30226,0.09119600000000001,0.242421,-0.135028,0.169366,0.647863,-0.888276,0.356866,0.021362
-2.392069,0.381253,0.765293,0.030474,0.012618,0.867134,0.496982,0.092077,-0.170519,0.116787,0.268494,-0.405741,0.138807,-0.445341,0.043476,0.006921,0.247813,-0.169685,0.052198,-0.099295,-0.034652,0.010053,-0.037002,0.115378,-0.135338,0.717812,0.75657,0.283137,0.111716,0.252831,-0.136689,0.148827,0.65208,-0.886267,0.368203,0.016601
-2.402783,0.395587,0.762714,0.024061,0.01706,0.866709,0.497941,0.107914,-0.17754,0.110713,0.260262,-0.422118,0.140392,-0.477299,0.046842,-0.089194,0.174661,-0.187769,0.190727,-0.103605,-0.025111,0.006829,-0.049636,0.13802,-0.142842,0.665415,0.735051,0.26646,0.142456,0.257495,-0.136897,0.126621,0.667136,-0.896623,0.38855,0.011142
-2.413355,0.409687,0.760186,0.01722,0.019871,0.865702,0.499869,0.12135,-0.180615,0.107223,0.256127,-0.437089,0.143083,-0.513934,0.036769,-0.184468,0.206937,-0.164391,0.194628,-0.108339,-0.016935,0.007011,-0.054298,0.155247,-0.134575,0.618149,0.705208,0.265141,0.175475,0.253678,-0.12505,0.097948,0.693212,-0.908554,0.416272,0.007476
-2.424217,0.42444,0.758286,0.011624,0.020248,0.867249,0.497327,0.137365,-0.179743,0.098809,0.257894,-0.443895,0.143701,-0.534544,0.031399,-0.241544,0.264745,-0.155495,0.07056,-0.11779,-0.007959,0.008062,-0.055189,0.164595,-0.123298,0.581087,0.675346,0.268875,0.200095,0.247571,-0.103847,0.059069,0.723673,-0.914742,0.447564,0.004098
-2.435507,0.440257,0.757346,0.007149,0.019921,0.872766,0.48768,0.155378,-0.176994,0.081477,0.263288,-0.437974,0.142988,-0.524231,0.034662,-0.256479,0.292365,-0.174773,0.055023,-0.130767,0.001998,0.00594,-0.05531,0.160893,-0.116395,0.565442,0.647544,0.280363,0.218448,0.249154,-0.081299,0.017253,0.749005,-0.920506,0.471054,0.002776
-2.447221,0.457212,0.757982,0.002623,0.018061,0.880529,0.47364,0.178503,-0.169887,0.053562,0.263993,-0.420376,0.140091,-0.488208,0.048946,-0.223952,0.288203,-0.17868,0.070263,-0.143827,0.012818,-0.000457,-0.056253,0.152717,-0.123528,0.570277,0.633939,0.298445,0.233745,0.262888,-0.060142,-0.014782,0.762688,-0.932614,0.477246,0.012801
-2.459443,0.475649,0.762302,-0.001686,0.016448,0.888765,0.458065,0.204972,-0.161407,0.021999,0.268247,-0.396981,0.134107,-0.443135,0.065756,-0.186102,0.266968,-0.15094,0.085723,-0.153409,0.023469,-0.009336,-0.058587,0.143369,-0.146355,0.589666,0.628405,0.317607,0.23041,0.284285,-0.042048,-0.033467,0.760187,-0.943508,0.468734,0.029707
-2.471742,0.494942,0.764752,-0.008414,0.010718,0.895933,0.44398,0.233884,-0.139739,-0.008074,0.260306,-0.360709,0.123236,-0.384581,0.089498,-0.190314,0.191217,-0.062566,-0.035132,-0.157686,0.034302,-0.018938,-0.055224,0.143028,-0.183582,0.612385,0.63078,0.331222,0.208485,0.306337,-0.021835,-0.043387,0.751939,-0.948771,0.450403,0.041841
-2.48381,0.514896,0.766534,-0.012247,0.004441,0.89924,0.437261,0.253837,-0.118995,-0.028746,0.284527,-0.329887,0.107351,-0.353433,0.103721,-0.216285,0.185154,-0.006668,-0.117856,-0.157287,0.047097,-0.02312,-0.035628,0.145398,-0.218345,0.629012,0.629866,0.339626,0.180859,0.319693,-0.010373,-0.039987,0.752049,-0.9573370000000001,0.425346,0.050654
-2.496283,0.535442,0.765938,-0.012162,-0.00419,0.899945,0.435814,0.262317,-0.098425,-0.038877,0.348714,-0.290663,0.074093,-0.339194,0.1182,-0.228151,0.244051,-0.035765,-0.169555,-0.156522,0.06027,-0.021551,0.003808,0.146884,-0.244992,0.644213,0.625241,0.343076,0.167927,0.316654,-0.004516,-0.032386,0.768392,-0.9701360000000001,0.408289,0.065995
-2.508007,0.556208,0.766674,-0.009075,-0.015066,0.9022230000000001,0.430911,0.244594,-0.072108,-0.054317,0.466373,-0.235744,-0.009648,-0.310786,0.13357,-0.244103,0.291339,-0.082092,-0.199748,-0.16021,0.069963,-0.01781,0.04997,0.146083,-0.277863,0.673341,0.62823,0.348214,0.163674,0.305249,0.003435,-0.031097,0.794136,-0.993015,0.414765,0.088133
-2.518672,0.576754,0.766308,-0.005851,-0.027657,0.908766,0.416348,0.188436,-0.039138,-0.083776,0.647075,-0.164896,-0.141584,-0.270522,0.146633,-0.275364,0.315892,-0.129053,-0.210387,-0.168606,0.075169,-0.012952,0.082221,0.148963,-0.32972,0.723357,0.642731,0.365198,0.141168,0.297281,0.02886,-0.061276,0.794819,-0.99804,0.427952,0.097151
-2.529327,0.597202,0.765546,-0.002511,-0.040843,0.918384,0.393569,0.099615,-0.005109,-0.108505,0.877869,-0.096065,-0.24235,-0.220582,0.158055,-0.320018,0.320308,-0.173208,-0.212543,-0.179295,0.078365,-0.005499,0.093901,0.163007,-0.405447,0.781444,0.671147,0.382684,0.077594,0.295591,0.064652,-0.107422,0.770992,-0.9916950000000002,0.442412,0.088116
-2.539746,0.617163,0.763732,0.001165,-0.052099,0.928245,0.3683,-0.014432,0.043693,-0.082854,1.125679,-0.03508,-0.247497,-0.168906,0.169556,-0.367869,0.313628,-0.210053,-0.211516,-0.190415,0.081991,0.00407,0.098472,0.187293,-0.485221,0.820633,0.708043,0.390322,-0.02098,0.282327,0.096287,-0.143484,0.727603,-0.969755,0.434647,0.070913
-2.550361,0.636105,0.76177,0.00394,-0.062219,0.933369,0.353463,-0.131583,0.100045,-0.098631,1.344664,-0.015867,-0.245639,-0.120111,0.190229,-0.397878,0.301142,-0.238657,-0.209885,-0.187316,0.088946,0.015243,0.106243,0.208789,-0.528159,0.833804,0.72623,0.396349,-0.1017,0.276709,0.107094,-0.154515,0.709802,-0.94518,0.382479,0.023022
-2.561228,0.653362,0.76006,0.006222,-0.07063,0.934618,0.348513,-0.241488,0.12852,-0.137373,1.513145,-0.042622,-0.198387,-0.076665,0.213747,-0.407803,0.289702,-0.261009,-0.207501,-0.171472,0.097095,0.026021,0.12831,0.215009,-0.499451,0.824697,0.710887,0.413435,-0.103064,0.249726,0.09141,-0.124506,0.714855,-0.954833,0.338033,-0.011685
-2.572411,0.668935,0.759311,0.008547,-0.074589,0.933943,0.349448,-0.343784,0.145032,-0.156509,1.616945,-0.063373,-0.114188,-0.038551,0.229686,-0.402717,0.281171,-0.277606,-0.20304,-0.147949,0.103154,0.033956,0.165495,0.197473,-0.409839,0.813326,0.665937,0.426538,-0.015148,0.209107,0.058387,-0.077592,0.741269,-1.002042,0.310892,-0.02558
-2.584027,0.683132,0.759787,0.010273,-0.07543,0.932107,0.354093,-0.430628,0.138896,-0.168542,1.644875,-0.093604,-0.043403,-0.004675,0.238378,-0.388504,0.274525,-0.284502,-0.196646,-0.11887,0.104975,0.039437,0.206099,0.162275,-0.289729,0.800977,0.610085,0.436802,0.116035,0.172225,0.027811,-0.038653,0.75059,-1.045783,0.310729,-0.008052
-2.595737,0.696348,0.761565,0.011533,-0.072098,0.92948,0.361575,-0.495914,0.116571,-0.163021,1.592491,-0.143957,0.016758,0.019682,0.23608,-0.369617,0.278022,-0.282394,-0.189746,-0.087096,0.101275,0.04211,0.243639,0.127144,-0.189457,0.79153,0.56781,0.43554,0.232735,0.141378,0.002472,-0.026208,0.738636,-1.061478,0.313113,0.019993
-2.607451,0.709268,0.764087,0.011483,-0.066506,0.926441,0.370342,-0.540958,0.084099,-0.144496,1.474174,-0.203441,0.045468,0.033071,0.226988,-0.350483,0.296407,-0.282512,-0.182757,-0.056055,0.092919,0.042466,0.274488,0.102269,-0.133852,0.788341,0.551708,0.435105,0.294889,0.117466,-0.018297,-0.031615,0.708391,-1.045004,0.309889,0.040207
-2.618957,0.722864,0.768582,0.009257,-0.060364,0.92318,0.379485,-0.564154,0.052778,-0.120733,1.298141,-0.251125,0.068381,0.04054,0.219576,-0.333732,0.321957,-0.286018,-0.177979,-0.028008,0.082083,0.041294,0.299524,0.091467,-0.116387,0.787473,0.557731,0.432876,0.295159,0.09802,-0.041006,-0.036625,0.670967,-1.014238,0.295948,0.048042
-2.630079,0.737495,0.770302,0.006249,-0.056036,0.920121,0.387554,-0.564703,0.03727,-0.086605,1.071021,-0.279717,0.052778,0.052659,0.219283,-0.314024,0.338306,-0.292203,-0.175077,-0.005383,0.071208,0.038691,0.322857,0.091853,-0.120904,0.787028,0.57513,0.420231,0.259002,0.080253,-0.069504,-0.028766,0.637956,-0.991891,0.285905,0.047069
-2.640853,0.753141,0.769686,0.001279,-0.052683,0.91714,0.395065,-0.541472,0.036363,-0.032135,0.79389,-0.304089,-0.002624,0.071256,0.226538,-0.291065,0.33964,-0.307798,-0.172844,0.010415,0.062461,0.033492,0.344186,0.095694,-0.129926,0.788666,0.592559,0.410568,0.210644,0.059656,-0.100612,-0.011499,0.606938,-0.9741050000000001,0.276118,0.039093
-2.651086,0.7695,0.767682,-0.004695,-0.048825,0.914058,0.402606,-0.503976,0.026955,0.019541,0.496165,-0.310082,-0.088397,0.099204,0.237938,-0.264413,0.318824,-0.321935,-0.170761,0.020068,0.055602,0.026079,0.363304,0.092957,-0.133395,0.78566,0.602242,0.400477,0.17806,0.033849,-0.137545,0.015499,0.583029,-0.973381,0.274002,0.029972
-2.660778,0.786009,0.765123,-0.010056,-0.043918,0.910904,0.41015,-0.472447,0.000604,0.041993,0.255392,-0.29788,-0.150991,0.132456,0.247901,-0.236095,0.286049,-0.329913,-0.166827,0.024842,0.048679,0.018597,0.37936,0.084806,-0.137234,0.785293,0.611933,0.392008,0.156418,0.006311,-0.16672,0.035091,0.562286,-0.965479,0.273498,0.020961
-2.670495,0.802335,0.762103,-0.014505,-0.042512,0.908881,0.41463,-0.466802,-0.024258,0.03737,0.186882,-0.278457,-0.240915,0.156955,0.258421,-0.2122,0.280273,-0.348721,-0.161466,0.024698,0.042631,0.014431,0.393057,0.07845,-0.139977,0.789954,0.625186,0.389582,0.144459,-0.016471,-0.185022,0.044529,0.550051,-0.955496,0.281063,0.001547
-2.680468,0.818711,0.760388,-0.017937,-0.041558,0.9082190000000001,0.41604,-0.475402,-0.027755,0.023372,0.252646,-0.239745,-0.203667,0.173849,0.264797,-0.199011,0.290947,-0.357586,-0.15648,0.024533,0.037246,0.012912,0.393899,0.068792,-0.138526,0.805781,0.640233,0.396969,0.136835,-0.029399,-0.184566,0.028177,0.545008,-0.93347,0.302622,-0.030718
-2.691188,0.835681,0.761532,-0.017536,-0.034324,0.905885,0.421766,-0.456832,-0.066044,-0.040571,0.24763,-0.168165,-0.148953,0.197336,0.254141,-0.185563,0.287831,-0.331282,-0.148016,0.029639,0.029298,0.007625,0.383926,0.044827,-0.12727,0.827569,0.650422,0.411737,0.132213,-0.031987,-0.173206,0.004104,0.549658,-0.915383,0.334815,-0.068985
-2.703086,0.853757,0.763998,-0.016354,-0.029841,0.901552,0.431332,-0.414203,-0.100307,-0.121682,0.220686,-0.071386,-0.132361,0.211996,0.24285,-0.1691,0.31194,-0.287447,-0.139565,0.038507,0.018481,-0.000512,0.374368,0.025523,-0.108139,0.844267,0.661225,0.437725,0.117035,-0.025552,-0.145041,-0.013221,0.571384,-0.902318,0.373789,-0.107221
-2.715882,0.872021,0.768056,-0.01393,-0.025411,0.897751,0.439549,-0.378806,-0.10961,-0.130295,0.216627,-0.034918,-0.081679,0.209519,0.227198,-0.147057,0.370589,-0.230726,-0.120003,0.043061,0.00801,-0.00729,0.368266,0.010996,-0.089389,0.84129,0.671672,0.445143,0.104499,-0.017833,-0.119657,-0.007607,0.609269,-0.900326,0.403272,-0.113577
-2.729728,0.8908,0.771597,-0.008285,-0.02131,0.893259,0.44896,-0.349037,-0.112468,-0.104773,0.239713,-0.037498,-0.040429,0.192757,0.20526,-0.118247,0.467625,-0.162936,-0.066163,0.045464,-0.002265,-0.010334,0.365949,-0.001045,-0.070663,0.831355,0.6738,0.436445,0.089533,-0.010399,-0.109878,0.034407,0.661291,-0.918534,0.416054,-0.077142
-2.744404,0.90922,0.773359,0.00139,-0.016156,0.886443,0.462554,-0.318232,-0.125154,-0.078924,0.275853,-0.05589,0.045222,0.156752,0.173308,-0.08492,0.607961,-0.085101,0.020617,0.050364,-0.011865,-0.009732,0.362387,-0.010548,-0.05739,0.823159,0.676075,0.422012,0.086325,-0.008447,-0.118132,0.107664,0.720358,-0.954996,0.402205,0.000929
-2.759775,0.927631,0.773373,0.014199,-0.009332,0.875436,0.483035,-0.279003,-0.135748,-0.032537,0.309709,-0.093335,0.102415,0.099122,0.132584,-0.048196,0.790867,0.005948,0.117335,0.05833,-0.020388,-0.007883,0.355997,-0.02321,-0.045326,0.816944,0.676092,0.406553,0.094637,-0.015996,-0.142388,0.206152,0.779522,-1.00983,0.359197,0.120906
-2.774949,0.945921,0.77241,0.028742,-0.001075,0.85961,0.510141,-0.22807,-0.143725,0.030392,0.319868,-0.143323,0.116626,0.019559,0.092213,-0.003281,0.988741,0.110915,0.193553,0.069494,-0.030101,-0.003992,0.342551,-0.03587,-0.038966,0.814202,0.683113,0.400685,0.10552,-0.030079,-0.163194,0.283928,0.815048,-1.051049,0.3156,0.238616
-2.789163,0.96421,0.770867,0.043428,0.005354,0.841418,0.53861,-0.169003,-0.149797,0.095965,0.314163,-0.187712,0.119824,-0.07081,0.042388,0.020793,1.17743,0.173393,0.24431,0.082687,-0.041683,0.003724,0.320355,-0.045466,-0.027116,0.814911,0.687867,0.400796,0.121125,-0.036901,-0.169335,0.322418,0.819639,-1.06623,0.296291,0.305761
-2.80181,0.981779,0.768216,0.058423,0.013766,0.824066,0.563304,-0.118649,-0.166223,0.156289,0.311944,-0.227888,0.12345,-0.16114,-0.021313,0.056168,1.326827,0.110076,0.231141,0.089101,-0.05666,0.014767,0.287263,-0.051787,-0.015665,0.822611,0.695673,0.410346,0.140144,-0.031471,-0.165367,0.324876,0.800487,-1.059955,0.308261,0.297488
-2.812643,0.998993,0.765361,0.069495,0.021394,0.811463,0.579862,-0.082549,-0.184876,0.197531,0.318109,-0.265292,0.12717,-0.250582,-0.084599,0.073437,1.420508,-0.016767,0.164846,0.08676,-0.072385,0.024711,0.240785,-0.050812,-0.010899,0.835339,0.710037,0.424749,0.151255,-0.011682,-0.156192,0.309715,0.767759,-1.041275,0.320043,0.220624
-2.82185,1.016495,0.763725,0.076194,0.023302,0.804848,0.588108,-0.043395,-0.196218,0.214829,0.315618,-0.295067,0.127758,-0.325803,-0.132914,0.064837,1.440387,-0.085024,0.090886,0.073841,-0.084689,0.030668,0.188025,-0.038956,-0.0154,0.850436,0.733052,0.438439,0.154593,0.022247,-0.143887,0.290801,0.738702,-1.018897,0.330105,0.122402
-2.829537,1.034012,0.763031,0.078027,0.024254,0.802535,0.590984,-0.014261,-0.201778,0.218009,0.318473,-0.32228,0.124318,-0.389256,-0.164046,0.033979,1.391792,-0.142066,-0.005761,0.051891,-0.091108,0.033426,0.12894,-0.022918,-0.02691,0.864819,0.760634,0.434383,0.147286,0.063006,-0.141414,0.275741,0.713642,-1.000646,0.331022,0.042587
-2.836348,1.051432,0.763537,0.075629,0.023721,0.803104,0.590543,0.010047,-0.200838,0.212946,0.320533,-0.341958,0.124403,-0.431662,-0.175604,-0.014218,1.273569,-0.197963,-0.060973,0.026037,-0.090187,0.033228,0.091839,-0.004325,-0.042559,0.848543,0.777176,0.404647,0.144531,0.101766,-0.135989,0.258748,0.68998,-0.979932,0.33675,-0.001773
-2.842756,1.06863,0.765013,0.068404,0.021191,0.806347,0.587091,0.030798,-0.191812,0.200659,0.318646,-0.355147,0.125403,-0.463451,-0.131868,-0.027661,1.11036,-0.198915,-0.133974,-0.002747,-0.083031,0.032142,0.049871,0.014534,-0.052256,0.810679,0.77295,0.363866,0.148461,0.136621,-0.128674,0.237003,0.670009,-0.9483220000000001,0.339513,-0.012711
-2.849071,1.085521,0.7655,0.059805,0.021616,0.810095,0.58284,0.040614,-0.185307,0.18673,0.3265,-0.374202,0.1239,-0.475447,-0.086367,-0.026002,0.900808,-0.206367,-0.120761,-0.029681,-0.072723,0.029626,0.011704,0.031991,-0.069354,0.762422,0.7537,0.319709,0.153287,0.172134,-0.13238,0.207788,0.645208,-0.918262,0.343515,-0.010286
-2.8558,1.102077,0.764908,0.050071,0.022498,0.813446,0.579044,0.055605,-0.180263,0.171704,0.318488,-0.391202,0.120725,-0.469399,-0.071096,-0.065956,0.654377,-0.210849,-0.019937,-0.05175,-0.062852,0.025784,-0.017907,0.062875,-0.094415,0.702177,0.732416,0.275292,0.160779,0.196184,-0.13554,0.178223,0.635827,-0.89147,0.349427,-0.007971
-2.862967,1.118222,0.763996,0.038125,0.022579,0.817253,0.574573,0.076087,-0.173606,0.152854,0.29312,-0.402832,0.117936,-0.462239,-0.032406,-0.058121,0.408209,-0.203744,-0.018685,-0.072065,-0.051704,0.021221,-0.045511,0.097236,-0.120704,0.639405,0.712541,0.245059,0.169965,0.215272,-0.135494,0.155438,0.641638,-0.884028,0.36611,-0.009947
-2.870444,1.134114,0.762255,0.027813,0.024841,0.818529,0.573254,0.096791,-0.172402,0.139436,0.267472,-0.414838,0.116185,-0.468592,0.00036,-0.056655,0.222184,-0.196572,0.029916,-0.085684,-0.04095,0.016825,-0.067319,0.12777,-0.137533,0.57734,0.687542,0.225684,0.180865,0.230362,-0.133473,0.133158,0.658667,-0.888111,0.385065,-0.012746
-2.877779,1.150056,0.759595,0.020758,0.029515,0.816161,0.576696,0.112255,-0.176539,0.135547,0.257428,-0.432199,0.113642,-0.504135,0.005178,-0.128354,0.179556,-0.18949,0.172326,-0.091617,-0.034089,0.015481,-0.080898,0.153145,-0.144424,0.521236,0.664086,0.227852,0.19231,0.238923,-0.128615,0.109821,0.688217,-0.898851,0.410208,-0.014754
-2.885035,1.166372,0.757698,0.013447,0.031436,0.81417,0.57962,0.12581,-0.174084,0.134059,0.255155,-0.440426,0.108744,-0.540734,0.007462,-0.166549,0.226913,-0.159082,0.118239,-0.100121,-0.027121,0.016652,-0.08536,0.173799,-0.142857,0.475379,0.648551,0.232788,0.214653,0.239038,-0.117167,0.087958,0.72877,-0.912793,0.438147,-0.008371
-2.892438,1.183889,0.756947,0.008745,0.031623,0.815903,0.577257,0.144138,-0.170216,0.127914,0.257599,-0.438862,0.10301,-0.552759,0.004244,-0.208273,0.284825,-0.167071,0.048291,-0.110738,-0.020304,0.016738,-0.085015,0.177945,-0.137132,0.45422,0.626017,0.242437,0.238,0.243986,-0.103407,0.064997,0.769664,-0.928765,0.460607,0.009886
-2.900172,1.203259,0.759602,0.005786,0.031326,0.820676,0.570505,0.166481,-0.166567,0.114187,0.265779,-0.420517,0.096615,-0.528086,0.00097,-0.251137,0.309743,-0.181364,0.053757,-0.123059,-0.01295,0.013061,-0.085641,0.172733,-0.142835,0.467863,0.613537,0.261403,0.254924,0.260597,-0.092069,0.0454,0.798343,-0.952374,0.473186,0.033894
-2.908068,1.224276,0.760909,0.003332,0.030083,0.828541,0.55911,0.191133,-0.159435,0.087797,0.274504,-0.389151,0.090036,-0.473734,-0.002844,-0.290597,0.300497,-0.181418,0.076856,-0.133108,-0.005332,0.005636,-0.090592,0.163505,-0.165917,0.507385,0.61215,0.289561,0.250061,0.291251,-0.077599,0.026843,0.803434,-0.970625,0.470916,0.057245
-2.915595,1.246433,0.76501,-0.001685,0.024798,0.837794,0.54542,0.219207,-0.139736,0.054117,0.275632,-0.346957,0.07965,-0.413744,0.011722,-0.309026,0.248131,-0.146284,0.038102,-0.140676,0.003382,-0.00329,-0.094142,0.158658,-0.201579,0.553046,0.6154,0.316737,0.220656,0.328803,-0.057275,0.010775,0.791048,-0.978415,0.45366,0.072266
-2.923006,1.269321,0.768928,-0.006737,0.018379,0.845515,0.533592,0.241351,-0.115146,0.025015,0.291442,-0.300755,0.066161,-0.354276,0.03351,-0.334797,0.18561,-0.070094,-0.066266,-0.143944,0.014156,-0.010721,-0.087472,0.16039,-0.244187,0.59331,0.623216,0.335465,0.180838,0.361585,-0.038377,-0.000478,0.780134,-0.9764600000000001,0.426308,0.07948
-2.930463,1.292619,0.771145,-0.008343,0.010565,0.847214,0.531081,0.253644,-0.091787,0.010778,0.342319,-0.254846,0.02968,-0.325929,0.053937,-0.342381,0.201234,-0.0559,-0.163838,-0.145235,0.026502,-0.012032,-0.056344,0.165194,-0.274795,0.62203,0.627277,0.345483,0.153002,0.373901,-0.032475,0.008268,0.789354,-0.988168,0.406263,0.089928
-2.937329,1.31605,0.771443,-0.008104,-0.000123,0.848167,0.529668,0.237189,-0.064473,-0.010974,0.455371,-0.204278,-0.049354,-0.306203,0.070945,-0.352809,0.256928,-0.088269,-0.215608,-0.147137,0.037477,-0.008083,-0.009681,0.166717,-0.294521,0.648608,0.626015,0.350783,0.146604,0.363284,-0.029747,0.02197,0.815064,-1.009916,0.396845,0.116735
-2.943442,1.339072,0.768893,-0.00686,-0.013423,0.853253,0.521278,0.187632,-0.028813,-0.036904,0.626759,-0.137554,-0.17396,-0.271655,0.085119,-0.376626,0.299517,-0.137291,-0.223472,-0.153482,0.044657,-0.003064,0.034101,0.167013,-0.323111,0.691337,0.630575,0.364508,0.148511,0.346368,-0.017668,0.018442,0.834564,-1.033626,0.407206,0.155914
-2.94925,1.361719,0.768296,-0.00445,-0.027897,0.862444,0.505363,0.109137,0.006099,-0.054777,0.845319,-0.073585,-0.244499,-0.220925,0.101801,-0.411622,0.310465,-0.180388,-0.224469,-0.163735,0.048866,0.002428,0.060093,0.175912,-0.376951,0.752206,0.64841,0.381248,0.11484,0.332871,0.00821,-0.015186,0.827075,-1.043935,0.425982,0.164494
-2.955208,1.383857,0.767241,-9.4e-05,-0.040052,0.872586,0.486815,0.010615,0.053596,-0.030477,1.070979,-0.027366,-0.24765,-0.159932,0.117863,-0.447868,0.297303,-0.212712,-0.221125,-0.175359,0.050876,0.008452,0.07203,0.191654,-0.446015,0.815864,0.678739,0.396001,0.042929,0.317448,0.038994,-0.067771,0.796669,-1.026916,0.429271,0.139212
-2.96175,1.405046,0.76596,0.004542,-0.050214,0.877403,0.477097,-0.092441,0.110269,-0.042599,1.271186,-0.032895,-0.247025,-0.104566,0.136995,-0.467881,0.287305,-0.240902,-0.216705,-0.174009,0.05594,0.015793,0.084452,0.203903,-0.492642,0.860192,0.702312,0.406252,-0.02485,0.290875,0.056136,-0.102428,0.767653,-1.005231,0.411425,0.098577
-2.968762,1.424839,0.76442,0.006765,-0.059327,0.876225,0.478189,-0.193955,0.152261,-0.087482,1.425057,-0.076249,-0.229261,-0.061029,0.161506,-0.466641,0.284597,-0.265586,-0.21426,-0.158986,0.06363,0.023219,0.114418,0.208606,-0.4864,0.873099,0.704047,0.422264,-0.042325,0.252724,0.054662,-0.114095,0.751487,-0.9939770000000001,0.373973,0.049466
-2.97635,1.443299,0.76362,0.009207000000000002,-0.064957,0.872053,0.484995,-0.291292,0.188735,-0.094879,1.51815,-0.101756,-0.142442,-0.019248,0.181914,-0.449053,0.277059,-0.282262,-0.209691,-0.138501,0.07059,0.029355,0.154907,0.196374,-0.430185,0.87933,0.677077,0.436281,0.00874,0.205642,0.040125,-0.103507,0.748376,-1.011018,0.344775,0.00954
-2.984456,1.460367,0.763703,0.010168,-0.066709,0.866202,0.495116,-0.37898,0.199803,-0.094506,1.539725,-0.137833,-0.053229,0.013766,0.194025,-0.422421,0.273403,-0.293191,-0.203529,-0.114063,0.075153,0.033427,0.195624,0.173561,-0.354021,0.881609,0.645033,0.453927,0.091601,0.160149,0.02263,-0.082668,0.731385,-1.02695,0.328558,-0.01431
-2.992825,1.476461,0.7647,0.010071,-0.065152,0.859621,0.506662,-0.45135,0.179083,-0.090892,1.495429,-0.18746,0.007212,0.038138,0.197728,-0.3924,0.275675,-0.297701,-0.197617,-0.088795,0.075572,0.035359,0.235339,0.149814,-0.290848,0.883849,0.619712,0.455178,0.163843,0.117476,0.004404,-0.065826,0.704385,-1.030092,0.318221,-0.022751
-3.001047,1.492059,0.766422,0.008838,-0.060803,0.852664,0.518834,-0.505108,0.14446,-0.080107,1.387287,-0.231217,0.040857,0.053129,0.195002,-0.362293,0.286256,-0.302283,-0.192236,-0.065442,0.072042,0.035355,0.267472,0.132027,-0.257798,0.890477,0.613559,0.451822,0.190253,0.080292,-0.014435,-0.048017,0.669258,-1.017614,0.301664,-0.02437
-3.008855,1.507849,0.769855,0.005664,-0.054996,0.845677,0.530823,-0.53774,0.113899,-0.061793,1.220825,-0.267836,0.036851,0.060198,0.191237,-0.334313,0.307156,-0.311929,-0.186655,-0.045061,0.066105,0.033229,0.292004,0.120335,-0.243716,0.895692,0.618592,0.445655,0.173525,0.046762,-0.035099,-0.0268,0.628858,-0.992864,0.279197,-0.027766
-3.015973,1.524217,0.771051,0.001327,-0.048793,0.839187,0.541648,-0.546504,0.091744,-0.032775,0.996327,-0.300791,0.015606,0.069329,0.189471,-0.307805,0.318974,-0.323913,-0.181453,-0.02831,0.059265,0.02913,0.310217,0.111815,-0.238237,0.897694,0.628375,0.436858,0.135772,0.016715,-0.061201,0.004759,0.592394,-0.974735,0.262421,-0.034234
-3.022275,1.541233,0.770525,-0.004603,-0.042884,0.833014,0.551568,-0.531279,0.071814,0.00023,0.724036,-0.321287,-0.028829,0.083236,0.192338,-0.28221,0.317516,-0.338511,-0.176368,-0.015609,0.052491,0.022782,0.324194,0.104438,-0.224859,0.891357,0.631263,0.427121,0.091842,-0.012677,-0.088454,0.043505,0.561003,-0.960238,0.249406,-0.034725
-3.02768,1.558636,0.768924,-0.010741,-0.036986,0.82741,0.560276,-0.500034,0.048234,0.025353,0.432652,-0.310825,-0.108244,0.10735,0.199269,-0.254987,0.294574,-0.348623,-0.172833,-0.007907,0.046129,0.015398,0.333918,0.096682,-0.209069,0.8775,0.63482,0.424542,0.058144,-0.040776,-0.11308,0.083503,0.532783,-0.947359,0.242895,-0.034128
-3.032451,1.575912,0.766593,-0.01581,-0.032116,0.821443,0.569166,-0.476195,0.019738,0.034512,0.217453,-0.268878,-0.20298,0.132365,0.206806,-0.225336,0.273499,-0.360019,-0.169451,-0.004332,0.039894,0.009871,0.342219,0.088855,-0.19241,0.85511,0.639466,0.416326,0.049319,-0.067074,-0.134572,0.123555,0.509095,-0.9417160000000001,0.241352,-0.036164
-3.037173,1.592859,0.764021,-0.020443,-0.029017,0.817571,0.574733,-0.480569,-0.015718,-0.00819,0.195752,-0.218312,-0.242764,0.146406,0.212369,-0.202603,0.279748,-0.382027,-0.166202,-0.003439,0.033337,0.007988,0.342968,0.086729,-0.185908,0.838755,0.653184,0.412113,0.050036,-0.084416,-0.14397,0.146445,0.490413,-0.925613,0.243042,-0.043929
-3.04235,1.610138,0.762596,-0.023214,-0.027679,0.814502,0.579035,-0.490443,-0.018037,-0.03828,0.287888,-0.15736,-0.180786,0.159549,0.214606,-0.188919,0.298261,-0.402397,-0.164176,-0.001792,0.026979,0.007641,0.334333,0.085566,-0.178032,0.830408,0.667063,0.407917,0.06499,-0.087117,-0.140868,0.149337,0.480104,-0.901408,0.253607,-0.059455
-3.047943,1.628087,0.764598,-0.023033,-0.020859,0.808294,0.587959,-0.463802,-0.043771,-0.073797,0.270829,-0.097247,-0.108696,0.178931,0.202508,-0.171832,0.293104,-0.373141,-0.160365,0.004219,0.019584,0.003106,0.315097,0.074304,-0.164295,0.829223,0.680074,0.410356,0.083757,-0.08013,-0.126955,0.145044,0.489149,-0.883526,0.27529,-0.084626
-3.054263,1.647658,0.768173,-0.021796,-0.016676,0.799328,0.600268,-0.41301,-0.057074,-0.101519,0.226389,-0.015088,-0.086899,0.188818,0.188442,-0.151002,0.319503,-0.322379,-0.158148,0.011014,0.010463,-0.00405,0.303188,0.061582,-0.128711,0.823781,0.683334,0.427798,0.105057,-0.066246,-0.102542,0.146321,0.52743,-0.872219,0.309438,-0.106577
-3.06102,1.66806,0.772791,-0.018655,-0.012739,0.79173,0.610453,-0.376051,-0.056105,-0.084146,0.22081,-0.01691,-0.066157,0.189204,0.171781,-0.125816,0.369671,-0.261309,-0.153566,0.013296,0.00121,-0.009778,0.294953,0.045806,-0.087355,0.807257,0.679545,0.438306,0.129241,-0.050094,-0.085998,0.164884,0.583747,-0.874804,0.343085,-0.102816
-3.068583,1.689307,0.776526,-0.013313,-0.009021,0.78484,0.61949,-0.345341,-0.061763,-0.06409,0.239324,-0.038378,-0.032289,0.181186,0.149743,-0.1044,0.442953,-0.19369,-0.140018,0.013912,-0.008906,-0.012449,0.286697,0.032818,-0.054674,0.790622,0.67027,0.431405,0.152294,-0.032432,-0.089675,0.216013,0.650556,-0.901233,0.366807,-0.055344
-3.077315,1.710701,0.77816,-0.004169,-0.004423,0.775386,0.631459,-0.312205,-0.075182,-0.034639,0.26505,-0.062676,0.021582,0.155085,0.112884,-0.087252,0.557089,-0.124739,-0.10373,0.015686,-0.01807,-0.01208,0.277483,0.026125,-0.045828,0.78264,0.666098,0.410307,0.157686,-0.016927,-0.112224,0.29162,0.71775,-0.941894,0.356097,0.030033
-3.086834,1.731882,0.775803,0.008461,0.000847,0.761237,0.648418,-0.277597,-0.088562,0.01481,0.301067,-0.104765,0.057954,0.100482,0.059817,-0.0705,0.726156,-0.053069,-0.031966,0.020281,-0.024075,-0.008191,0.265822,0.021682,-0.052628,0.780865,0.67092,0.391888,0.151965,-0.009897,-0.148329,0.375852,0.777745,-0.987632,0.326209,0.135942
-3.096577,1.753137,0.77534,0.023671,0.005775,0.742002,0.669955,-0.230258,-0.102243,0.07626,0.318757,-0.152806,0.078042,0.025642,0.001208,-0.044936,0.928627,0.016604,0.043714,0.027998,-0.030022,-0.001862,0.252432,0.017069,-0.0617,0.777475,0.679994,0.380256,0.145524,-0.007359,-0.185755,0.448013,0.820783,-1.025373,0.299822,0.239391
-3.105653,1.774448,0.77338,0.040431,0.009096000000000002,0.719994,0.692742,-0.168231,-0.11867,0.138159,0.313741,-0.195983,0.087955,-0.067566,-0.057484,-0.009303,1.134249,0.074181,0.112966,0.036865,-0.039208,0.007381,0.236861,0.012144,-0.060406,0.770728,0.683879,0.38001,0.147148,-0.002907,-0.215236,0.490757,0.841358,-1.043983,0.287301,0.301538
-3.112745,1.794802,0.770491,0.056924,0.013354,0.699284,0.712449,-0.115211,-0.139575,0.193281,0.312192,-0.234813,0.094879,-0.163612,-0.114686,0.026209,1.297287,0.0583,0.135751,0.041045,-0.053247,0.018448,0.213549,0.008758,-0.052729,0.768034,0.683814,0.383167,0.157706,0.00848,-0.235376,0.496208,0.842212,-1.046909,0.300768,0.285379
-3.117945,1.814339,0.767951,0.068585,0.017026,0.686302,0.723875,-0.071559,-0.161682,0.226195,0.306061,-0.263787,0.101186,-0.249067,-0.158264,0.045059,1.388038,-0.026832,0.087093,0.036399,-0.06783,0.026347,0.178899,0.014249,-0.0438,0.794962,0.691174,0.366318,0.181306,0.037528,-0.241481,0.459389,0.832722,-1.030916,0.33388,0.20693
-3.121089,1.833336,0.766478,0.074696,0.017912,0.681567,0.727713,-0.034101,-0.176397,0.235785,0.30019,-0.285563,0.103209,-0.318282,-0.183231,0.040263,1.401591,-0.08447,0.039275,0.022144,-0.079291,0.029135,0.13186,0.024373,-0.046789,0.815449,0.708866,0.382685,0.181172,0.079254,-0.222966,0.38983,0.816163,-1.005374,0.388513,0.108178
-3.122577,1.851876,0.765802,0.077173,0.018567,0.682149,0.726892,-0.006068,-0.185097,0.231439,0.302831,-0.30398,0.098686,-0.372932,-0.183602,0.025266,1.34822,-0.149725,-0.025386,0.001626,-0.084909,0.028745,0.078341,0.032386,-0.05589,0.836512,0.726839,0.397638,0.164276,0.129431,-0.19235,0.302375,0.791336,-0.964189,0.425857,0.016314
-3.123227,1.870162,0.7658,0.076188,0.018574,0.685869,0.723488,0.016557,-0.187913,0.218412,0.309914,-0.323281,0.092088,-0.415887,-0.166556,0.008405,1.237795,-0.203605,-0.069052,-0.021283,-0.085092,0.02733,0.029887,0.043591,-0.076912,0.843633,0.7482,0.400176,0.134308,0.176914,-0.167252,0.219609,0.759345,-0.91816,0.446309,-0.036957
-3.12362,1.888328,0.76619,0.072231,0.017851,0.691397,0.718634,0.035259,-0.185936,0.200308,0.32042,-0.342163,0.094788,-0.443714,-0.144622,-0.017456,1.077265,-0.232291,-0.115714,-0.043423,-0.080958,0.025952,-0.011702,0.05893,-0.098873,0.827181,0.760026,0.385028,0.110248,0.215225,-0.152163,0.167408,0.734008,-0.876871,0.436839,-0.045147
-3.124196,1.906316,0.766076,0.067122,0.01769,0.69777,0.712951,0.055378,-0.184329,0.179893,0.323151,-0.359324,0.097494,-0.455336,-0.122791,-0.050981,0.872302,-0.238317,-0.133243,-0.062761,-0.074256,0.023917,-0.048429,0.07462,-0.123,0.793391,0.760917,0.354807,0.102197,0.248837,-0.154697,0.150649,0.719713,-0.861857,0.415901,-0.033373
-3.125126,1.923956,0.76496,0.060135,0.018578,0.704104,0.707302,0.077849,-0.182579,0.158689,0.31085,-0.373841,0.097907,-0.456309,-0.08985,-0.072838,0.640227,-0.218637,-0.103831,-0.077634,-0.065811,0.021036,-0.080947,0.088817,-0.145194,0.750082,0.748034,0.315915,0.111619,0.272838,-0.16467,0.156872,0.718626,-0.870616,0.400438,-0.015402
-3.126212,1.941361,0.763036,0.052566,0.020011,0.709949,0.702004,0.103085,-0.180631,0.137411,0.289623,-0.390419,0.097307,-0.454379,-0.055871,-0.083051,0.412093,-0.203149,-0.030814,-0.08671,-0.056448,0.017295,-0.109115,0.103992,-0.172712,0.706776,0.73815,0.28386,0.136008,0.289606,-0.172789,0.172973,0.729451,-0.892957,0.393009,0.003956
-3.127328,1.958486,0.760703,0.044989,0.022664,0.714182,0.698145,0.127494,-0.179595,0.119452,0.265324,-0.405747,0.097223,-0.458862,-0.033925,-0.109929,0.227659,-0.199894,0.040639,-0.08999,-0.047933,0.014149,-0.132151,0.114102,-0.193456,0.664099,0.720838,0.263567,0.157559,0.298048,-0.175852,0.187412,0.748568,-0.919409,0.395303,0.028367
-3.12803,1.975504,0.757655,0.03994,0.027468,0.715094,0.697345,0.144148,-0.182747,0.108873,0.257499,-0.425834,0.098149,-0.489116,-0.040036,-0.190824,0.183434,-0.208841,0.131755,-0.087946,-0.042592,0.013673,-0.147587,0.120487,-0.206598,0.621333,0.703206,0.247416,0.180827,0.296327,-0.173743,0.191446,0.770587,-0.939863,0.400858,0.054239
-3.128227,1.992698,0.755131,0.035305,0.030198,0.714236,0.698361,0.159748,-0.181635,0.102253,0.257343,-0.441273,0.096953,-0.514234,-0.057031,-0.272681,0.231542,-0.186304,0.064293,-0.087475,-0.038546,0.014886,-0.147865,0.122115,-0.207295,0.58419,0.680366,0.242569,0.199503,0.285205,-0.164831,0.192095,0.798888,-0.959809,0.410401,0.08411
-3.127849,2.010981,0.753968,0.03235,0.030574,0.71685,0.695805,0.18058,-0.175835,0.096966,0.259638,-0.443059,0.091733,-0.506284,-0.071866,-0.342373,0.275185,-0.18886,-0.001508,-0.091292,-0.034362,0.014348,-0.136888,0.115695,-0.207724,0.558248,0.655452,0.245948,0.210417,0.276516,-0.150233,0.181814,0.819491,-0.975804,0.421313,0.106134
-3.12682,2.031141,0.756055,0.030072,0.02965,0.723865,0.688648,0.20643,-0.167216,0.080925,0.265483,-0.427599,0.086297,-0.466358,-0.072905,-0.37176,0.287659,-0.194674,0.018545,-0.098435,-0.029043,0.009468,-0.120586,0.106591,-0.222345,0.552374,0.639288,0.246731,0.223182,0.276553,-0.130672,0.158839,0.821431,-0.982731,0.426512,0.120694
-3.124882,2.052516,0.760187,0.026059,0.025759,0.733919,0.678248,0.233891,-0.148175,0.053861,0.268053,-0.397445,0.077426,-0.417326,-0.049603,-0.354161,0.256105,-0.165428,0.032285,-0.106324,-0.022096,0.001251,-0.104673,0.102794,-0.255872,0.570061,0.636018,0.257801,0.218819,0.287077,-0.106338,0.129038,0.804256,-0.981545,0.423295,0.118489
-3.122566,2.074348,0.764275,0.019757,0.021091,0.741666,0.670146,0.257819,-0.12368,0.026466,0.271705,-0.356233,0.062509,-0.361356,-0.018397,-0.360318,0.188787,-0.082492,-0.050813,-0.10898,-0.014197,-0.007853,-0.085915,0.106353,-0.298849,0.597797,0.641152,0.273803,0.198031,0.29641,-0.080557,0.102072,0.782087,-0.973261,0.409494,0.104699
-3.119935,2.096742,0.76656,0.015581,0.014716,0.743761,0.668101,0.26889,-0.098391,0.012543,0.315095,-0.322648,0.036763,-0.330575,0.001348,-0.381603,0.187945,-0.036312,-0.123969,-0.108653,-0.004901,-0.012237,-0.053585,0.112984,-0.334218,0.626879,0.643445,0.28926,0.176604,0.292975,-0.063683,0.090772,0.772738,-0.967992,0.393781,0.093183
-3.116808,2.119506,0.765991,0.014536,0.005344,0.742898,0.669226,0.26592,-0.071555,0.007133,0.403265,-0.286349,-0.006611,-0.313205,0.022273,-0.382558,0.240282,-0.049262,-0.216722,-0.111102,0.00534,-0.010226,-0.005807,0.120436,-0.359048,0.659324,0.640535,0.303886,0.158529,0.272714,-0.057474,0.101329,0.78335,-0.9797880000000002,0.379806,0.094448
-3.112851,2.141515,0.766001,0.015155,-0.006609,0.744542,0.667371,0.232819,-0.037981,-0.005599,0.548307,-0.225228,-0.098429,-0.290623,0.039215,-0.392695,0.297358,-0.092214,-0.237486,-0.116498,0.013854,-0.005504,0.040962,0.128636,-0.388311,0.70868,0.644171,0.326352,0.13908,0.244919,-0.051604,0.114352,0.798502,-1.004082,0.38205,0.108602
-3.108575,2.162496,0.76458,0.013576,-0.020736,0.751895,0.658817,0.160934,0.002037,-0.035221,0.748369,-0.140663,-0.22287,-0.259214,0.057262,-0.41864,0.335723,-0.141741,-0.238939,-0.124782,0.019843,0.001087,0.070039,0.14532,-0.431829,0.773416,0.660966,0.355535,0.100707,0.220871,-0.036408,0.115653,0.796181,-1.026257,0.386344,0.113467
-3.104408,2.183471,0.764915,0.012473,-0.033821,0.762808,0.64562,0.063894,0.02871,-0.056888,0.972804,-0.040754,-0.246754,-0.21075,0.077618,-0.45119,0.336391,-0.179966,-0.239429,-0.136606,0.024736,0.007517,0.089018,0.165438,-0.484262,0.836265,0.690071,0.382178,0.034089,0.201678,-0.016825,0.09191,0.777808,-1.025635,0.379363,0.090367
-3.100838,2.203618,0.764358,0.011038,-0.043942,0.771867,0.634168,-0.053791,0.066831,-0.050074,1.182664,0.036572,-0.247764,-0.16089,0.101098,-0.478648,0.316974,-0.207495,-0.237873,-0.147198,0.030297,0.014055,0.100237,0.180366,-0.523524,0.897029,0.715986,0.406465,-0.029199,0.184259,0.003362,0.058941,0.751206,-1.000882,0.356903,0.04173
-3.098112,2.222652,0.76361,0.00951,-0.051502,0.773276,0.631902,-0.166557,0.102095,-0.070137,1.338291,0.031524,-0.247659,-0.118707,0.128842,-0.485601,0.298074,-0.228574,-0.237217,-0.147645,0.039001,0.020406,0.121225,0.188135,-0.505166,0.93009,0.714776,0.437129,-0.043864,0.156858,0.010851,0.039605,0.726763,-0.978174,0.329531,-0.005959
-3.096256,2.240288,0.762985,0.007156,-0.055937,0.766558,0.639695,-0.267746,0.111726,-0.125996,1.427892,-0.029768,-0.244272,-0.089579,0.156533,-0.470409,0.289116,-0.243917,-0.237746,-0.136005,0.048284,0.026155,0.155828,0.185503,-0.434785,0.934399,0.686902,0.46,0.002289,0.118509,0.010511,0.032277,0.710443,-0.961896,0.313943,-0.034057
-3.095129,2.256964,0.763083,0.005881,-0.057065,0.755965,0.652093,-0.358321,0.126376,-0.142733,1.44952,-0.071324,-0.174925,-0.065424,0.177824,-0.440286,0.284639,-0.252611,-0.237347,-0.118427,0.05451,0.030826,0.198764,0.174371,-0.349098,0.925401,0.650815,0.470547,0.07833,0.082165,0.002952,0.039064,0.690711,-0.96012,0.301867,-0.050785
-3.094456,2.272867,0.763564,0.00428,-0.056194,0.742477,0.667496,-0.434658,0.133284,-0.140363,1.408627,-0.123774,-0.072163,-0.049317,0.194188,-0.399455,0.291401,-0.258597,-0.23641,-0.097178,0.057429,0.034371,0.241312,0.162937,-0.285076,0.911871,0.624278,0.466294,0.133551,0.05507,-0.005805,0.053574,0.662427,-0.95721,0.294184,-0.055919
-3.093768,2.288274,0.764079,0.002617,-0.053243,0.726749,0.684832,-0.492109,0.112699,-0.141504,1.313068,-0.185957,0.016051,-0.038926,0.206572,-0.351639,0.305401,-0.265653,-0.235408,-0.074688,0.057706,0.036547,0.277479,0.157846,-0.256732,0.900781,0.62083,0.455163,0.158115,0.03756,-0.02425,0.089247,0.621697,-0.956883,0.274553,-0.054936
-3.092515,2.303476,0.763944,-1.0000000000000002e-06,-0.049495,0.709898,0.702563,-0.531441,0.073933,-0.152463,1.174611,-0.23681,0.082992,-0.031015,0.219641,-0.302443,0.32169,-0.278975,-0.235775,-0.053764,0.056032,0.037312,0.305461,0.157452,-0.249804,0.892586,0.629904,0.440398,0.15587,0.029405,-0.05002,0.137934,0.569761,-0.949675,0.240075,-0.052336
-3.090438,2.318665,0.76285,-0.003172,-0.045269,0.692042,0.720429,-0.552871,0.031727,-0.164454,1.000113,-0.253435,0.10461,-0.024204,0.233126,-0.253963,0.341142,-0.301568,-0.236744,-0.036088,0.053146,0.037047,0.326697,0.156464,-0.247543,0.887059,0.639166,0.429109,0.136967,0.027186,-0.081373,0.190893,0.514698,-0.93824,0.207376,-0.050319
-3.087057,2.333674,0.76101,-0.007047,-0.04086,0.674362,0.737235,-0.55706,-0.001029,-0.167923,0.792726,-0.264493,0.049691,-0.012372,0.249883,-0.206412,0.349555,-0.325089,-0.23912,-0.023438,0.049819,0.035532,0.341669,0.15513,-0.242966,0.878948,0.646984,0.421998,0.112431,0.029386,-0.108107,0.234899,0.460045,-0.911222,0.181076,-0.049355
-3.082296,2.34827,0.758894,-0.010887,-0.035635,0.658438,0.751712,-0.551186,-0.024001,-0.15049,0.570964,-0.253421,-0.03443,0.003923,0.266821,-0.161363,0.346773,-0.344962,-0.242513,-0.017278,0.046499,0.033259,0.350922,0.148367,-0.229128,0.866116,0.648334,0.417373,0.093721,0.032113,-0.130218,0.268346,0.415579,-0.882727,0.171565,-0.04266
-3.076726,2.362432,0.756836,-0.014827,-0.031124,0.644166,0.764108,-0.537339,-0.04279,-0.112537,0.362725,-0.230819,-0.14099,0.022359,0.282745,-0.121028,0.340953,-0.358184,-0.245031,-0.016795,0.042939,0.030944,0.355541,0.140417,-0.209131,0.852609,0.650681,0.419691,0.086798,0.03872,-0.138659,0.284751,0.384807,-0.851389,0.174615,-0.043449
-3.070776,2.376004,0.755277,-0.017352,-0.026606,0.631478,0.774743,-0.523509,-0.077579,-0.108648,0.21677,-0.208562,-0.242743,0.039379,0.293565,-0.085885,0.339699,-0.366698,-0.247286,-0.018875,0.03777,0.029579,0.354195,0.127001,-0.177685,0.835193,0.645794,0.420348,0.096976,0.050875,-0.137451,0.286298,0.374132,-0.835556,0.195704,-0.053324
