hanqing-shi/Humanoids-Motion-Generation/dataset/data_joint/walk/walk2_subject1_seg1.csv
root_x,root_y,root_z,root_qx,root_qy,root_qz,root_qw,left_hip_pitch_joint,left_hip_roll_joint,left_hip_yaw_joint,left_knee_joint,left_ankle_pitch_joint,left_ankle_roll_joint,right_hip_pitch_joint,right_hip_roll_joint,right_hip_yaw_joint,right_knee_joint,right_ankle_pitch_joint,right_ankle_roll_joint,waist_yaw_joint,waist_roll_joint,waist_pitch_joint,left_shoulder_pitch_joint,left_shoulder_roll_joint,left_shoulder_yaw_joint,left_elbow_joint,left_wrist_roll_joint,left_wrist_pitch_joint,left_wrist_yaw_joint,right_shoulder_pitch_joint,right_shoulder_roll_joint,right_shoulder_yaw_joint,right_elbow_joint,right_wrist_roll_joint,right_wrist_pitch_joint,right_wrist_yaw_joint
-0.027541,0.004127,0.792259,0.009021,-0.030213,0.067756,0.997204,-0.485534,0.1652,0.131113,0.959582,0.020154,-0.174103,0.025359,-0.163233,-0.430305,0.353549,-0.26316,0.045973,0.037535,0.025634,0.136715,0.233503,0.272426,0.173103,0.588049,1.221382,0.121211,-0.195148,0.150979,-0.385299,0.08486,0.657894,-1.066622,0.144824,-0.023713
-0.025651,0.00725,0.792587,0.010528,-0.029362,0.072167,0.996905,-0.470026,0.217467,0.178802,0.890942,0.022889,-0.14143,0.032052,-0.172349,-0.438119,0.348932,-0.262655,0.053082,0.041781,0.025348,0.136185,0.248607,0.186112,0.185274,0.662512,1.228122,0.150943,-0.206639,0.12163,-0.30842,0.140355,0.656006,-1.092501,0.104461,-0.040094
-0.023113,0.010872,0.792644,0.01058,-0.027464,0.076859,0.996607,-0.443507,0.266319,0.235075,0.795175,0.02873,-0.099745,0.038617,-0.179261,-0.446907,0.343647,-0.262826,0.061369,0.047276,0.024977,0.134586,0.267625,0.115554,0.20257,0.722186,1.236458,0.168853,-0.240185,0.097408,-0.248843,0.197473,0.632741,-1.127158,0.065438,-0.06019
-0.01998,0.014941,0.792342,0.009335,-0.024871,0.083221,0.996177,-0.409785,0.30861,0.302886,0.683686,0.029083,-0.073917,0.046547,-0.184176,-0.459285,0.336662,-0.263028,0.070663,0.053233,0.025074,0.131724,0.29187,0.059324,0.223128,0.762791,1.245731,0.186425,-0.275771,0.08233,-0.193311,0.240633,0.588339,-1.1431,0.026959,-0.089292
-0.016294,0.019437,0.791647,0.007085,-0.021765,0.092609,0.995439,-0.376859,0.338772,0.37448,0.573172,0.027848,-0.058593,0.057978,-0.187343,-0.478074,0.325801,-0.262532,0.081071,0.058817,0.025342,0.127784,0.320455,0.017097,0.241207,0.787765,1.256052,0.190063,-0.311789,0.078355,-0.1422,0.266161,0.532675,-1.129058,-0.013813,-0.101755
-0.012161,0.024549,0.79041,0.004137,-0.018263,0.104796,0.994317,-0.352591,0.355393,0.439098,0.480607,0.03017,-0.053675,0.071762,-0.190296,-0.502811,0.31353,-0.262224,0.093188,0.063977,0.024786,0.123875,0.349226,-0.01411,0.261608,0.79993,1.264645,0.189154,-0.334553,0.078132,-0.101998,0.287174,0.473385,-1.104217,-0.055467,-0.100735
-0.007661,0.030344,0.788242,0.00149,-0.014376,0.119553,0.992723,-0.337874,0.361305,0.49282,0.413202,0.033013,-0.052476,0.087198,-0.195033,-0.532592,0.301208,-0.262159,0.106848,0.069022,0.02327,0.120256,0.371953,-0.038104,0.281123,0.80334,1.272432,0.191011,-0.344062,0.079613,-0.077032,0.312527,0.412665,-1.073072,-0.100716,-0.091605
-0.002732,0.037085,0.783475,-0.001058,-0.010569,0.135637,0.990702,-0.329031,0.359426,0.536999,0.376299,0.027403,-0.045074,0.103539,-0.202419,-0.564941,0.293061,-0.264435,0.122772,0.073823,0.021062,0.117349,0.391863,-0.051237,0.295987,0.801207,1.282243,0.190171,-0.347771,0.082016,-0.061717,0.333947,0.356267,-1.039363,-0.140042,-0.08112
0.002499,0.044731,0.781265,-0.003405,-0.007246,0.153395,0.988133,-0.328107,0.354411,0.568694,0.366372,0.016307,-0.036772,0.121925,-0.211702,-0.600454,0.288095,-0.266807,0.141161,0.079814,0.018407,0.115024,0.405764,-0.054739,0.30445,0.792203,1.297221,0.183664,-0.349751,0.08252,-0.057917,0.354486,0.309929,-1.007131,-0.168236,-0.066898
0.008427,0.053691,0.77832,-0.005499,-0.004291,0.171195,0.985212,-0.324688,0.345847,0.594252,0.37166,0.006104,-0.006511,0.143715,-0.221485,-0.63679,0.282169,-0.267959,0.160853,0.086378,0.015278,0.112614,0.413175,-0.054117,0.316269,0.777796,1.308332,0.179134,-0.347284,0.080795,-0.064087,0.374813,0.272069,-0.97591,-0.19263,-0.054142
0.0149,0.063427,0.777641,-0.005724,-0.0021,0.187474,0.982251,-0.327294,0.33162,0.601076,0.381598,0.007628,0.023651,0.169002,-0.233956,-0.671251,0.274809,-0.265905,0.182024,0.094005,0.010786,0.110499,0.412955,-0.05593,0.335066,0.760094,1.308342,0.178952,-0.337086,0.074289,-0.082991,0.395153,0.245054,-0.961712,-0.199496,-0.043058
0.021679,0.074435,0.777486,-0.004764,-0.001336,0.203329,0.979098,-0.335023,0.309768,0.583077,0.398444,0.030855,0.048961,0.197565,-0.250827,-0.704416,0.274063,-0.265008,0.20567,0.102146,0.004085,0.109619,0.405958,-0.054683,0.351351,0.74419,1.30888,0.180887,-0.31677,0.067523,-0.107087,0.414363,0.230199,-0.949937,-0.194242,-0.024278
0.028895,0.086473,0.776705,-0.001973,-0.001531,0.219585,0.97559,-0.345246,0.285155,0.557309,0.43372,0.023983,0.069468,0.228362,-0.272953,-0.736751,0.280002,-0.259481,0.228264,0.109265,-0.004813,0.109952,0.391074,-0.056385,0.371082,0.730171,1.298804,0.183803,-0.284054,0.061155,-0.133578,0.427926,0.2292,-0.942139,-0.176517,-0.000148
0.03636,0.099372,0.775187,0.002072,-0.002453,0.235176,0.971947,-0.350945,0.259352,0.533539,0.478029,-0.013958,0.073318,0.25688,-0.299808,-0.761808,0.296627,-0.250086,0.24071,0.114893,-0.015352,0.111065,0.370247,-0.057916,0.385873,0.719484,1.288107,0.193759,-0.249964,0.057074,-0.154676,0.434189,0.250413,-0.929485,-0.134931,0.03933
0.043656,0.112886,0.774426,0.006564,-0.003653,0.249572,0.968327,-0.345622,0.228732,0.514999,0.507718,-0.051598,0.079361,0.278092,-0.332555,-0.777354,0.329916,-0.226767,0.242703,0.119406,-0.026485,0.112024,0.342499,-0.05903,0.392549,0.71218,1.281574,0.206962,-0.21107,0.048301,-0.17031,0.43614,0.294961,-0.923719,-0.069392,0.085483
0.051203,0.126744,0.776936,0.01199,-0.004823,0.263074,0.964689,-0.326386,0.190797,0.500607,0.513236,-0.079401,0.086643,0.29573,-0.371183,-0.789558,0.376135,-0.184904,0.226269,0.123748,-0.037582,0.112414,0.307877,-0.061495,0.390539,0.711549,1.279919,0.218755,-0.163769,0.037728,-0.175525,0.428037,0.365545,-0.916751,0.001518,0.119153
0.058273,0.140206,0.778472,0.018013,-0.006441,0.277683,0.960482,-0.300887,0.149204,0.48647,0.504005,-0.098517,0.094384,0.299184,-0.415626,-0.796364,0.444172,-0.136042,0.155581,0.126449,-0.049202,0.112667,0.267028,-0.066176,0.38108,0.717745,1.285834,0.239016,-0.119633,0.025946,-0.172222,0.404704,0.467807,-0.916114,0.088316,0.14044
0.065093,0.153153,0.779907,0.024106,-0.006732,0.29364,0.9555880000000002,-0.272559,0.104231,0.469871,0.479918,-0.10782,0.101255,0.292315,-0.463461,-0.805514,0.523137,-0.084899,0.035151,0.127621,-0.062225,0.112336,0.219716,-0.070979,0.360837,0.726259,1.299644,0.258594,-0.09089,0.016008,-0.158506,0.358177,0.588036,-0.917287,0.190153,0.143023
0.072304,0.166105,0.781982,0.031177,-0.006176,0.309762,0.950283,-0.24035,0.05648,0.45063,0.447514,-0.111645,0.107168,0.275972,-0.514558,-0.809126,0.610057,-0.031652,-0.092952,0.126659,-0.076005,0.112107,0.169543,-0.078596,0.336498,0.730078,1.306331,0.258443,-0.078033,0.013918,-0.13909,0.284482,0.705379,-0.911443,0.290256,0.124976
0.0796,0.178654,0.782352,0.039388,-0.006262,0.330325,0.943024,-0.20916,0.006589,0.421271,0.420129,-0.11611,0.113181,0.219689,-0.544253,-0.73432,0.720199,-0.020228,-0.136286,0.117744,-0.09037700000000001,0.115177,0.117683,-0.079753,0.316351,0.743182,1.316234,0.227869,-0.057583,0.028551,-0.12398,0.19954,0.796233,-0.900023,0.382963,0.089847
0.087015,0.190864,0.782071,0.045754,-0.008506,0.355513,0.933512,-0.178695,-0.03796,0.379608,0.401087,-0.1226,0.118598,0.117042,-0.523394,-0.574588,0.843742,-0.061847,-0.132136,0.100262,-0.102413,0.12137,0.070608,-0.077816,0.282649,0.739065,1.316352,0.194354,-0.044986,0.043325,-0.109215,0.126364,0.850053,-0.887416,0.436633,0.067051
0.094542,0.202776,0.781964,0.0493,-0.010676,0.379064,0.923994,-0.15109,-0.072499,0.33571,0.388115,-0.132042,0.12275,0.014726,-0.471703,-0.424609,0.941047,-0.085756,-0.107576,0.083507,-0.110478,0.126826,0.025378,-0.072267,0.241516,0.726777,1.307987,0.155062,-0.03356,0.069821,-0.111656,0.097365,0.870363,-0.89135,0.428312,0.076797
0.102149,0.214457,0.782268,0.050819,-0.01231,0.400023,0.915012,-0.125137,-0.099066,0.293132,0.376957,-0.142274,0.125746,-0.068345,-0.414548,-0.316883,0.999752,-0.090736,-0.082362,0.069844,-0.115439,0.13037,-0.014884,-0.060235,0.182301,0.710706,1.313337,0.121086,-0.023693,0.10686,-0.124442,0.086091,0.859537,-0.896772,0.375919,0.09453
0.109853,0.225976,0.782915,0.051422,-0.013316,0.418539,0.906644,-0.098987,-0.120347,0.25289,0.364778,-0.152289,0.127628,-0.13595,-0.368993,-0.249489,1.023806,-0.09776000000000001,-0.073727,0.057804,-0.1188,0.132675,-0.047354,-0.049951,0.117613,0.686401,1.316493,0.088709,-0.017779,0.151648,-0.136132,0.061788,0.826144,-0.890386,0.323005,0.10516
0.117623,0.23743,0.7838,0.051827,-0.014002,0.435742,0.898469,-0.071372,-0.13843,0.213852,0.35056,-0.161559,0.128854,-0.19494,-0.334075,-0.208263,1.02019,-0.107789,-0.082859,0.045711,-0.121118,0.13413,-0.070347,-0.040952,0.054342,0.653194,1.314328,0.062799,-0.009801,0.200288,-0.13634,0.017625,0.780898,-0.869961,0.289618,0.099989
0.125411,0.248967,0.784869,0.051876,-0.014184,0.451904,0.890444,-0.043076,-0.15372,0.175501,0.334861,-0.170423,0.12995,-0.246849,-0.300363,-0.179187,0.988715,-0.115449,-0.094933,0.032939,-0.122568,0.134658,-0.084281,-0.031346,-0.007418,0.615668,1.310241,0.044606,-0.004506,0.244853,-0.123759,-0.03428,0.735471,-0.843048,0.276495,0.077814
0.133154,0.260763,0.786047,0.050653,-0.013531,0.46823,0.88205,-0.015689,-0.166063,0.135394,0.317927,-0.178785,0.131713,-0.293638,-0.262657,-0.157065,0.929992,-0.113494,-0.100202,0.020537,-0.122625,0.134475,-0.090765,-0.021562,-0.063986,0.576106,1.300785,0.027926,-0.01121,0.283016,-0.105236,-0.076732,0.699825,-0.819977,0.272926,0.058031
0.140769,0.272855,0.786958,0.047911,-0.012208,0.484776,0.87324,0.009007,-0.174682,0.093966,0.302213,-0.187372,0.133943,-0.332881,-0.215297,-0.133176,0.841481,-0.105296,-0.099599,0.008777,-0.120036,0.13333,-0.091448,-0.013261,-0.112988,0.537274,1.283169,0.014214,-0.021955,0.31352,-0.084291,-0.109823,0.675262,-0.801206,0.272563,0.048503
0.148186,0.285318,0.78709,0.043915,-0.010355,0.501383,0.864048,0.029821,-0.179552,0.053142,0.289966,-0.197496,0.135396,-0.363818,-0.161189,-0.102607,0.727812,-0.090025,-0.091109,-0.001355,-0.114157,0.131067,-0.087865,-0.002103,-0.162091,0.503953,1.275582,0.011046,-0.035755,0.337809,-0.06635,-0.128138,0.661364,-0.793173,0.278226,0.057837
0.155376,0.298404,0.786514,0.037668,-0.007453,0.517197,0.855005,0.047912,-0.180454,0.013201,0.276098,-0.207327,0.136626,-0.382504,-0.103246,-0.06205,0.58553,-0.066032,-0.064473,-0.008329,-0.104829,0.126561,-0.082473,0.012314,-0.21228,0.47558,1.281581,0.012761,-0.05308,0.355613,-0.054136,-0.128833,0.655168,-0.800497,0.282256,0.081847
0.162613,0.31229,0.785328,0.030998,-0.003756,0.532007,0.846164,0.065591,-0.180001,-0.025413,0.262507,-0.218959,0.138129,-0.389843,-0.051298,-0.012447,0.428175,-0.044086,-0.032192,-0.011377,-0.092601,0.119987,-0.073944,0.028289,-0.261782,0.452102,1.298854,0.016856,-0.073684,0.370409,-0.046551,-0.121397,0.652527,-0.817689,0.280845,0.108378
0.169984,0.327089,0.783912,0.023959,-0.000274,0.544133,0.838657,0.087779,-0.176501,-0.059183,0.24332,-0.229255,0.139682,-0.388398,-0.009234,0.038581,0.272873,-0.02296,0.009652,-0.009988,-0.078591,0.112342,-0.057938,0.047295,-0.305546,0.430011,1.327337,0.017019,-0.092538,0.381619,-0.042224,-0.109933,0.654699,-0.839648,0.275797,0.129862
0.177695,0.342709,0.781739,0.019271,0.002038,0.553633,0.832535,0.111501,-0.17346,-0.085884,0.233554,-0.2466,0.141432,-0.391978,0.018112,0.078971,0.169813,-0.016974,0.026177,-0.006476,-0.064443,0.10711,-0.030343,0.061863,-0.330044,0.409011,1.349292,0.01703,-0.097267,0.390015,-0.040067,-0.102124,0.658967,-0.859249,0.269349,0.147246
0.185789,0.35901,0.778688,0.016408,0.002299,0.560231,0.828171,0.136394,-0.169549,-0.105171,0.235397,-0.271229,0.142607,-0.406624,0.029528,0.084787,0.145333,-0.016287,0.037757,-0.001106,-0.051781,0.10518,0.009616,0.069767,-0.330197,0.393132,1.348721,0.027566,-0.09187,0.394965,-0.037962,-0.098188,0.66516,-0.875321,0.26394,0.163173
0.194237,0.375935,0.77454,0.015237,0.000822,0.565745,0.824439,0.161412,-0.16577,-0.120032,0.248996,-0.300715,0.143467,-0.423131,0.028527,0.061159,0.18171,-0.006692,0.017013,0.004027,-0.040843,0.1059,0.055574,0.0714,-0.309568,0.388038,1.323798,0.053857,-0.070914,0.39696,-0.033546,-0.102106,0.668904,-0.883703,0.260215,0.170631
0.20307,0.393527,0.768439,0.0158,-0.002047,0.57235,0.819855,0.18299,-0.163354,-0.134412,0.281525,-0.336014,0.144397,-0.443522,0.016707,0.024228,0.275062,-0.00387,-0.014582,0.006509,-0.031213,0.108725,0.098855,0.071783,-0.27721,0.400055,1.284518,0.08688,-0.038238,0.39916,-0.029601,-0.108828,0.669569,-0.892524,0.256366,0.167388
0.211852,0.411291,0.765325,0.016799,-0.005285,0.5819,0.81307,0.199632,-0.159649,-0.148419,0.32414,-0.353461,0.145187,-0.457161,-0.009198,-0.031815,0.370538,0.001405,-0.029301,0.006687,-0.022233,0.111449,0.129433,0.073494,-0.239809,0.438665,1.246718,0.129746,-0.006012,0.403824,-0.021222,-0.122744,0.665867,-0.895169,0.255871,0.158886
0.220676,0.429703,0.763701,0.017355,-0.010515,0.594694,0.803696,0.213339,-0.151612,-0.164103,0.377755,-0.346246,0.14105,-0.448574,-0.031097,-0.075055,0.439425,0.014534,-0.030515,0.004486,-0.012351,0.113733,0.145152,0.076245,-0.196065,0.508338,1.216001,0.181173,0.00816,0.410948,-0.00786,-0.142418,0.661146,-0.889269,0.253708,0.145224
0.229414,0.4486,0.767856,0.018329,-0.016819,0.606253,0.794883,0.221003,-0.142988,-0.168886,0.451755,-0.297486,0.146646,-0.427847,-0.044281,-0.105091,0.492891,-0.015768,-0.036787,0.001012,-0.0008,0.115936,0.152788,0.070885,-0.132259,0.60071,1.177804,0.244951,0.004161,0.414347,0.003742,-0.164292,0.663393,-0.881695,0.258162,0.13254
0.237643,0.467158,0.7702,0.018335,-0.023341,0.615144,0.787856,0.202993,-0.131429,-0.157181,0.556874,-0.220005,0.140751,-0.400748,-0.050861,-0.13123,0.532597,-0.064882,-0.03761,-0.00271,0.011216,0.117779,0.156329,0.061445,-0.047821,0.702966,1.138805,0.331718,-0.012814,0.404988,0.013467,-0.183776,0.679822,-0.876782,0.271823,0.121442
0.245228,0.485113,0.771341,0.016569,-0.030285,0.623275,0.78124,0.157102,-0.115306,-0.135721,0.697221,-0.130665,0.10877,-0.364201,-0.051169,-0.157897,0.546386,-0.102672,-0.035638,-0.00673,0.022037,0.119286,0.156927,0.058819,0.028866,0.793035,1.116848,0.435709,-0.043635,0.380696,0.021745,-0.197203,0.708658,-0.877596,0.2862,0.109964
0.252659,0.502869,0.773118,0.015829,-0.034779,0.632288,0.77379,0.091589,-0.092895,-0.100182,0.853885,-0.052332,0.018886,-0.318672,-0.052592,-0.183626,0.536714,-0.130359,-0.035031,-0.011748,0.030565,0.12025,0.165917,0.070795,0.065537,0.853316,1.1283,0.480059,-0.10103,0.343788,0.021243,-0.196279,0.743978,-0.894093,0.297072,0.105712
0.259718,0.520392,0.775141,0.015877,-0.038291,0.641879,0.765684,0.017825,-0.050746,-0.046692,0.9979730000000001,0.020352,-0.056465,-0.269959,-0.054216,-0.209223,0.51794,-0.15199,-0.033472,-0.016219,0.03791,0.12138,0.184746,0.103006,0.013172,0.875193,1.192048,0.467805,-0.175576,0.302236,0.01072,-0.179489,0.772731,-0.923866,0.291788,0.106096
0.266261,0.537667,0.777181,0.015931,-0.041073,0.650097,0.758573,-0.055281,0.009563,0.009979,1.108225,0.017097,-0.057608,-0.224766,-0.054214,-0.231927,0.501111,-0.171715,-0.03131,-0.016199,0.045218,0.123007,0.219072,0.149772,-0.053646,0.850482,1.254,0.375387,-0.219081,0.262941,-0.004771,-0.158382,0.795653,-0.958288,0.268195,0.103589
0.27231,0.554697,0.778887,0.017034,-0.043416,0.656462,0.752916,-0.124216,0.063252,0.055072,1.187087,-0.016413,-0.024373,-0.182335,-0.053711,-0.249748,0.488928,-0.192667,-0.028684,-0.01085,0.052738,0.126011,0.245309,0.182202,-0.092245,0.815066,1.286953,0.270912,-0.220569,0.224796,-0.015656,-0.135459,0.797916,-0.97794,0.24599,0.098112
0.277841,0.571354,0.779895,0.01767,-0.04653,0.661807,0.748021,-0.188321,0.108716,0.085758,1.232251,-0.025423,-0.009827,-0.141895,-0.050244,-0.265528,0.480168,-0.215519,-0.025774,-0.002466,0.05918,0.130548,0.268868,0.201923,-0.078457,0.778944,1.27171,0.199128,-0.209939,0.190726,-0.02412,-0.116309,0.789735,-0.979441,0.223518,0.086858
0.282862,0.587611,0.780251,0.017739,-0.050382,0.666637,0.743466,-0.250111,0.141685,0.101491,1.242981,-0.027951,-0.004167,-0.102951,-0.043835,-0.279741,0.473268,-0.239692,-0.02266,0.006778,0.064115,0.136084,0.286526,0.199861,-0.029967,0.751224,1.225445,0.172177,-0.204133,0.159788,-0.031388,-0.100017,0.78076,-0.970087,0.203299,0.076579
0.287282,0.603547,0.780374,0.018073,-0.053716,0.670766,0.739501,-0.305497,0.165498,0.114775,1.215356,-0.038917,0.006311,-0.065787,-0.037704,-0.291546,0.466578,-0.2633,-0.01938,0.015895,0.067353,0.141652,0.300026,0.180431,0.028787,0.723892,1.172354,0.183487,-0.199805,0.125559,-0.038758,-0.084367,0.773065,-0.961902,0.19656,0.06909
0.291005,0.619312,0.780656,0.018272,-0.055848,0.673889,0.736492,-0.350226,0.18497,0.134316,1.146594,-0.053792,0.010775,-0.030189,-0.032485,-0.300855,0.45676,-0.28403,-0.015909,0.024818,0.068428,0.145839,0.308384,0.153664,0.076948,0.694932,1.135482,0.203572,-0.186113,0.08881,-0.04483,-0.070707,0.766365,-0.956946,0.198863,0.064071
0.294081,0.634988,0.781382,0.018355,-0.055768,0.675994,0.734565,-0.379714,0.204913,0.168481,1.033632,-0.070685,0.013392,0.004501,-0.028925,-0.307109,0.439013,-0.299007,-0.011993,0.033562,0.066897,0.14765,0.312661,0.121711,0.117811,0.670669,1.114755,0.221433,-0.16062,0.051546,-0.04897,-0.06062,0.761556,-0.9528970000000001,0.206745,0.058838
0.29654,0.650608,0.782339,0.018117,-0.053096,0.677378,0.733493,-0.389952,0.222709,0.223005,0.875678,-0.06874,0.021745,0.037764,-0.027128,-0.309842,0.412453,-0.308531,-0.007353,0.042233,0.063309,0.14681,0.312015,0.085603,0.154039,0.654435,1.105015,0.237113,-0.135052,0.016116,-0.05265,-0.051082,0.758793,-0.950564,0.217855,0.051141
0.298474,0.666297,0.782938,0.016723,-0.048491,0.678988,0.732355,-0.378495,0.234609,0.302946,0.672983,-0.027428,0.021043,0.069208,-0.026074,-0.312066,0.37954,-0.314474,-0.001211,0.050223,0.058095,0.143213,0.305398,0.05044,0.183964,0.644787,1.103999,0.250816,-0.116499,-0.015949,-0.057657,-0.035386,0.755734,-0.951714,0.224094,0.049594
0.300086,0.682206,0.782569,0.013742,-0.042753,0.680855,0.73104,-0.359287,0.223083,0.376209,0.445684,0.054513,0.00373,0.099026,-0.024508,-0.316246,0.342605,-0.317823,0.00562,0.058396,0.051352,0.137785,0.294651,0.019875,0.211063,0.638442,1.102194,0.254703,-0.106375,-0.043184,-0.062876,-0.017544,0.749241,-0.949296,0.218123,0.043775
0.301506,0.698616,0.78105,0.011594,-0.03787,0.681995,0.730284,-0.348027,0.18479,0.392025,0.242054,0.09838400000000001,-0.035575,0.13244,-0.022898,-0.319078,0.305353,-0.321103,0.013921,0.067751,0.042597,0.13235,0.284966,-0.00352,0.233389,0.634983,1.104037,0.254202,-0.096346,-0.062639,-0.069637,0.005484,0.743406,-0.948983,0.208058,0.032658
0.302809,0.715573,0.778742,0.011122,-0.034595,0.681292,0.731109,-0.368901,0.142859,0.315883,0.138811,0.069348,-0.053429,0.166267,-0.022484,-0.317461,0.279158,-0.329554,0.023291,0.078775,0.031755,0.129972,0.276901,-0.018707,0.248207,0.634832,1.114926,0.25468,-0.082692,-0.075502,-0.077181,0.033979,0.738649,-0.95106,0.196447,0.025685
0.303691,0.732938,0.775604,0.01087,-0.033312,0.682952,0.729622,-0.392453,0.105709,0.205577,0.11027,0.036269,-0.085738,0.196018,-0.023795,-0.321194,0.272655,-0.344286,0.03357,0.088043,0.021696,0.129424,0.267628,-0.02853,0.257047,0.639249,1.129792,0.255344,-0.064408,-0.079202,-0.084561,0.056225,0.73058,-0.945078,0.181916,0.01775
0.303859,0.750825,0.771733,0.011455,-0.034494,0.687427,0.725343,-0.41172,0.081242,0.137455,0.15207,0.061017,-0.107071,0.223387,-0.027342,-0.330429,0.285482,-0.365025,0.045006,0.09216800000000001,0.013907,0.130377,0.25842,-0.036501,0.262861,0.648756,1.142056,0.257333,-0.044576,-0.072478,-0.091902,0.07203,0.72374,-0.935866,0.172043,0.014441
0.303442,0.769357,0.768032,0.013795,-0.036041,0.689963,0.722815,-0.411886,0.059804,0.094067,0.196823,0.123587,-0.08056,0.253238,-0.033368,-0.335168,0.297252,-0.375578,0.054759,0.094859,0.007435,0.131242,0.252166,-0.043771,0.268388,0.664264,1.154374,0.264748,-0.029078,-0.058151,-0.09642800000000001,0.083368,0.719583,-0.92774,0.171705,0.015358
0.302357,0.788453,0.76413,0.017368,-0.039099,0.689711,0.72282,-0.40534,0.050407,0.084091,0.251303,0.163608,-0.0323,0.283602,-0.040865,-0.332483,0.312121,-0.362828,0.059403,0.097483,0.002217,0.13174,0.249975,-0.052135,0.277994,0.680076,1.157336,0.270322,-0.02438,-0.037842,-0.097176,0.091486,0.719296,-0.919339,0.174182,0.019959
0.300415,0.807427,0.763731,0.020895,-0.041537,0.686447,0.725692,-0.394827,0.051644,0.099058,0.303038,0.194805,0.012794,0.30624,-0.052924,-0.321868,0.336049,-0.335913,0.063668,0.10059,-0.002615,0.130907,0.251463,-0.060341,0.290589,0.694981,1.153933,0.273037,-0.026274,-0.017977,-0.09728,0.097741,0.72532,-0.912629,0.180361,0.03388
0.298184,0.82648,0.768808,0.025073,-0.042974,0.681615,0.730018,-0.380094,0.052803,0.116865,0.348608,0.176295,0.046248,0.321005,-0.070145,-0.306141,0.378075,-0.29348,0.064781,0.103558,-0.008873,0.129746,0.257763,-0.067186,0.300507,0.708605,1.152195,0.273438,-0.027196,0.005342,-0.097178,0.100274,0.734664,-0.90957,0.188999,0.044196
0.295778,0.844985,0.772213,0.030118,-0.04395,0.676573,0.734446,-0.360141,0.051987,0.133083,0.389602,0.130862,0.051988,0.315583,-0.093612,-0.287511,0.446672,-0.234127,0.054178,0.104422,-0.017226,0.130004,0.265663,-0.072499,0.304257,0.722767,1.155077,0.270426,-0.030065,0.034072,-0.096509,0.096112,0.743207,-0.907884,0.200497,0.053976
0.293324,0.862441,0.77526,0.033839,-0.042538,0.671295,0.739194,-0.333016,0.048055,0.149954,0.40284,0.095558,0.053427,0.284375,-0.122855,-0.271138,0.543432,-0.16631,0.027736,0.103203,-0.027095,0.13113,0.268525,-0.074449,0.300097,0.739045,1.166463,0.26893,-0.036418,0.064478,-0.09369400000000001,0.083687,0.749384,-0.905982,0.212908,0.061113
0.29083,0.878771,0.778642,0.036211,-0.040531,0.666422,0.743591,-0.303291,0.043189,0.167021,0.400413,0.069219,0.055695,0.232388,-0.158367,-0.264082,0.668952,-0.101135,0.002429,0.099809,-0.036658,0.131812,0.266588,-0.072918,0.288794,0.753919,1.181576,0.262228,-0.048574,0.096538,-0.091863,0.069291,0.752311,-0.905657,0.221335,0.065721
0.288553,0.893831,0.781107,0.037794,-0.038009,0.661812,0.747751,-0.272896,0.037261,0.183498,0.386548,0.050609,0.057997,0.162026,-0.203108,-0.266576,0.808455,-0.027701,-0.018402,0.093714,-0.045839,0.13294,0.259892,-0.06587,0.269157,0.765828,1.202126,0.251674,-0.074276,0.126695,-0.095018,0.059085,0.753512,-0.907356,0.226493,0.074773
0.286677,0.907678,0.782948,0.038693,-0.034543,0.657833,0.751376,-0.248604,0.030884,0.197573,0.37539,0.033474,0.059024,0.081008,-0.246868,-0.264259,0.938095,0.034195,-0.031851,0.084484,-0.05611,0.135511,0.248296,-0.054101,0.247663,0.771286,1.22427,0.23787,-0.103542,0.152903,-0.102806,0.055145,0.749624,-0.910965,0.223941,0.084878
0.285087,0.920476,0.784195,0.039905,-0.031033,0.65444,0.754422,-0.230565,0.024143,0.209452,0.373881,0.013714,0.059794,-0.008099,-0.269561,-0.243785,1.043475,0.004826,-0.042904,0.073184,-0.066534,0.139676,0.233847,-0.040969,0.229715,0.768872,1.242606,0.225219,-0.122954,0.176655,-0.115437,0.055144,0.741823,-0.916562,0.21549,0.09466500000000001
0.283691,0.932483,0.785385,0.04014,-0.028928,0.651628,0.756923,-0.214221,0.019778,0.218136,0.374469,-0.005905,0.060284,-0.09347200000000001,-0.269527,-0.217155,1.1111,-0.044586,-0.049114,0.062526,-0.074889,0.144124,0.221647,-0.02487,0.218505,0.76652,1.25518,0.206677,-0.125634,0.200232,-0.126613,0.052414,0.731531,-0.918918,0.213405,0.09975
0.282482,0.943784,0.786564,0.039958,-0.027461,0.648808,0.759406,-0.199666,0.016874,0.225571,0.376911,-0.024947,0.060696,-0.167836,-0.264537,-0.199626,1.134038,-0.064789,-0.036842,0.054094,-0.080514,0.148102,0.195098,-0.013433,0.208146,0.763332,1.267314,0.201906,-0.12094,0.225401,-0.128789,0.04383,0.718438,-0.915684,0.219711,0.097396
0.28148,0.954604,0.787855,0.039623,-0.026433,0.646319,0.761579,-0.183825,0.014083,0.232034,0.376137,-0.041827,0.061046,-0.223435,-0.26698,-0.200191,1.107988,-0.08392,-0.022974,0.048216,-0.084218,0.150654,0.171129,-0.001671,0.203451,0.754163,1.272258,0.201858,-0.107227,0.245155,-0.130357,0.02891,0.707633,-0.908396,0.226217,0.09416
0.28079,0.964972,0.789104,0.040197,-0.024923,0.644303,0.763307,-0.168117,0.009379,0.238046,0.375033,-0.05762,0.061302,-0.258832,-0.283983,-0.22207,1.038838,-0.105579,-0.016495,0.04441,-0.087025,0.151061,0.148709,0.006171,0.203565,0.740154,1.26818,0.206173,-0.091261,0.262793,-0.132397,0.013612,0.699822,-0.902815,0.231972,0.093129
0.28031,0.974997,0.790655,0.039595,-0.023669,0.643153,0.764347,-0.151055,0.005064,0.241527,0.366912,-0.069303,0.061542,-0.276264,-0.293523,-0.245471,0.927969,-0.115325,-0.006526,0.041544,-0.088852,0.149573,0.125098,0.013436,0.206596,0.723105,1.25656,0.210631,-0.074475,0.277698,-0.131115,-0.001048,0.693058,-0.897639,0.23614,0.092308
0.280189,0.984694,0.792124,0.038795,-0.022764,0.643143,0.764424,-0.134235,0.000891,0.241734,0.35797,-0.079763,0.061295,-0.279206,-0.282139,-0.244071,0.787282,-0.114364,0.013845,0.039602,-0.089222,0.146994,0.106588,0.019994,0.215195,0.699972,1.23352,0.208529,-0.056885,0.287816,-0.127613,-0.014842,0.691817,-0.893043,0.235949,0.090562
0.280396,0.994131,0.793253,0.037821,-0.022783,0.644204,0.763578,-0.116832,-0.00248,0.23869,0.348431,-0.089373,0.060712,-0.269557,-0.258294,-0.216323,0.637928,-0.099153,0.024759,0.038394,-0.088,0.143584,0.087083,0.021328,0.223595,0.680505,1.204237,0.212935,-0.040085,0.302142,-0.122617,-0.025487,0.687299,-0.890788,0.232141,0.088486
0.280994,1.003367,0.793802,0.037855,-0.023446,0.646025,0.762016,-0.099194,-0.006124,0.233704,0.34186,-0.099502,0.059716,-0.24659,-0.244472,-0.193518,0.501452,-0.078464,0.036183,0.038742,-0.085979,0.140137,0.068162,0.021015,0.224274,0.66694,1.173361,0.214333,-0.025063,0.318559,-0.116937,-0.034863,0.679901,-0.88863,0.225494,0.088883
0.281914,1.012354,0.793796,0.039092,-0.024871,0.649012,0.759366,-0.080828,-0.010806,0.226087,0.337308,-0.109555,0.058679,-0.219907,-0.242775,-0.188862,0.400945,-0.050911,0.03244,0.040104,-0.083685,0.137118,0.049237,0.022927,0.215341,0.663155,1.147929,0.21278,-0.014324,0.33617,-0.11011,-0.044065,0.67149,-0.885826,0.219308,0.088837
0.283242,1.021088,0.792824,0.041951,-0.026315,0.652978,0.755756,-0.063687,-0.017067,0.216118,0.338568,-0.121909,0.056994,-0.195301,-0.249011,-0.198126,0.341663,-0.019076,0.035111,0.042235,-0.081824,0.134389,0.030163,0.027881,0.195655,0.669473,1.134752,0.211973,-0.012401,0.352747,-0.103626,-0.051819,0.664739,-0.884922,0.216186,0.089859
0.284807,1.029493,0.78961,0.046064,-0.027576,0.656574,0.752349,-0.045142,-0.024755,0.206924,0.338666,-0.134017,0.054936,-0.173123,-0.258575,-0.214494,0.316293,0.017558,0.045703,0.044046,-0.08087,0.131322,0.014109,0.034309,0.168467,0.681623,1.134491,0.215233,-0.020885,0.365876,-0.097739,-0.056777,0.659094,-0.886787,0.212319,0.092083
0.286353,1.037128,0.789464,0.050124,-0.028503,0.660039,0.749015,-0.024222,-0.032674,0.197916,0.332575,-0.141533,0.052756,-0.155773,-0.273642,-0.233581,0.321174,0.017329,0.076086,0.045057,-0.080886,0.127804,0.00427,0.043696,0.133063,0.691693,1.149999,0.214262,-0.034064,0.37294,-0.091713,-0.060126,0.656352,-0.890134,0.211129,0.095009
0.288125,1.044652,0.789611,0.054166,-0.028897,0.663419,0.745725,-0.002027,-0.041108,0.188692,0.32181,-0.146057,0.0505,-0.138307,-0.287383,-0.248437,0.331205,-0.003355,0.089966,0.045172,-0.081426,0.123598,0.000314,0.052667,0.096534,0.696331,1.173836,0.210587,-0.051927,0.375019,-0.085972,-0.062901,0.656434,-0.893792,0.211893,0.097796
0.289985,1.051752,0.790124,0.057366,-0.029302,0.666925,0.742335,0.021738,-0.048351,0.178731,0.304439,-0.146789,0.048127,-0.12012,-0.296219,-0.257495,0.335129,-0.01657,0.100044,0.044903,-0.081894,0.118637,0.003659,0.059262,0.065745,0.695382,1.197263,0.200841,-0.065477,0.372643,-0.08037,-0.06601,0.658758,-0.89772,0.214425,0.097406
0.292019,1.058422,0.790799,0.059702,-0.029573,0.670241,0.739147,0.044657,-0.053481,0.168865,0.285188,-0.145959,0.045187,-0.100904,-0.301931,-0.268193,0.332971,-0.026864,0.106705,0.045278,-0.081566,0.112959,0.013404,0.062065,0.045522,0.691653,1.214197,0.186551,-0.081484,0.367237,-0.075861,-0.068297,0.663484,-0.90349,0.219096,0.097489
0.294092,1.064637,0.791512,0.061084,-0.029622,0.672994,0.736526,0.065473,-0.056555,0.16023,0.265877,-0.144286,0.042037,-0.081873,-0.30484,-0.279562,0.325948,-0.035381,0.110395,0.046308,-0.079845,0.106783,0.027578,0.059338,0.03912,0.686018,1.217648,0.173326,-0.096199,0.359233,-0.072594,-0.070178,0.668094,-0.908511,0.222379,0.099011
0.296131,1.070346,0.792159,0.061791,-0.029614,0.675154,0.734487,0.084508,-0.058006,0.153056,0.246703,-0.14179,0.038846,-0.06534,-0.305807,-0.289192,0.319356,-0.043068,0.113163,0.047405,-0.077069,0.100504,0.045411,0.052839,0.042388,0.68235,1.208806,0.16104,-0.107934,0.349759,-0.072271,-0.070829,0.670938,-0.912438,0.221952,0.099529
0.29812,1.07544,0.792645,0.061877,-0.029588,0.676901,0.732872,0.099798,-0.057756,0.146974,0.231408,-0.14009,0.03557,-0.052423,-0.305415,-0.297135,0.315381,-0.050809,0.115227,0.048499,-0.07359,0.09477,0.064205,0.046058,0.047898,0.681564,1.195818,0.149654,-0.119566,0.338964,-0.074443,-0.0704,0.672006,-0.915159,0.218457,0.098682
0.299999,1.079891,0.792932,0.061426,-0.029578,0.678565,0.73137,0.110101,-0.056083,0.141396,0.222498,-0.140385,0.032438,-0.043079,-0.30436,-0.304037,0.314784,-0.05899,0.11675,0.049499,-0.069866,0.089957,0.082205,0.041823,0.050534,0.68399,1.189964,0.144602,-0.126858,0.327656,-0.077096,-0.070663,0.670848,-0.917571,0.215198,0.096385
0.301722,1.083738,0.793025,0.060768,-0.029647,0.680004,0.730084,0.116292,-0.053602,0.136512,0.219749,-0.142988,0.029566,-0.036877,-0.303202,-0.309687,0.317581,-0.067576,0.117848,0.050445,-0.06616,0.086309,0.098869,0.039293,0.050022,0.690975,1.193801,0.14793,-0.128625,0.316212,-0.078221,-0.074237,0.66704,-0.917859,0.21563,0.092198
0.303294,1.087064,0.792989,0.060189,-0.029634,0.681356,0.728872,0.120441,-0.051262,0.132097,0.219614,-0.146447,0.026981,-0.033126,-0.302667,-0.314256,0.323232,-0.076412,0.118718,0.051409,-0.062666,0.083978,0.113601,0.038292,0.045852,0.703012,1.20747,0.156224,-0.132183,0.305455,-0.078183,-0.079697,0.660412,-0.91499,0.216367,0.086372
0.304704,1.089909,0.79292,0.05981,-0.029574,0.682787,0.727565,0.124202,-0.049518,0.127696,0.219112,-0.14933,0.024739,-0.030185,-0.302738,-0.318524,0.329251,-0.084184,0.119455,0.052504,-0.059489,0.082687,0.126579,0.036781,0.042918,0.718734,1.225164,0.167194,-0.137023,0.297313,-0.077756,-0.084892,0.650737,-0.909769,0.21417,0.077689
0.305957,1.092297,0.792842,0.059602,-0.029496,0.684292,0.726169,0.127523,-0.048307,0.123261,0.218244,-0.151523,0.022846,-0.027644,-0.303326,-0.322809,0.335093,-0.090978,0.120149,0.053503,-0.056677,0.082187,0.137805,0.034135,0.043305,0.73837,1.243293,0.179972,-0.144342,0.292614,-0.078194,-0.087597,0.639327,-0.903103,0.210944,0.071288
0.307079,1.094277,0.792778,0.059429,-0.029289,0.685828,0.724742,0.130448,-0.047528,0.118919,0.216455,-0.152805,0.021216,-0.025398,-0.304206,-0.327234,0.340023,-0.096974,0.120792,0.054239,-0.054242,0.082225,0.144144,0.02775,0.045913,0.763463,1.259298,0.194737,-0.15091,0.294956,-0.0798,-0.085742,0.620512,-0.898422,0.206836,0.069817
0.308101,1.095885,0.792732,0.059159,-0.028983,0.687248,0.723429,0.132777,-0.046801,0.114886,0.214187,-0.153498,0.019681,-0.023595,-0.304958,-0.331544,0.343901,-0.102228,0.121243,0.054627,-0.052192,0.082568,0.154285,0.028567,0.054426,0.783943,1.268955,0.198639,-0.158038,0.290078,-0.084032,-0.083291,0.611182,-0.893738,0.202035,0.068341
0.309041,1.097126,0.792701,0.058784,-0.028567,0.688647,0.722145,0.134111,-0.046104,0.110933,0.212075,-0.153811,0.01823,-0.022441,-0.305554,-0.335765,0.34718,-0.106809,0.121467,0.054629,-0.050522,0.083112,0.161289,0.028924,0.063626,0.805393,1.279173,0.203367,-0.164854,0.288873,-0.08768,-0.080865,0.603485,-0.889587,0.198148,0.06538
0.309892,1.098036,0.792673,0.058282,-0.028065,0.690034,0.720881,0.134404,-0.045396,0.106966,0.210421,-0.154003,0.016867,-0.022111,-0.306035,-0.339826,0.35031,-0.110909,0.121474,0.054288,-0.04926,0.083802,0.167059,0.028971,0.072241,0.822946,1.289194,0.206674,-0.172868,0.289338,-0.091003,-0.078286,0.598079,-0.887123,0.196599,0.062395
0.310628,1.09865,0.792642,0.057642,-0.027512,0.691325,0.719716,0.133859,-0.044659,0.103111,0.209147,-0.154191,0.015614,-0.022727,-0.306378,-0.343467,0.353384,-0.114465,0.121256,0.053858,-0.048415,0.084624,0.172886,0.02995,0.080468,0.834928,1.299052,0.205699,-0.178808,0.290505,-0.093102,-0.076898,0.595876,-0.885483,0.197028,0.060294
0.311237,1.099001,0.792609,0.056889,-0.026818,0.692464,0.718706,0.132366,-0.044032,0.099774,0.20837,-0.154412,0.014557,-0.024396,-0.30663,-0.34646,0.356291,-0.117346,0.120859,0.053537,-0.047905,0.085579,0.178767,0.03172,0.088609,0.840668,1.309145,0.202224,-0.180475,0.291757,-0.094519,-0.07637,0.596874,-0.88512,0.197899,0.056336
0.311677,1.099172,0.792566,0.055994,-0.02605,0.693419,0.717884,0.130151,-0.043386,0.097294,0.208166,-0.154894,0.013726,-0.026795,-0.30686,-0.348781,0.358799,-0.119511,0.120382,0.053526,-0.047611,0.086616,0.184564,0.031904,0.100423,0.840789,1.314492,0.199939,-0.180278,0.293153,-0.095541,-0.076114,0.601737,-0.885287,0.19957,0.053292
0.311937,1.099221,0.792493,0.055165,-0.025357,0.693944,0.717464,0.128057,-0.042853,0.096097,0.208261,-0.15574,0.01318,-0.029901,-0.306968,-0.34971,0.361653,-0.121349,0.119924,0.053897,-0.047531,0.08781,0.1899,0.030269,0.114993,0.835958,1.314638,0.199037,-0.176758,0.294271,-0.09678800000000001,-0.074988,0.610343,-0.886933,0.202682,0.053301
0.312009,1.09915,0.792378,0.054483,-0.024812,0.693802,0.717673,0.12639,-0.042391,0.09665000000000001,0.20846,-0.156816,0.012891,-0.03405,-0.306896,-0.348343,0.36536,-0.123063,0.119413,0.054535,-0.047695,0.089168,0.193759,0.027486,0.130541,0.830109,1.310637,0.198499,-0.170991,0.294914,-0.098185,-0.073315,0.621375,-0.889727,0.204289,0.054088
0.311911,1.098996,0.792249,0.053894,-0.0244,0.692693,0.718802,0.125319,-0.041784,0.099747,0.208413,-0.157982,0.012801,-0.038887,-0.306068,-0.344233,0.368609,-0.124139,0.118853,0.05502,-0.048014,0.090401,0.196777,0.024784,0.143588,0.825242,1.306571,0.198338,-0.16584,0.294489,-0.09936900000000001,-0.071717,0.633968,-0.893053,0.207697,0.05716
0.311672,1.098805,0.792128,0.053189,-0.024227,0.690066,0.721383,0.125212,-0.040261,0.1068,0.207765,-0.159389,0.012669,-0.044655,-0.303368,-0.336397,0.370704,-0.124237,0.118038,0.054984,-0.048475,0.09133500000000001,0.199297,0.022779,0.153376,0.821359,1.304149,0.198129,-0.162597,0.292429,-0.100538,-0.068952,0.646513,-0.897756,0.211633,0.062301
0.311295,1.098601,0.792023,0.052137,-0.024283,0.685402,0.72589,0.126157,-0.037335,0.119071,0.206118,-0.160992,0.012377,-0.052022,-0.297928,-0.323665,0.371332,-0.123072,0.116828,0.054186,-0.049179,0.092019,0.202109,0.020879,0.162097,0.817644,1.302175,0.197872,-0.158896,0.287534,-0.101793,-0.064477,0.657993,-0.90378,0.213761,0.068606
0.310811,1.098385,0.791919,0.050754,-0.024527,0.678728,0.732223,0.127429,-0.032938,0.1366,0.204797,-0.163258,0.011839,-0.060988,-0.289745,-0.306154,0.370705,-0.120789,0.115196,0.052642,-0.050035,0.09256,0.205408,0.018806,0.171109,0.814294,1.298016,0.196758,-0.155701,0.279685,-0.102677,-0.060794,0.666922,-0.908594,0.212615,0.072591
0.310254,1.098178,0.791789,0.049323,-0.024978,0.669934,0.740359,0.129437,-0.027397,0.159571,0.204098,-0.166396,0.011012,-0.071275,-0.279073,-0.283588,0.369342,-0.117611,0.113149,0.050353,-0.05061,0.09300000000000001,0.207998,0.01787,0.176844,0.814435,1.296473,0.194293,-0.154095,0.271148,-0.104134,-0.057293,0.671438,-0.914623,0.210086,0.074492
0.309639,1.098013,0.791611,0.047675,-0.02587,0.658389,0.750721,0.132893,-0.020034,0.188979,0.203574,-0.170375,0.009581,-0.083498,-0.264868,-0.254887,0.368408,-0.113913,0.110417,0.047013,-0.051075,0.093328,0.211421,0.017848,0.181369,0.81733,1.296508,0.192504,-0.157722,0.262789,-0.104668,-0.055271,0.671106,-0.91838,0.20802,0.074561
0.308949,1.097917,0.791378,0.045776,-0.027106,0.644853,0.762453,0.137645,-0.011372,0.223103,0.202891,-0.174848,0.007693,-0.097305,-0.247853,-0.221683,0.368906,-0.110147,0.107321,0.043119,-0.05157,0.093513,0.217614,0.020007,0.183984,0.81787,1.296877,0.191841,-0.162315,0.256029,-0.105908,-0.058987,0.665932,-0.916004,0.201519,0.074772
0.308183,1.097899,0.791103,0.04376,-0.028485,0.629644,0.775127,0.144014,-0.002291,0.261067,0.200926,-0.179046,0.005442,-0.112332,-0.228719,-0.184933,0.370972,-0.106304,0.104082,0.038841,-0.052201,0.093581,0.215697,0.021436,0.177654,0.817969,1.304571,0.19801,-0.170009,0.246595,-0.102737,-0.063457,0.661089,-0.911684,0.195487,0.072433
0.307345,1.097981,0.790804,0.041688,-0.029893,0.612423,0.788864,0.152234,0.00676,0.303264,0.197376,-0.182828,0.002768,-0.128127,-0.207341,-0.144542,0.373581,-0.101838,0.100795,0.033997,-0.052971,0.093639,0.216302,0.023808,0.173688,0.817402,1.308674,0.199211,-0.171282,0.238239,-0.10141,-0.065132,0.654353,-0.90911,0.190956,0.070609
0.306442,1.098161,0.790487,0.039495,-0.03145,0.593749,0.803065,0.161773,0.015923,0.348613,0.193339,-0.186582,-0.000392,-0.143468,-0.183838,-0.102133,0.375841,-0.096531,0.097561,0.029105,-0.053957,0.093761,0.216943,0.027689,0.169799,0.81704,1.312838,0.198292,-0.171896,0.231835,-0.100735,-0.065311,0.646433,-0.906835,0.187359,0.068496
0.305484,1.09841,0.790138,0.037435,-0.033089,0.573971,0.81735,0.171734,0.024772,0.396155,0.190572,-0.190861,-0.003866,-0.157629,-0.159096,-0.058557,0.377561,-0.09062700000000001,0.094618,0.024184,-0.054873,0.094032,0.214794,0.030451,0.169334,0.816398,1.312496,0.200422,-0.168576,0.2287,-0.100194,-0.065393,0.636961,-0.903615,0.183245,0.065861
0.304463,1.098733,0.789767,0.035472,-0.034855,0.553357,0.831458,0.182086,0.03322,0.445034,0.18888,-0.195472,-0.007573,-0.170147,-0.133414,-0.014519,0.378501,-0.084199,0.092114,0.019167,-0.055642,0.094437,0.210697,0.0338,0.167734,0.816144,1.31163,0.202356,-0.165156,0.228905,-0.100419,-0.065206,0.627588,-0.9009990000000001,0.179422,0.064441
0.303378,1.099143,0.789394,0.033578,-0.036751,0.532152,0.845184,0.193138,0.04095,0.494529,0.187269,-0.199883,-0.011405,-0.180803,-0.107149,0.029528,0.378525,-0.077158,0.090182,0.014055,-0.056241,0.094912,0.205443,0.038313,0.163647,0.815428,1.311146,0.201035,-0.161371,0.231744,-0.100561,-0.066817,0.61897,-0.898699,0.179239,0.060807
0.302282,1.099661,0.789038,0.03171,-0.03862,0.510633,0.858346,0.204752,0.047738,0.544023,0.185232,-0.203793,-0.01536,-0.189658,-0.080683,0.073181,0.377553,-0.069601,0.088793,0.008869,-0.056634,0.095544,0.198363,0.044197,0.157221,0.815184,1.312679,0.201366,-0.157458,0.23645,-0.100127,-0.070194,0.611474,-0.894719,0.181089,0.057964
0.30123,1.100276,0.788702,0.02989,-0.040507,0.489006,0.870826,0.216888,0.053658,0.593051,0.182805,-0.207147,-0.019462,-0.196677,-0.054252,0.116023,0.375861,-0.06173,0.087831,0.003607,-0.056906,0.096234,0.188344,0.051834,0.14824,0.816127,1.316263,0.198676,-0.15398,0.243298,-0.102382,-0.069646,0.606602,-0.896187,0.179784,0.058151
0.300259,1.100993,0.788397,0.028112,-0.042559,0.467841,0.88234,0.22957,0.05886,0.640529,0.179992,-0.209901,-0.023706,-0.201269,-0.028346,0.157051,0.373285,-0.053789,0.087211,-0.001743,-0.057203,0.096709,0.176662,0.060746,0.139516,0.817461,1.3193,0.19627,-0.151067,0.25233,-0.103806,-0.071897,0.604141,-0.897094,0.178914,0.057768
0.29934,1.101826,0.788096,0.026407,-0.044756,0.44742,0.892813,0.242553,0.063124,0.685878,0.177017,-0.212321,-0.027865,-0.204022,-0.003548,0.19597,0.370782,-0.046257,0.087112,-0.007037,-0.05758,0.096946,0.163785,0.070438,0.130157,0.818527,1.32257,0.194251,-0.149388,0.262676,-0.104963,-0.07479,0.604778,-0.898532,0.178109,0.058201
0.298506,1.102727,0.787793,0.024923,-0.047021,0.428027,0.902198,0.255252,0.066518,0.728517,0.174672,-0.214639,-0.031878,-0.20514,0.019585,0.232389,0.368523,-0.039395,0.087376,-0.01235,-0.057933,0.096982,0.149823,0.080886,0.124345,0.82028,1.323239,0.189363,-0.143852,0.278246,-0.108592,-0.076133,0.603378,-0.902102,0.178834,0.060554
0.297787,1.103687,0.787497,0.023682,-0.049182,0.410015,0.910444,0.267271,0.068939,0.767825,0.17279,-0.216654,-0.035647,-0.205093,0.040607,0.265897,0.366754,-0.033465,0.087894,-0.017841,-0.058128,0.097056,0.1323,0.087791,0.118516,0.821404,1.322121,0.187932,-0.139387,0.29251,-0.110831,-0.07878,0.602878,-0.905309,0.179742,0.062221
0.297204,1.104717,0.787233,0.02256,-0.051444,0.3936,0.917564,0.279243,0.070652,0.803456,0.170597,-0.218183,-0.039338,-0.203449,0.059564,0.296019,0.364776,-0.028143,0.088557,-0.023178,-0.05818,0.097182,0.110656,0.093133,0.108367,0.824931,1.327139,0.188617,-0.1388,0.301675,-0.107972,-0.081065,0.603468,-0.909822,0.187412,0.067166
0.296759,1.105785,0.787027,0.021464,-0.054032,0.379196,0.923488,0.291311,0.072175,0.834773,0.168055,-0.219137,-0.042914,-0.199731,0.076381,0.322066,0.362029,-0.023224,0.089187,-0.02809,-0.058203,0.097261,0.089809,0.097769,0.09873,0.825748,1.330534,0.189677,-0.132413,0.313907,-0.104844,-0.08723,0.606654,-0.9115,0.194328,0.072365
0.29644,1.106841,0.786864,0.020492,-0.056663,0.366676,0.928395,0.30274,0.073509,0.861995,0.165856,-0.21973,-0.046253,-0.194959,0.090915,0.344409,0.359012,-0.018749,0.089765,-0.032574,-0.05814,0.097449,0.068167,0.096082,0.088654,0.82815,1.32905,0.191592,-0.124507,0.331411,-0.101955,-0.092963,0.607071,-0.911136,0.200749,0.078518
0.296211,1.107865,0.786722,0.019714,-0.059164,0.35649,0.932215,0.312913,0.074439,0.883687,0.164099,-0.220144,-0.049129,-0.190003,0.102749,0.3626,0.356693,-0.015287,0.09037,-0.036238,-0.05791,0.097759,0.048424,0.096859,0.077698,0.826568,1.32608,0.189756,-0.123429,0.34703,-0.09781500000000001,-0.0994,0.611046,-0.910401,0.206334,0.085478
0.296018,1.10886,0.786576,0.019136,-0.061395,0.34832,0.935167,0.32173,0.07487,0.901235,0.162724,-0.220504,-0.051444,-0.185708,0.112204,0.377276,0.355859,-0.013171,0.091105,-0.039252,-0.057576,0.098154,0.030291,0.096342,0.067729,0.818987,1.321003,0.18682,-0.123282,0.359576,-0.092455,-0.106019,0.619242,-0.910451,0.208412,0.092148
0.295832,1.109816,0.786422,0.018729,-0.063354,0.341743,0.9374690000000001,0.329571,0.074596,0.915424,0.160973,-0.220624,-0.053331,-0.182184,0.119763,0.38921,0.35628,-0.012154,0.091956,-0.041582,-0.057178,0.098434,0.016037,0.096002,0.060987,0.803251,1.310529,0.179372,-0.123732,0.364753,-0.085754,-0.115273,0.635861,-0.912162,0.214387,0.094202
0.295622,1.110693,0.786287,0.018421,-0.06489,0.336556,0.939244,0.336006,0.073783,0.926686,0.15894,-0.220471,-0.054736,-0.179379,0.125479,0.398777,0.356671,-0.011419,0.092858,-0.043127,-0.056651,0.098568,0.004529,0.09153,0.051907,0.788028,1.300402,0.175166,-0.120592,0.370868,-0.077685,-0.122831,0.651905,-0.917082,0.221288,0.092701
0.295374,1.111469,0.786175,0.018114,-0.065917,0.33286,0.940495,0.340533,0.072902,0.934904,0.157256,-0.220367,-0.055602,-0.177616,0.129471,0.405797,0.357066,-0.010917,0.093776,-0.043665,-0.056033,0.098667,-0.004005,0.086314,0.038797,0.773936,1.293631,0.168711,-0.117064,0.376522,-0.067419,-0.131719,0.667026,-0.92006,0.228755,0.091975
0.295087,1.112134,0.786078,0.017827,-0.066438,0.330436,0.941318,0.343148,0.072033,0.94046,0.156133,-0.220489,-0.055922,-0.177024,0.131984,0.410592,0.357778,-0.010794,0.094684,-0.043336,-0.055403,0.098804,-0.010718,0.078783,0.028047,0.761904,1.283224,0.16283,-0.111713,0.380821,-0.056637,-0.139811,0.680383,-0.921727,0.232218,0.094375
0.294775,1.112685,0.785988,0.017583,-0.066621,0.329053,0.941794,0.344298,0.071281,0.943823,0.155608,-0.221003,-0.055805,-0.17723,0.133322,0.413514,0.358805,-0.011075,0.09553,-0.042459,-0.054812,0.099071,-0.016497,0.070876,0.018034,0.755143,1.272336,0.158461,-0.106982,0.383648,-0.046424,-0.146482,0.691077,-0.923928,0.235135,0.0974
0.294451,1.113126,0.78592,0.017363,-0.066605,0.328563,0.941971,0.344549,0.070518,0.94532,0.15503,-0.221565,-0.055355,-0.177703,0.133645,0.414807,0.359514,-0.01139,0.096287,-0.0412,-0.054234,0.099449,-0.021948,0.064451,0.005808,0.756609,1.265484,0.154917,-0.105899,0.385925,-0.03665,-0.150567,0.697809,-0.9266470000000001,0.235416,0.101662
0.294138,1.113468,0.785886,0.017148,-0.066492,0.328645,0.941954,0.344285,0.069769,0.945535,0.154244,-0.221898,-0.05469,-0.17812,0.133309,0.414972,0.359747,-0.011681,0.096877,-0.039974,-0.053749,0.099891,-0.026967,0.059502,-0.006363,0.765949,1.262135,0.156048,-0.109527,0.387372,-0.027724,-0.152807,0.700964,-0.929622,0.233304,0.107147
0.293851,1.113707,0.785896,0.016898,-0.066315,0.329245,0.941761,0.343436,0.069413,0.944641,0.153783,-0.222025,-0.053913,-0.178362,0.132532,0.414189,0.359354,-0.01181,0.09727400000000001,-0.039053,-0.053475,0.100404,-0.031139,0.058055,-0.020246,0.78073,1.264571,0.154878,-0.120419,0.387416,-0.019719,-0.155441,0.69898,-0.931459,0.228575,0.110303
0.293579,1.113851,0.785922,0.016705,-0.06606,0.329829,0.941578,0.34223,0.069149,0.943558,0.153697,-0.222118,-0.053097,-0.178734,0.131654,0.413374,0.358833,-0.011828,0.097652,-0.038729,-0.05336,0.100988,-0.031318,0.061301,-0.033561,0.795926,1.275283,0.151114,-0.137099,0.385817,-0.013439,-0.156443,0.694232,-0.934537,0.222467,0.111882
0.293334,1.113899,0.785965,0.016546,-0.065711,0.33038,0.941412,0.340687,0.069073,0.942496,0.154004,-0.222209,-0.052311,-0.179095,0.13072,0.412688,0.35765,-0.011393,0.097991,-0.038928,-0.05332,0.101623,-0.024834,0.064763,-0.035776,0.804994,1.283477,0.153278,-0.154532,0.38144,-0.007805,-0.159898,0.686383,-0.933578,0.217582,0.113313
0.293152,1.113886,0.786022,0.016336,-0.065332,0.330586,0.94137,0.339453,0.069135,0.942042,0.154071,-0.222184,-0.051927,-0.179177,0.130095,0.412493,0.355327,-0.010256,0.098205,-0.039142,-0.053211,0.1022,-0.010193,0.068171,-0.027963,0.806421,1.287,0.157243,-0.164098,0.375184,-0.005013,-0.161659,0.676735,-0.933814,0.21345,0.112962
0.293024,1.113842,0.786097,0.016053,-0.064873,0.330673,0.9413760000000002,0.338322,0.069234,0.941846,0.153774,-0.222011,-0.051765,-0.179052,0.129547,0.412494,0.351987,-0.008614,0.098358,-0.038923,-0.052893,0.10274,0.010381,0.069027,-0.008005,0.80446,1.281172,0.166236,-0.158742,0.368563,-0.00391,-0.163351,0.664966,-0.933517,0.210144,0.109428
0.292933,1.113773,0.786189,0.015713,-0.064363,0.330911,0.941333,0.337149,0.069376,0.941358,0.153202,-0.221721,-0.05164,-0.178919,0.128884,0.412166,0.348266,-0.006637,0.098473,-0.03791,-0.052323,0.103277,0.03125,0.066181,0.021478,0.807615,1.264634,0.181632,-0.14542,0.363025,-0.003601,-0.165725,0.652136,-0.930081,0.206982,0.10373
0.29288,1.113681,0.7863,0.01532,-0.063879,0.331672,0.941105,0.335821,0.069758,0.939883,0.15259,-0.221344,-0.05149,-0.178741,0.127931,0.410835,0.344681,-0.004776,0.098488,-0.035966,-0.051585,0.103801,0.048435,0.060311,0.047752,0.824322,1.248849,0.201836,-0.128298,0.363234,-0.003697,-0.166341,0.635131,-0.925095,0.204714,0.096373
0.29286,1.113547,0.786412,0.015003,-0.063466,0.332999,0.940669,0.334215,0.070403,0.937213,0.152477,-0.221045,-0.051173,-0.178727,0.126663,0.408421,0.342206,-0.003644,0.098365,-0.033422,-0.050819,0.104306,0.062092,0.061727,0.063602,0.845779,1.244291,0.220203,-0.122898,0.360198,-0.005059,-0.166902,0.623684,-0.9189830000000001,0.205743,0.09017
0.292851,1.113381,0.78652,0.014761,-0.063108,0.334813,0.940053,0.3322,0.071303,0.933475,0.153051,-0.220924,-0.050631,-0.178905,0.125066,0.405053,0.340779,-0.003225,0.09816,-0.03079,-0.050178,0.104819,0.073507,0.068355,0.067489,0.868482,1.254603,0.237274,-0.126895,0.354399,-0.008525,-0.165022,0.618217,-0.915173,0.210363,0.092337
0.292846,1.113221,0.786609,0.014598,-0.062746,0.336983,0.939304,0.330036,0.072059,0.928961,0.153718,-0.220882,-0.04999,-0.179373,0.123112,0.40099,0.340357,-0.003511,0.097967,-0.028322,-0.04971,0.105358,0.084688,0.081226,0.063148,0.885122,1.275838,0.246201,-0.141516,0.342565,-0.013879,-0.163139,0.621267,-0.909774,0.211885,0.108177
0.292838,1.113062,0.786659,0.01462,-0.062378,0.339337,0.93848,0.327982,0.072364,0.924019,0.154253,-0.220861,-0.049303,-0.180357,0.120909,0.396666,0.341409,-0.004606,0.097831,-0.026042,-0.049399,0.105938,0.094907,0.090698,0.050596,0.900302,1.304871,0.25005,-0.160956,0.333284,-0.019257,-0.162801,0.62405,-0.900629,0.208932,0.135864
0.292811,1.112891,0.786676,0.014801,-0.061994,0.341621,0.937674,0.326064,0.072252,0.919139,0.15465,-0.220837,-0.048592,-0.181754,0.118612,0.39253,0.343356,-0.006074,0.097779,-0.023823,-0.049197,0.106571,0.105398,0.094871,0.042332,0.908165,1.327851,0.247553,-0.175879,0.324984,-0.026885,-0.161193,0.626075,-0.894322,0.201382,0.162271
0.29275,1.112694,0.786694,0.014997,-0.061561,0.343819,0.936896,0.324047,0.072035,0.914407,0.155006,-0.220798,-0.047841,-0.18305,0.116162,0.388555,0.344595,-0.007065,0.097773,-0.021495,-0.049028,0.107246,0.11949,0.094786,0.045111,0.904996,1.337537,0.242002,-0.179577,0.323068,-0.037497,-0.162073,0.628212,-0.893361,0.186144,0.172598
0.292654,1.112475,0.786714,0.015205,-0.061094,0.346013,0.936115,0.321964,0.071742,0.909693,0.15541,-0.220765,-0.04701,-0.184256,0.113545,0.384644,0.345281,-0.007668,0.097821,-0.018866,-0.048848,0.107963,0.133525,0.08841,0.056002,0.896213,1.337602,0.237528,-0.176005,0.317659,-0.042408,-0.162674,0.629256,-0.90101,0.180444,0.159483
0.292526,1.112219,0.786735,0.015453,-0.0606,0.34803,0.935395,0.319844,0.071307,0.905307,0.155768,-0.220679,-0.046131,-0.185437,0.110944,0.381105,0.345649,-0.007987,0.097914,-0.016075,-0.048637,0.108756,0.146935,0.076316,0.074398,0.883531,1.327462,0.235583,-0.170124,0.310836,-0.043101,-0.162952,0.63063,-0.916286,0.184294,0.128502
0.292366,1.111917,0.786758,0.015705,-0.060119,0.349748,0.934781,0.317712,0.070858,0.90148,0.156129,-0.220564,-0.045232,-0.186573,0.108599,0.378097,0.345795,-0.008059,0.098018,-0.013365,-0.048441,0.10964,0.159275,0.059449,0.098587,0.86836,1.30799,0.234692,-0.160872,0.302946,-0.03861,-0.166811,0.63277,-0.927282,0.193895,0.094334
0.292178,1.111577,0.786785,0.015939,-0.059681,0.351258,0.934239,0.315635,0.070387,0.898031,0.15639,-0.220386,-0.044292,-0.187612,0.106496,0.375501,0.345712,-0.007891,0.098119,-0.010802,-0.048274,0.110594,0.169462,0.041814,0.118605,0.854506,1.289357,0.232611,-0.151619,0.294901,-0.031384,-0.17303,0.635491,-0.929949,0.202115,0.069448
0.291985,1.111203,0.786815,0.016151,-0.059294,0.352539,0.933777,0.313714,0.069977,0.895041,0.156555,-0.220165,-0.043383,-0.188521,0.104731,0.373411,0.345449,-0.007539,0.098189,-0.008463,-0.048156,0.111589,0.176186,0.024105,0.130294,0.842566,1.27539,0.233397,-0.14772,0.283289,-0.024126,-0.179818,0.642561,-0.9257320000000001,0.206614,0.05942
0.291807,1.110803,0.786848,0.016298,-0.058993,0.353469,0.9334420000000001,0.312144,0.069701,0.892863,0.156422,-0.219868,-0.042578,-0.189232,0.103495,0.371916,0.344972,-0.007005,0.098187,-0.006497,-0.048164,0.112571,0.180963,0.010321,0.136117,0.834033,1.266853,0.231073,-0.148467,0.274281,-0.020269,-0.183479,0.647689,-0.9192070000000001,0.205258,0.062204
0.291645,1.11038,0.786888,0.01639,-0.058761,0.354196,0.933179,0.310796,0.069551,0.891297,0.156153,-0.219544,-0.041842,-0.189666,0.1026,0.370826,0.344056,-0.006202,0.098103,-0.004895,-0.048312,0.113491,0.183937,-3.4e-05,0.136433,0.827354,1.26513,0.226142,-0.148249,0.267396,-0.01989,-0.182014,0.650863,-0.917714,0.198847,0.068677
0.291518,1.109933,0.786923,0.016496,-0.058554,0.354722,0.932991,0.309503,0.069582,0.890163,0.156203,-0.219335,-0.04121,-0.19009,0.102009,0.370105,0.343252,-0.005412,0.097924,-0.003707,-0.048619,0.114347,0.185422,-0.007892,0.134446,0.821528,1.266707,0.221652,-0.148383,0.262171,-0.02059,-0.179044,0.653026,-0.9189290000000001,0.191891,0.076027
0.291442,1.109477,0.786946,0.016595,-0.058341,0.355086,0.932864,0.308241,0.069782,0.889355,0.156508,-0.219321,-0.040707,-0.190686,0.101719,0.369588,0.342856,-0.004817,0.097642,-0.002903,-0.049053,0.115154,0.185643,-0.01374,0.132888,0.816805,1.267173,0.216722,-0.150692,0.258307,-0.021472,-0.176444,0.654106,-0.921306,0.187977,0.082027
0.29142,1.109024,0.786958,0.016698,-0.058108,0.35534,0.93278,0.307053,0.070072,0.888809,0.156994,-0.219369,-0.040363,-0.191493,0.101611,0.369167,0.342913,-0.004435,0.09744100000000001,-0.002307,-0.049576,0.115957,0.184457,-0.017053,0.131728,0.812764,1.267478,0.21277,-0.153785,0.256102,-0.021544,-0.175825,0.653293,-0.922114,0.187264,0.086104
0.291453,1.108576,0.786962,0.016864,-0.057963,0.355345,0.932784,0.306232,0.070429,0.888753,0.157717,-0.219306,-0.040255,-0.192368,0.101763,0.368974,0.343598,-0.004322,0.097624,-0.001805,-0.050263,0.116736,0.182215,-0.017846,0.130922,0.808756,1.268869,0.210724,-0.153683,0.255739,-0.020875,-0.177255,0.650979,-0.9202030000000002,0.186974,0.088409
0.291556,1.108117,0.786964,0.017072,-0.057947,0.355095,0.932876,0.30583,0.070978,0.889213,0.158693,-0.219174,-0.040353,-0.193218,0.10246,0.36925,0.344976,-0.004211,0.097625,-0.001404,-0.051108,0.117501,0.178816,-0.01626,0.1301,0.806525,1.271211,0.209704,-0.150862,0.256885,-0.020584,-0.178336,0.648831,-0.918416,0.186032,0.087654
0.291728,1.107615,0.786967,0.017271,-0.058003,0.354672,0.93303,0.305605,0.071803,0.890121,0.159972,-0.219082,-0.040631,-0.194367,0.103963,0.370113,0.347492,-0.00405,0.096771,-0.001157,-0.052069,0.118225,0.173298,-0.012995,0.130436,0.807643,1.272069,0.210582,-0.1505,0.259597,-0.021407,-0.178139,0.648365,-0.918348,0.185024,0.085178
0.291985,1.107003,0.786968,0.017427,-0.057942,0.353781,0.933369,0.305061,0.073234,0.891968,0.162157,-0.219164,-0.041226,-0.196331,0.106294,0.371283,0.350887,-0.004111,0.094592,-0.001003,-0.053153,0.118811,0.166605,-0.005399,0.13045,0.813548,1.275952,0.209698,-0.149764,0.266307,-0.023928,-0.174986,0.646662,-0.920884,0.185012,0.085943
0.292307,1.106267,0.787025,0.017394,-0.057524,0.352198,0.9339940000000002,0.3038,0.075198,0.89526,0.16478,-0.219116,-0.042137,-0.198607,0.108737,0.372322,0.352295,-0.002956,0.093582,-0.000953,-0.054299,0.119116,0.157565,0.002296,0.127052,0.820504,1.284674,0.211066,-0.14938,0.269837,-0.025712,-0.172385,0.647788,-0.923452,0.187939,0.088305
0.292664,1.105419,0.78724,0.016864,-0.056377,0.350064,0.934876,0.300915,0.07769,0.899918,0.167045,-0.218319,-0.043122,-0.200782,0.110432,0.372119,0.34878,0.000511,0.092305,-0.001056,-0.055393,0.118992,0.144225,0.00809,0.123102,0.830016,1.295605,0.21385,-0.150618,0.267958,-0.023474,-0.169748,0.649073,-0.924528,0.197801,0.089873
0.293088,1.104497,0.787685,0.015833,-0.054339,0.347374,0.936017,0.295797,0.081031,0.905918,0.170019,-0.21715,-0.04423,-0.205118,0.110207,0.364388,0.344193,0.002357,0.083241,-0.001314,-0.056633,0.11856,0.131899,0.015006,0.121481,0.836577,1.303661,0.216381,-0.150929,0.268393,-0.021625,-0.170371,0.650093,-0.9218710000000001,0.203575,0.090498
0.293624,1.103397,0.789183,0.014935,-0.051869,0.343551,0.937582,0.290069,0.084136,0.9142380000000001,0.1729,-0.215003,-0.04565,-0.217562,0.092929,0.312613,0.343178,-0.004214,0.055817,0.000152,-0.05823,0.118395,0.121266,0.021269,0.119993,0.839511,1.309215,0.216437,-0.149189,0.27016,-0.019546,-0.171855,0.651206,-0.918152,0.207713,0.090645
0.294477,1.102503,0.789518,0.014281,-0.048893,0.338596,0.939552,0.284849,0.086181,0.924783,0.174751,-0.212082,-0.04775,-0.233921,0.051487,0.206412,0.35047,-0.024161,0.018558,0.003543,-0.059898,0.118923,0.111852,0.026784,0.117509,0.839359,1.313202,0.213983,-0.146603,0.272564,-0.0177,-0.171065,0.652664,-0.916394,0.209159,0.088435
0.295567,1.101718,0.789465,0.014098,-0.045397,0.334171,0.941313,0.279412,0.087187,0.9340560000000001,0.176773,-0.209573,-0.05046,-0.250171,0.001523,0.092037,0.365713,-0.047417,-0.003968,0.006324,-0.061324,0.119879,0.10103,0.027598,0.11403,0.840658,1.314239,0.214403,-0.141754,0.279522,-0.016048,-0.167289,0.649915,-0.915193,0.207738,0.088743
0.296915,1.101062,0.789156,0.014548,-0.041347,0.329323,0.9432,0.274004,0.086779,0.9439860000000002,0.17935,-0.208356,-0.053673,-0.265489,-0.054176,-0.023463,0.388612,-0.066939,-0.022818,0.008529,-0.062923,0.120822,0.093338,0.029917,0.112642,0.8384,1.311072,0.214541,-0.136673,0.283241,-0.016771,-0.161325,0.649903,-0.916881,0.206731,0.092634
0.298749,1.100486,0.788626,0.015897,-0.036946,0.322077,0.945859,0.270568,0.084591,0.958077,0.181838,-0.207915,-0.058502,-0.278188,-0.119141,-0.154671,0.418628,-0.079709,-0.02852,0.011424,-0.06523,0.121648,0.089973,0.031338,0.113896,0.832602,1.303036,0.214646,-0.129191,0.282974,-0.018411,-0.154962,0.651817,-0.919523,0.206921,0.098749
0.301152,1.099893,0.787993,0.018394,-0.031972,0.313217,0.948965,0.267793,0.08023,0.975031,0.184898,-0.207973,-0.064362,-0.282606,-0.199154,-0.319041,0.456177,-0.093639,-0.037048,0.015514,-0.068598,0.122184,0.09043,0.032697,0.113895,0.82604,1.295078,0.211929,-0.124338,0.280494,-0.021311,-0.148014,0.654429,-0.923798,0.206255,0.103106
0.30416,1.099281,0.787733,0.021509,-0.02625,0.304026,0.952059,0.264124,0.074968,0.992429,0.189239,-0.208492,-0.07063,-0.267768,-0.287503,-0.512448,0.490722,-0.115025,-0.062767,0.02034,-0.072886,0.122101,0.092732,0.032225,0.116276,0.818925,1.28422,0.211246,-0.118546,0.277646,-0.024336,-0.142271,0.654736,-0.927297,0.202522,0.100329
0.307562,1.098846,0.789114,0.025387,-0.020093,0.294374,0.955142,0.260236,0.069855,1.010064,0.19641,-0.210066,-0.077954,-0.230565,-0.36544,-0.718949,0.517889,-0.141764,-0.087706,0.025073,-0.077842,0.121082,0.096683,0.030848,0.118414,0.814301,1.273707,0.213014,-0.111468,0.275525,-0.027537,-0.137425,0.651855,-0.928966,0.195799,0.094622
0.311742,1.098568,0.788282,0.029353,-0.014157,0.284762,0.958044,0.2569,0.06687,1.026519,0.207858,-0.213109,-0.086496,-0.183255,-0.417433,-0.896736,0.533506,-0.165608,-0.104388,0.027598,-0.082055,0.120039,0.102286,0.030105,0.117786,0.814233,1.267294,0.216188,-0.109629,0.272842,-0.032218,-0.132247,0.646326,-0.931212,0.188742,0.089702
0.316806,1.098451,0.785492,0.033183,-0.009459,0.275753,0.960609,0.256331,0.067796,1.040325,0.224544,-0.217425,-0.098151,-0.144417,-0.438705,-1.011498,0.54157,-0.182282,-0.116299,0.026422,-0.084537,0.120208,0.112375,0.031888,0.119995,0.813066,1.260107,0.216191,-0.111788,0.264472,-0.036486,-0.132202,0.641921,-0.929186,0.181429,0.075392
0.323349,1.097854,0.784913,0.036043,-0.007311,0.26734,0.9629,0.260623,0.075158,1.050621,0.244539,-0.218092,-0.112189,-0.130895,-0.429442,-1.03612,0.532954,-0.2076,-0.121789,0.020678,-0.084671,0.122302,0.12386,0.032315,0.120235,0.815249,1.256272,0.220272,-0.112758,0.258203,-0.038393,-0.131274,0.637135,-0.924907,0.173435,0.057527
0.33038,1.097335,0.784932,0.03683,-0.0077,0.257069,0.96566,0.269334,0.089894,1.060928,0.26718,-0.207262,-0.126407,-0.128298,-0.402829,-1.009472,0.514641,-0.231691,-0.128741,0.01428,-0.082371,0.124959,0.140333,0.035951,0.122436,0.818381,1.25077,0.226044,-0.110541,0.253661,-0.039587,-0.130597,0.635107,-0.9185160000000001,0.163157,0.045293
0.338254,1.096622,0.785865,0.037208,-0.009205,0.242591,0.969371,0.278907,0.11386,1.074963,0.305668,-0.186047,-0.139684,-0.126705,-0.379322,-0.979567,0.507341,-0.244085,-0.128915,0.010791,-0.078554,0.127227,0.15501,0.037048,0.128691,0.826228,1.246594,0.239286,-0.104416,0.24125,-0.039388,-0.123669,0.640299,-0.916735,0.157493,0.037464
0.347008,1.095975,0.789494,0.037118,-0.012539,0.224088,0.973781,0.289062,0.152455,1.086691,0.375113,-0.150883,-0.152413,-0.122789,-0.3543,-0.945279,0.505014,-0.252408,-0.13058,0.010106,-0.074194,0.12848,0.166856,0.035488,0.134211,0.83666,1.248809,0.263736,-0.106318,0.219562,-0.038825,-0.11041,0.658633,-0.922994,0.158305,0.03501
0.356209,1.094914,0.790609,0.035723,-0.016294,0.202429,0.978509,0.289343,0.211421,1.088479,0.478223,-0.10693,-0.163071,-0.120503,-0.324783,-0.9053850000000001,0.505364,-0.266589,-0.1332,0.011352,-0.068887,0.128983,0.180453,0.034772,0.140364,0.843102,1.257293,0.287642,-0.115288,0.195419,-0.041534,-0.092368,0.679806,-0.931447,0.157235,0.044227
0.365788,1.093664,0.790088,0.03207,-0.0201,0.17951,0.983028,0.276172,0.287141,1.069104,0.607919,-0.051089,-0.143467,-0.116419,-0.288634,-0.865483,0.502762,-0.28352,-0.136094,0.01465,-0.06106,0.12908,0.193381,0.035585,0.140608,0.839012,1.262612,0.302218,-0.129024,0.169004,-0.04035,-0.068524,0.696408,-0.945987,0.156402,0.056693
0.37556,1.092725,0.787926,0.026062,-0.024005,0.156585,0.987029,0.239411,0.371816,1.010865,0.753311,0.0095,-0.083205,-0.110857,-0.249348,-0.826664,0.501316,-0.299778,-0.138594,0.02047,-0.048412,0.130639,0.20399,0.038252,0.137657,0.824643,1.264186,0.300101,-0.14276,0.14512,-0.042641,-0.042905,0.70291,-0.959299,0.144899,0.063608
0.385735,1.092356,0.784587,0.019301,-0.028942,0.131488,0.990707,0.162723,0.440707,0.884097,0.902313,0.05854,0.013652,-0.100476,-0.208439,-0.784726,0.497375,-0.313637,-0.138958,0.03202,-0.030696,0.135237,0.2139,0.038585,0.135587,0.801163,1.257563,0.282121,-0.149069,0.126435,-0.049485,-0.01689,0.698162,-0.970554,0.124752,0.063975
0.396388,1.092435,0.781716,0.013381,-0.035814,0.101858,0.994064,0.027416,0.439427,0.671723,1.03758,0.03955,0.03652,-0.084114,-0.1675,-0.734405,0.490131,-0.324866,-0.137463,0.050739,-0.012605,0.144107,0.22489,0.036722,0.134913,0.77183,1.246009,0.259308,-0.143158,0.112173,-0.057895,0.008865,0.68494,-0.977508,0.103124,0.05949
0.407689,1.092608,0.780413,0.011032,-0.041735,0.073019,0.996396,-0.110909,0.363989,0.45236,1.133929,0.000702,0.025089,-0.063793,-0.134832,-0.683049,0.47723,-0.332618,-0.133999,0.066364,0.000436,0.152508,0.236444,0.030087,0.136963,0.740465,1.229061,0.241337,-0.125887,0.100209,-0.066924,0.034154,0.665079,-0.979291,0.082552,0.052928
0.419617,1.09259,0.780432,0.010657,-0.045146,0.047719,0.997783,-0.216213,0.262827,0.276177,1.186103,-0.004171,-0.011003,-0.042156,-0.109022,-0.637187,0.458016,-0.336692,-0.129687,0.074878,0.008399,0.157607,0.247716,0.021544,0.137869,0.711653,1.210093,0.228264,-0.108225,0.089648,-0.076466,0.059464,0.642155,-0.978719,0.065219,0.047476
0.432139,1.092213,0.781002,0.010257,-0.046462,0.02281,0.998607,-0.288006,0.169444,0.14797,1.196044,0.002016,-0.02869,-0.022556,-0.085975,-0.593041,0.438536,-0.340181,-0.125417,0.078886,0.013021,0.159449,0.260136,0.014279,0.138508,0.684155,1.188267,0.216779,-0.097943,0.078342,-0.084569,0.087446,0.617708,-0.979258,0.051207,0.046661
0.445278,1.091248,0.781897,0.01138,-0.045955,-0.00511,0.998866,-0.337517,0.10202,0.067222,1.166391,0.00236,-0.031349,-0.005844,-0.066309,-0.543371,0.419197,-0.343237,-0.121053,0.081418,0.015198,0.159763,0.272744,0.006754,0.139432,0.656271,1.164818,0.208842,-0.09161,0.064378,-0.092989,0.120468,0.589246,-0.984352,0.038015,0.050316
0.45884,1.089505,0.782523,0.011337,-0.043842,-0.036487,0.998308,-0.372577,0.090443,0.04782,1.104956,-0.004885,-0.016588,0.005845,-0.044399,-0.486085,0.404655,-0.348025,-0.11788,0.084313,0.016558,0.159683,0.288003,0.003601,0.139226,0.629176,1.14597,0.203416,-0.086024,0.04861,-0.098021,0.155912,0.557176,-0.988739,0.020914,0.055327
0.472918,1.086871,0.782867,0.010546,-0.040373,-0.070966,0.9966060000000002,-0.394442,0.120422,0.085315,1.009505,-0.016616,0.013033,0.01695,-0.02042,-0.423298,0.389992,-0.353413,-0.115696,0.089228,0.018555,0.159256,0.303934,0.004563,0.137204,0.606822,1.134579,0.197559,-0.083401,0.033122,-0.09939700000000001,0.189276,0.524029,-0.986068,0.002629,0.06298
0.487592,1.083336,0.782716,0.008608,-0.035746,-0.103545,0.993945,-0.40949,0.159737,0.15605,0.889412,-0.020096,0.040536,0.03068,0.004021,-0.363008,0.374051,-0.360329,-0.113017,0.095285,0.021049,0.158893,0.316269,0.009533,0.132988,0.593723,1.129023,0.191103,-0.082007,0.022728,-0.09796,0.217034,0.490319,-0.97572,-0.011584,0.07662
0.502823,1.078775,0.781891,0.006483,-0.030549,-0.133024,0.990621,-0.421685,0.178595,0.224673,0.750699,-0.000639,0.039533,0.048687,0.027055,-0.30717,0.354733,-0.367947,-0.110042,0.09995,0.02274,0.158808,0.322378,0.017565,0.126357,0.592696,1.12904,0.186781,-0.088906,0.018818,-0.097461,0.24115,0.453486,-0.968678,-0.021763,0.088833
0.51856,1.07319,0.780116,0.005099,-0.025529,-0.156601,0.987319,-0.434569,0.169573,0.269714,0.601139,0.025899,0.002992,0.070802,0.045524,-0.260695,0.333854,-0.3759,-0.107175,0.102306,0.022484,0.159079,0.320946,0.031385,0.11471,0.601122,1.142755,0.185227,-0.098721,0.025792,-0.096519,0.257494,0.413961,-0.964314,-0.029381,0.095439
0.535026,1.0667,0.777411,0.004153,-0.020749,-0.173973,0.984523,-0.448638,0.135541,0.273506,0.444128,0.068008,-0.052224,0.09552,0.059272,-0.225431,0.315049,-0.386121,-0.104667,0.103331,0.019666,0.160181,0.311525,0.050813,0.097622,0.616573,1.169937,0.185048,-0.112566,0.045516,-0.09094600000000001,0.261873,0.375798,-0.95488,-0.031713,0.092899
0.552376,1.059371,0.773991,0.003948,-0.016508,-0.187533,0.982112,-0.458797,0.089375,0.23742,0.28353,0.103531,-0.108075,0.122729,0.069076,-0.196965,0.29838,-0.398609,-0.103313,0.102309,0.014619,0.161696,0.298732,0.071117,0.080224,0.633132,1.205624,0.183256,-0.129106,0.072055,-0.08407,0.261332,0.343917,-0.947705,-0.028627,0.083501
0.570838,1.051423,0.769883,0.003849,-0.01412,-0.200017,0.979683,-0.476269,0.047051,0.169545,0.167378,0.0942,-0.142918,0.15199,0.074973,-0.171454,0.290771,-0.416198,-0.10161,0.10095,0.007984,0.164434,0.287866,0.087201,0.071956,0.644621,1.240105,0.182603,-0.145208,0.101814,-0.075816,0.258321,0.326283,-0.940265,-0.014071,0.077733
0.590304,1.042986,0.765206,0.004086,-0.013251,-0.209359,0.977741,-0.489947,0.013802,0.105375,0.101863,0.047946,-0.166364,0.182339,0.076893,-0.15208,0.292311,-0.438244,-0.098494,0.099111,0.001,0.16719,0.278706,0.098847,0.068502,0.649115,1.27365,0.180645,-0.160139,0.130686,-0.070255,0.25456,0.322349,-0.935363,0.004921,0.078529
0.610627,1.034312,0.760284,0.002951,-0.014004,-0.213722,0.97679,-0.505293,-0.004617,0.083712,0.116083,0.026946,-0.19104,0.21117,0.077621,-0.143532,0.308701,-0.460022,-0.095724,0.09561,-0.005429,0.170396,0.268978,0.107858,0.068107,0.644852,1.30707,0.176032,-0.16454,0.155597,-0.070871,0.252794,0.33399,-0.953655,0.033033,0.08378
0.631593,1.025482,0.756572,0.001994,-0.015844,-0.217672,0.975891,-0.509486,-0.015127,0.088757,0.17351,0.061355,-0.170385,0.234563,0.074559,-0.139286,0.340875,-0.472694,-0.095468,0.092574,-0.011693,0.173381,0.257082,0.110805,0.078409,0.641462,1.338248,0.166661,-0.157193,0.179912,-0.07318,0.251299,0.362289,-0.982098,0.065174,0.096271
0.653624,1.016194,0.757775,0.00172,-0.019347,-0.226447,0.97383,-0.519665,-0.024062,0.078531,0.274644,0.07834,-0.1272,0.253746,0.067231,-0.12883,0.393649,-0.464229,-0.09340300000000001,0.094862,-0.018777,0.17637,0.251621,0.101325,0.10244,0.62992,1.353415,0.164521,-0.140668,0.196078,-0.075585,0.25026,0.410191,-1.009563,0.09779,0.117198
0.67631,1.006742,0.757355,0.002423,-0.023285,-0.24015,0.970453,-0.517175,-0.03259,0.067087,0.348156,0.10816,-0.037779,0.262594,0.052708,-0.114362,0.458205,-0.418014,-0.093297,0.100566,-0.02678,0.178267,0.251525,0.079731,0.135667,0.614056,1.352048,0.168571,-0.111889,0.20349,-0.078021,0.2411,0.481448,-1.022842,0.133878,0.137429
0.699823,0.996941,0.753129,0.00285,-0.028812,-0.253674,0.966856,-0.495331,-0.026457,0.083283,0.405461,0.155031,0.011594,0.25787,0.033161,-0.103759,0.556819,-0.342772,-0.093927,0.105912,-0.035858,0.179265,0.263134,0.051787,0.17304,0.60793,1.335203,0.170225,-0.0655,0.212319,-0.076542,0.214007,0.569046,-1.009549,0.172399,0.151228
0.722518,0.987481,0.753837,0.00486,-0.035947,-0.265907,0.963316,-0.479031,-0.018894,0.109479,0.470656,0.121502,0.046549,0.22425,0.003591,-0.099152,0.701346,-0.235683,-0.077437,0.110947,-0.046237,0.181384,0.251789,0.016355,0.200084,0.613489,1.313041,0.184811,-0.036404,0.224218,-0.07323,0.165672,0.659747,-0.981774,0.229194,0.163393
0.745424,0.977933,0.755037,0.008236,-0.043597,-0.27802,0.95955,-0.455071,-0.014424,0.13712,0.531759,0.056517,0.055989,0.161688,-0.037177,-0.099909,0.889018,-0.128131,-0.036399,0.115179,-0.057417,0.184165,0.239271,-0.012412,0.219913,0.634233,1.285014,0.19024,-0.013289,0.226561,-0.075169,0.116606,0.7532,-0.961237,0.28573,0.15714
0.768246,0.968321,0.756563,0.01161,-0.050381,-0.290145,0.955585,-0.417545,-0.013193,0.163083,0.565841,-0.005155,0.058205,0.076664,-0.090337,-0.105908,1.077622,-0.012665,-0.00164,0.117005,-0.068953,0.186572,0.216467,-0.027908,0.215454,0.658489,1.264451,0.197436,-0.022229,0.22366,-0.083234,0.093272,0.825132,-0.9708540000000001,0.329927,0.150513
0.790532,0.9586730000000001,0.759221,0.015447,-0.056538,-0.301107,0.951787,-0.370325,-0.017595,0.18711,0.575225,-0.053212,0.060492,-0.010039,-0.152689,-0.113657,1.218705,0.032004,-0.003516,0.114498,-0.080373,0.188571,0.183681,-0.024412,0.184612,0.68609,1.273806,0.200205,-0.048062,0.22289,-0.097961,0.091254,0.862249,-0.991263,0.340279,0.149121
0.812033,0.948662,0.763031,0.017398,-0.062239,-0.308967,0.9488740000000001,-0.315243,-0.02407,0.204454,0.565152,-0.08998,0.062189,-0.096051,-0.191435,-0.113308,1.309929,-0.031886,-0.041696,0.10671,-0.090532,0.190761,0.14663,-0.010399,0.137657,0.706552,1.301692,0.1905,-0.06903,0.228695,-0.115687,0.098889,0.863977,-1.008223,0.310641,0.157449
0.832715,0.9383570000000001,0.767786,0.017914,-0.066828,-0.315989,0.9462370000000001,-0.25354,-0.030584,0.217911,0.535523,-0.11558,0.062418,-0.180428,-0.21252,-0.111072,1.356495,-0.060369,-0.060126,0.094997,-0.097622,0.192012,0.111095,0.00503,0.083644,0.716145,1.338606,0.173677,-0.075381,0.241615,-0.130045,0.087463,0.834773,-1.004175,0.276182,0.157824
0.852821,0.927767,0.772939,0.017464,-0.069557,-0.322032,0.944008,-0.189308,-0.03707,0.22823,0.492128,-0.133054,0.061451,-0.258241,-0.220938,-0.111073,1.353173,-0.046742,-0.054306,0.080778,-0.101107,0.190904,0.079986,0.013608,0.034508,0.712448,1.361576,0.148927,-0.073,0.261157,-0.133081,0.049451,0.786535,-0.965855,0.247792,0.141819
0.872467,0.9169250000000002,0.777714,0.016856,-0.070386,-0.327095,0.942216,-0.127766,-0.04362,0.236371,0.444374,-0.146453,0.059509,-0.3275,-0.215834,-0.113636,1.302378,-0.040887,-0.050836,0.065749,-0.101589,0.187286,0.054114,0.018473,-0.006975,0.695198,1.366895,0.12326,-0.068508,0.283224,-0.127855,0.00506,0.733123,-0.908295,0.219639,0.119962
0.89192,0.905822,0.781609,0.016204,-0.069703,-0.330767,0.940995,-0.070883,-0.05044,0.24178,0.398445,-0.159229,0.057089,-0.382218,-0.207508,-0.124827,1.207673,-0.045323,-0.054205,0.051258,-0.100097,0.18133,0.033208,0.020647,-0.041514,0.667364,1.349478,0.09772,-0.069689,0.304728,-0.119664,-0.033142,0.683043,-0.848338,0.197424,0.099634
0.911335,0.894406,0.784194,0.016213,-0.067209,-0.332731,0.940484,-0.022667,-0.057935,0.243269,0.361277,-0.175254,0.055051,-0.420468,-0.198427,-0.144346,1.070173,-0.039286,-0.052678,0.037777,-0.0977,0.173559,0.013908,0.02477,-0.07568,0.631397,1.31508,0.070075,-0.075968,0.323547,-0.111097,-0.060239,0.638704,-0.794204,0.180457,0.081857
0.93094,0.882674,0.785086,0.017905,-0.063936,-0.333603,0.940372,0.019675,-0.068376,0.242423,0.331318,-0.195036,0.053673,-0.440656,-0.188463,-0.164927,0.891502,-0.028294,-0.03915,0.025303,-0.095031,0.165641,-0.006047,0.033759,-0.115261,0.590126,1.278693,0.044048,-0.08241,0.337091,-0.107366,-0.070688,0.601715,-0.766204,0.17201,0.071521
0.9509,0.870526,0.784163,0.020285,-0.060665,-0.334416,0.940252,0.062616,-0.080009,0.241393,0.301407,-0.216048,0.050838,-0.442925,-0.163314,-0.167899,0.677342,-0.015341,-0.022106,0.014507,-0.092743,0.157719,-0.025134,0.048365,-0.156293,0.547393,1.245674,0.021112,-0.090113,0.346969,-0.103907,-0.072515,0.572384,-0.760738,0.167752,0.062529
0.9712670000000002,0.857843,0.781732,0.022744,-0.057353,-0.335536,0.940005,0.108518,-0.091219,0.241693,0.268243,-0.236184,0.044792,-0.431576,-0.126983,-0.142788,0.450179,-0.006512,-0.002885,0.005852,-0.090298,0.15058,-0.042298,0.065728,-0.192658,0.502352,1.219254,0.009619,-0.096652,0.352389,-0.096026,-0.072438,0.553791,-0.768999,0.167093,0.053988
0.991986,0.844625,0.778008,0.024696,-0.055638,-0.338334,0.939055,0.157699,-0.101892,0.244163,0.239099,-0.258896,0.037799,-0.415048,-0.096787,-0.114473,0.257116,-0.011286,0.005137,0.000944,-0.08745,0.145964,-0.05454,0.081812,-0.220293,0.457493,1.19307,0.006482,-0.099811,0.354363,-0.086407,-0.06912,0.54701,-0.789427,0.169907,0.047551
1.012716,0.830967,0.772853,0.027189,-0.056877,-0.343009,0.9372140000000002,0.20088,-0.112889,0.249992,0.234635,-0.291074,0.03218,-0.42275,-0.087631,-0.130849,0.181854,-0.033612,0.020368,0.000683,-0.084758,0.145281,-0.061963,0.0938,-0.239338,0.419045,1.169222,0.014826,-0.10116,0.354383,-0.078807,-0.062577,0.549159,-0.81919,0.173494,0.041614
1.033179,0.816898,0.767081,0.028737,-0.057825,-0.349151,0.934839,0.233201,-0.119366,0.258036,0.25219,-0.329656,0.029998,-0.433539,-0.092725,-0.201567,0.185056,-0.032709,0.039729,0.003493,-0.082397,0.145638,-0.066653,0.105,-0.251473,0.389382,1.156057,0.032651,-0.101327,0.350305,-0.068896,-0.055613,0.560046,-0.849506,0.180479,0.036437
1.053456,0.802101,0.76199,0.028047,-0.05824,-0.351993,0.933768,0.259211,-0.118213,0.260409,0.283447,-0.360981,0.024012,-0.4384,-0.09448,-0.244302,0.234182,-0.019565,0.021752,0.002703,-0.077261,0.145671,-0.066089,0.109725,-0.256091,0.371484,1.150614,0.049405,-0.09828700000000001,0.34707,-0.055839,-0.052012,0.573424,-0.876931,0.189858,0.028975
1.073681,0.786406,0.759125,0.024467,-0.058945,-0.347562,0.935483,0.280968,-0.106241,0.252841,0.327982,-0.364052,0.007467,-0.442022,-0.083527,-0.225511,0.313358,-0.004224,-0.019535,-0.003714,-0.068799,0.145372,-0.060122,0.105579,-0.256059,0.369178,1.150489,0.074195,-0.09676100000000001,0.34967,-0.036904,-0.058339,0.583815,-0.893167,0.199939,0.014293
1.094355,0.769727,0.760498,0.019506,-0.059192,-0.338707,0.938826,0.297116,-0.088194,0.237422,0.391308,-0.329052,0.001165,-0.436607,-0.067874,-0.195427,0.380949,0.027323,-0.082593,-0.011417,-0.058767,0.144646,-0.052886,0.101123,-0.259337,0.379683,1.161632,0.095799,-0.097057,0.358374,-0.009841,-0.07839,0.589149,-0.887781,0.208778,-0.005252
1.114337,0.753184,0.76065,0.013009,-0.059827,-0.33019,0.941927,0.288342,-0.06394,0.215123,0.49116,-0.262902,0.000776,-0.4214,-0.072607,-0.212659,0.444718,0.03796,-0.125676,-0.016435,-0.047245,0.145432,-0.041715,0.098686,-0.260838,0.401295,1.181125,0.116737,-0.100351,0.368833,0.018111,-0.098701,0.595579,-0.87258,0.215041,-0.022673
1.133735,0.737032,0.760929,0.004423,-0.060364,-0.320798,0.945212,0.25154,-0.023216,0.207232,0.640237,-0.170809,-0.002339,-0.411374,-0.077943,-0.236491,0.517638,-0.00476,-0.139263,-0.021224,-0.033759,0.148968,-0.025518,0.095546,-0.254378,0.429542,1.200282,0.138804,-0.103701,0.375387,0.041183,-0.110222,0.609103,-0.861305,0.222632,-0.034169
1.152802,0.721026,0.759673,-0.005493,-0.059893,-0.310068,0.94881,0.180983,0.028221,0.195112,0.839636,-0.080317,-0.02389,-0.39529,-0.078545,-0.260298,0.581698,-0.071533,-0.138655,-0.024003,-0.018297,0.154257,-0.00796,0.091806,-0.241771,0.463105,1.219933,0.165506,-0.105813,0.373396,0.056715,-0.109317,0.630188,-0.856879,0.227921,-0.032888
1.172256,0.704989,0.759004,-0.014434,-0.060005,-0.299932,0.951962,0.090791,0.080177,0.174677,1.043959,0.017519,-0.065619,-0.362003,-0.075592,-0.283299,0.615994,-0.130708,-0.134668,-0.023061,-0.002067,0.159323,0.010093,0.081172,-0.21936,0.504234,1.230233,0.193771,-0.097091,0.363698,0.058981,-0.094647,0.653998,-0.868495,0.230163,-0.028574
1.192079,0.689341,0.76001,-0.022155,-0.060769,-0.291715,0.954316,-0.001136,0.119999,0.146775,1.201872,0.06847,-0.078668,-0.318686,-0.07052,-0.303078,0.630528,-0.178573,-0.126358,-0.017147,0.013427,0.164218,0.026773,0.06551,-0.187701,0.55417,1.233191,0.228513,-0.073218,0.34829,0.052826,-0.076067,0.677465,-0.88833,0.231416,-0.020259
1.212136,0.674022,0.762841,-0.027348,-0.063133,-0.287892,0.955188,-0.08425,0.143842,0.127977,1.298995,0.023415,-0.052195,-0.264648,-0.062249,-0.314045,0.622272,-0.213573,-0.115964,-0.007986,0.025653,0.167992,0.047394,0.045873,-0.142802,0.607137,1.223779,0.26579,-0.036492,0.328537,0.041579,-0.05975,0.697986,-0.909372,0.23406,-0.008364
1.232187,0.659205,0.766689,-0.031001,-0.065324,-0.288019,0.954891,-0.160051,0.161821,0.122309,1.346113,-0.003837,-0.027722,-0.206817,-0.050243,-0.316579,0.597939,-0.237255,-0.106396,0.003153,0.034005,0.17078,0.072304,0.028776,-0.08698,0.65442,1.205962,0.308693,0.003563,0.30436,0.033203,-0.055961,0.709439,-0.91624,0.234463,-0.000477
1.252075,0.64491,0.770678,-0.033824,-0.066456,-0.292186,0.95345,-0.224635,0.181494,0.130766,1.34085,-0.002975,-0.027807,-0.15076,-0.034851,-0.310213,0.566118,-0.25388,-0.097588,0.014938,0.039056,0.171433,0.102945,0.011817,-0.019863,0.687758,1.162787,0.338358,0.034188,0.278965,0.024423,-0.057904,0.713588,-0.917213,0.236277,0.006216
1.271727,0.630924,0.774264,-0.035452,-0.065902,-0.299001,0.9513140000000002,-0.278384,0.198507,0.147282,1.287005,-0.0078,-0.030392,-0.09997,-0.019276,-0.297562,0.533957,-0.268439,-0.089226,0.027174,0.041773,0.170189,0.136576,0.00603,0.039398,0.712203,1.116519,0.357333,0.045018,0.254486,0.016742,-0.061577,0.704634,-0.908034,0.226392,0.011752
1.291172,0.617248,0.777143,-0.035568,-0.063833,-0.307189,0.948839,-0.321533,0.207416,0.168606,1.188384,-0.025854,-0.019073,-0.056457,-0.007284,-0.281028,0.508125,-0.284668,-0.080829,0.039076,0.042665,0.1678,0.171141,0.009108,0.081847,0.728341,1.073163,0.355652,0.034291,0.232609,0.005514,-0.062338,0.683322,-0.894682,0.210796,0.012558
1.310298,0.603929,0.779122,-0.034912,-0.060251,-0.315367,0.946411,-0.350969,0.212883,0.197113,1.049682,-0.044502,-0.009841,-0.021107,0.000962,-0.264068,0.491276,-0.303359,-0.072819,0.049988,0.042471,0.164677,0.200734,0.022883,0.094505,0.742545,1.054896,0.350882,0.003232,0.212532,-0.008732,-0.062065,0.657075,-0.878774,0.185046,0.00554
1.329061,0.590852,0.780221,-0.034071,-0.055477,-0.322813,0.944221,-0.363758,0.213971,0.233246,0.868572,-0.03169,-0.008383,0.010099,0.007906,-0.247589,0.476478,-0.320994,-0.066105,0.059267,0.041613,0.160825,0.227712,0.048126,0.085213,0.759197,1.064203,0.334868,-0.041901,0.196861,-0.023405,-0.059112,0.624769,-0.860283,0.16171,-0.004886
1.347485,0.578028,0.779859,-0.032909,-0.049824,-0.329826,0.942152,-0.359609,0.207559,0.27945,0.652067,0.005401,-0.012965,0.037016,0.013372,-0.230716,0.464329,-0.337923,-0.057567,0.066124,0.040743,0.156426,0.250608,0.074492,0.070016,0.775431,1.092239,0.314112,-0.085197,0.184612,-0.036029,-0.057514,0.590644,-0.839623,0.147116,-0.013716
1.365656,0.565401,0.777918,-0.031422,-0.045542,-0.337436,0.939721,-0.349208,0.167787,0.271255,0.428728,0.054524,-0.045589,0.060327,0.015433,-0.212105,0.462132,-0.348765,-0.050191,0.073028,0.038354,0.152602,0.269829,0.097213,0.055317,0.792973,1.126535,0.292139,-0.127546,0.179599,-0.043352,-0.061139,0.555052,-0.820353,0.138618,-0.017107
1.383569,0.552909,0.774892,-0.030588,-0.043467,-0.345292,0.936989,-0.345564,0.106064,0.171157,0.254357,0.104758,-0.086304,0.074672,0.014961,-0.190937,0.487262,-0.359067,-0.044557,0.080079,0.033436,0.151242,0.282945,0.108932,0.042765,0.809325,1.167429,0.283245,-0.168386,0.172627,-0.047835,-0.063993,0.53074,-0.797883,0.137913,-0.025568
1.401307,0.540829,0.771432,-0.031168,-0.044585,-0.352371,0.934278,-0.359402,0.04597,0.025041,0.197712,0.120894,-0.119841,0.07382,0.010114,-0.170813,0.558385,-0.364172,-0.044009,0.084463,0.027122,0.15363,0.292852,0.11479,0.034492,0.821965,1.208194,0.284731,-0.199508,0.169878,-0.049699,-0.066574,0.516246,-0.779566,0.143077,-0.029802
1.419272,0.528953,0.771179,-0.030055,-0.050316,-0.356385,0.932499,-0.357565,-0.010224,-0.082682,0.210643,0.158379,-0.163757,0.066566,-0.005136,-0.155116,0.664169,-0.353088,-0.048606,0.082964,0.020075,0.157482,0.298755,0.112225,0.020188,0.834726,1.248335,0.275293,-0.225476,0.17212,-0.054591,-0.06975,0.509491,-0.765101,0.151876,-0.029059
1.437228,0.517568,0.764243,-0.029706,-0.059652,-0.360552,0.930355,-0.356116,-0.048821,-0.121579,0.306227,0.203829,-0.120952,0.055942,-0.026873,-0.143614,0.781828,-0.324576,-0.057978,0.077638,0.012813,0.162697,0.302591,0.102358,0.013859,0.842677,1.276358,0.260879,-0.23912,0.174424,-0.063535,-0.063778,0.513891,-0.763125,0.164657,-0.021232
1.454167,0.507462,0.761766,-0.027411,-0.071676,-0.369011,0.926252,-0.358804,-0.064235,-0.088308,0.407544,0.166724,-0.031829,0.048977,-0.05557,-0.130505,0.883487,-0.2793,-0.0747,0.071326,0.003641,0.168581,0.302526,0.0861,0.016053,0.843797,1.295418,0.248044,-0.240297,0.173952,-0.076313,-0.048203,0.52561,-0.772755,0.174033,-0.004456
1.470439,0.497345,0.759482,-0.026657,-0.084122,-0.38127,0.920242,-0.347897,-0.066372,-0.049939,0.496693,0.093948,-0.01217,0.035776,-0.085316,-0.119708,0.987964,-0.22078,-0.091369,0.068561,-0.008787,0.17482,0.295297,0.069908,0.029082,0.842195,1.309837,0.250481,-0.222218,0.17105,-0.08493,-0.024628,0.545174,-0.801692,0.185872,0.012664
1.485351,0.487568,0.760643,-0.027347,-0.093957,-0.395798,0.913109,-0.319898,-0.058091,-0.014447,0.544961,0.04057,-0.003337,0.010499,-0.118866,-0.120319,1.089066,-0.149439,-0.09271,0.068752,-0.021821,0.179346,0.278209,0.053696,0.047875,0.837411,1.323178,0.271605,-0.1857,0.170427,-0.079758,-0.005818,0.574534,-0.845575,0.209598,0.008409
1.498448,0.478861,0.762685,-0.026392,-0.100828,-0.409183,0.90648,-0.284543,-0.051632,0.018546,0.554182,0.011676,0.00299,-0.015205,-0.165919,-0.137884,1.159815,-0.070723,-0.083427,0.067366,-0.0346,0.180429,0.248699,0.036965,0.064407,0.834656,1.336016,0.283462,-0.142593,0.178543,-0.066442,0.00013,0.602096,-0.880712,0.232058,0.001803
1.509717,0.471172,0.766005,-0.025195,-0.103979,-0.417252,0.902471,-0.248397,-0.049592,0.04156,0.536177,0.00152,0.008747,-0.023487,-0.224385,-0.182282,1.185508,0.017688,-0.084829,0.062685,-0.047767,0.177225,0.216331,0.024354,0.071388,0.818273,1.339524,0.288648,-0.115359,0.189415,-0.047195,-0.004495,0.624403,-0.900884,0.248651,-0.000977
1.519104,0.464497,0.769675,-0.02385,-0.105159,-0.419488,0.901334,-0.21796,-0.051905,0.055607,0.511475,0.001617,0.015093,-0.008184,-0.285878,-0.247911,1.177294,0.089694,-0.083805,0.054128,-0.060632,0.170779,0.175788,0.021981,0.075029,0.806833,1.333353,0.27583,-0.093011,0.215976,-0.03112,-0.018815,0.630986,-0.899638,0.24623,-0.001199
1.526746,0.459025,0.773092,-0.022416,-0.104343,-0.419996,0.901229,-0.196506,-0.054473,0.065088,0.49065,0.004534,0.02097,0.02176,-0.337915,-0.320726,1.149297,0.134687,-0.0891,0.043702,-0.072404,0.163214,0.119442,0.022926,0.072707,0.795406,1.317839,0.249578,-0.093249,0.245259,-0.018635,-0.032895,0.631131,-0.894786,0.242959,-0.007283
1.532718,0.454913,0.775967,-0.020577,-0.10186,-0.421792,0.900718,-0.182783,-0.054712,0.074942,0.474216,0.006137,0.024761,0.056895,-0.378929,-0.393901,1.113712,0.154073,-0.096252,0.033711,-0.082405,0.155648,0.061898,0.028387,0.063585,0.777132,1.30073,0.220785,-0.094821,0.27615,-0.011236,-0.045341,0.621152,-0.890244,0.24206,-0.013441
1.537167,0.452489,0.778126,-0.017569,-0.098441,-0.428718,0.897887,-0.173509,-0.052799,0.089752,0.458228,0.0039,0.026548,0.081941,-0.403277,-0.444514,1.08039,0.147399,-0.103875,0.024811,-0.090753,0.149468,0.013489,0.043708,0.051775,0.73957,1.281876,0.194763,-0.095667,0.288088,-0.010771,-0.055113,0.621262,-0.886086,0.238581,-0.019674
1.540124,0.451748,0.77966,-0.014889,-0.094739,-0.441249,0.892245,-0.16641,-0.044992,0.112868,0.442936,-0.001024,0.0268,0.092832,-0.410924,-0.46523,1.050193,0.128272,-0.11607,0.017215,-0.097379,0.145134,-0.02566,0.063862,0.037159,0.690992,1.26628,0.175242,-0.081955,0.290398,-0.015047,-0.057741,0.626975,-0.884109,0.234016,-0.019003
1.541635,0.452655,0.78051,-0.012435,-0.090179,-0.458479,0.884031,-0.162249,-0.031096,0.144777,0.426838,-0.006943,0.026144,0.09168200000000001,-0.410625,-0.468363,1.0225,0.09941,-0.129637,0.012168,-0.101764,0.142441,-0.055516,0.08501,0.028673,0.636442,1.246469,0.16625,-0.052797,0.283177,-0.02314,-0.056079,0.635152,-0.885322,0.231233,-0.014057
1.541782,0.455213,0.780048,-0.00999,-0.08449,-0.48032,0.872957,-0.162557,-0.011406,0.184815,0.41071,-0.010116,0.024301,0.079044,-0.404576,-0.458955,0.996461,0.062413,-0.133425,0.008597,-0.103985,0.141279,-0.074812,0.107822,0.02829,0.582685,1.221805,0.164193,-0.024732,0.266925,-0.033426,-0.051253,0.643029,-0.891191,0.23063,-0.011152
1.540741,0.458744,0.781282,-0.007626,-0.078045,-0.505024,0.859536,-0.162839,0.0127,0.230641,0.390771,-0.006371,0.021054,0.065692,-0.39759,-0.449144,0.967175,0.020468,-0.128289,0.00694,-0.104096,0.140283,-0.085055,0.129246,0.036589,0.534734,1.191267,0.170096,0.001185,0.247194,-0.041023,-0.048607,0.645586,-0.893661,0.226673,-0.010996
1.53885,0.463376,0.782975,-0.005866,-0.070578,-0.532876,0.843225,-0.160989,0.041756,0.283097,0.365371,-0.001147,0.017044,0.048395,-0.387275,-0.4375,0.935525,-0.02174,-0.118907,0.006623,-0.101884,0.139511,-0.087833,0.150388,0.053871,0.494147,1.151515,0.177641,0.015946,0.226797,-0.044036,-0.049514,0.640659,-0.888196,0.215744,-0.016757
1.536226,0.468738,0.784858,-0.004289,-0.062859,-0.563338,0.823821,-0.155906,0.07461,0.342838,0.336083,0.007816,0.011834,0.028541,-0.375549,-0.42444,0.901693,-0.060249,-0.101294,0.007926,-0.097076,0.138576,-0.079592,0.169539,0.076344,0.464432,1.105984,0.187243,0.019154,0.20867,-0.046908,-0.047437,0.629181,-0.881824,0.201732,-0.02001
1.533056,0.474622,0.786656,-0.003808,-0.05449,-0.595072,0.801814,-0.151903,0.113943,0.407502,0.313984,0.018787,0.005159,0.00718,-0.3576,-0.405751,0.864766,-0.100043,-0.069857,0.010925,-0.089874,0.137595,-0.064054,0.19256,0.092857,0.442782,1.073711,0.202169,0.018663,0.193722,-0.048856,-0.040854,0.610695,-0.874905,0.186077,-0.022394
1.529368,0.480935,0.788191,-0.003474,-0.046156,-0.628144,0.776719,-0.150371,0.159678,0.477383,0.305127,0.027675,-0.003073,-0.016885,-0.342044,-0.389102,0.829402,-0.141629,-0.032134,0.016031,-0.081019,0.136786,-0.041222,0.217953,0.098358,0.429663,1.058097,0.218362,0.010099,0.182986,-0.051249,-0.028964,0.587096,-0.868865,0.167229,-0.025936
1.524922,0.487679,0.790567,-0.002608,-0.037956,-0.662327,0.748248,-0.146376,0.208783,0.552769,0.300921,0.036659,-0.012644,-0.026185,-0.361666,-0.432255,0.79066,-0.181991,-0.012165,0.025132,-0.072161,0.135332,-0.014956,0.238393,0.089007,0.430177,1.057497,0.233591,0.013857,0.182751,-0.053263,-0.012967,0.553902,-0.864906,0.14985,-0.02875
1.519802,0.494593,0.791588,-0.000298,-0.030503,-0.696351,0.717053,-0.13769,0.256761,0.633139,0.294179,0.048981,-0.023138,-0.011655,-0.425329,-0.569223,0.748169,-0.207923,-0.0192,0.03769,-0.065115,0.132951,0.018561,0.263467,0.071185,0.432849,1.066511,0.238218,0.005386,0.180299,-0.057899,0.000509,0.527583,-0.863356,0.136482,-0.024772
1.513783,0.501731,0.791782,0.003982,-0.023789,-0.728746,0.68436,-0.126773,0.302416,0.715697,0.287206,0.064558,-0.034253,0.031191,-0.498224,-0.786359,0.699218,-0.224162,-0.06507,0.052694,-0.061557,0.129852,0.043911,0.27895,0.052409,0.448982,1.082915,0.240212,-0.005406,0.181193,-0.059943,0.011487,0.505472,-0.860438,0.128812,-0.025746
1.506764,0.509172,0.790916,0.009668,-0.019001,-0.758682,0.651112,-0.111907,0.34404,0.798448,0.28032,0.082367,-0.046298,0.084796,-0.541674,-1.016431,0.647356,-0.23024,-0.100679,0.066756,-0.061081,0.127131,0.069192,0.289714,0.029319,0.468289,1.099293,0.233053,-0.023783,0.181298,-0.061021,0.026308,0.48842,-0.862205,0.124649,-0.027085
1.498653,0.516942,0.787668,0.015968,-0.016731,-0.784865,0.619235,-0.091684,0.378928,0.877833,0.269189,0.103195,-0.05947,0.110815,-0.551245,-1.174267,0.611747,-0.229071,-0.105663,0.073561,-0.06221,0.126469,0.094184,0.292686,0.006689,0.490698,1.113181,0.227225,-0.04516,0.18023,-0.06578,0.046045,0.474449,-0.869951,0.120684,-0.024944
1.488915,0.524254,0.786928,0.021598,-0.016239,-0.80658,0.590507,-0.065707,0.406636,0.950278,0.253443,0.129446,-0.073349,0.097241,-0.54158,-1.221791,0.603403,-0.254704,-0.057033,0.070418,-0.064494,0.1281,0.116176,0.292892,-0.016084,0.513403,1.129531,0.217866,-0.069398,0.177635,-0.073817,0.07139,0.461136,-0.882936,0.115373,-0.02107
1.477725,0.531488,0.785348,0.02504,-0.017288,-0.825696,0.563294,-0.032151,0.431928,1.016915,0.233983,0.158634,-0.08918,0.059378,-0.52194,-1.177253,0.611107,-0.291573,0.00788,0.060585,-0.067533,0.131511,0.146281,0.295115,-0.026541,0.528134,1.144042,0.204292,-0.089797,0.166563,-0.082299,0.105896,0.457056,-0.896982,0.103755,-0.015662
1.465587,0.538617,0.783192,0.025152,-0.017954,-0.843683,0.535952,0.00645,0.461672,1.076286,0.218116,0.185237,-0.102561,0.018843,-0.485688,-1.099243,0.610915,-0.323399,0.044073,0.049438,-0.070536,0.135334,0.175457,0.289943,-0.029392,0.54256,1.161852,0.202257,-0.096461,0.156456,-0.088577,0.149164,0.454724,-0.90904,0.089745,-0.004567
1.453097,0.545582,0.779875,0.02335,-0.015869,-0.860688,0.50835,0.038582,0.500235,1.11433,0.221306,0.172907,-0.112251,-0.018623,-0.444867,-1.031923,0.623711,-0.357888,0.024918,0.041075,-0.071049,0.139046,0.198082,0.272114,-0.01909,0.547061,1.180233,0.224351,-0.093518,0.138653,-0.090687,0.193594,0.457202,-0.917818,0.075377,0.002515
1.440666,0.551515,0.778181,0.019994,-0.012766,-0.876411,0.48098,0.054002,0.541521,1.104409,0.246046,0.095342,-0.112945,-0.045515,-0.399218,-0.974114,0.631639,-0.384791,0.006123,0.038382,-0.068193,0.142931,0.231927,0.236872,0.006612,0.54485,1.183621,0.255795,-0.072018,0.122274,-0.093925,0.237169,0.457732,-0.928337,0.070191,0.013006
1.428004,0.555859,0.778973,0.015289,-0.010214,-0.892763,0.450151,0.026074,0.569546,0.978953,0.307003,-0.010852,-0.055701,-0.05874,-0.344657,-0.914406,0.617891,-0.400594,-0.00976,0.047616,-0.063126,0.14817,0.2614,0.190075,0.043762,0.547173,1.169318,0.27973,-0.047659,0.113255,-0.098291,0.273709,0.449919,-0.934202,0.060029,0.014741
1.415088,0.558873,0.780219,0.011149,-0.011281,-0.911006,0.412088,-0.058527,0.54479,0.712539,0.416148,-0.068849,0.044964,-0.059158,-0.286451,-0.845333,0.578942,-0.401408,-0.023549,0.070873,-0.058683,0.154398,0.288899,0.133668,0.085925,0.552951,1.143895,0.299193,-0.03057,0.108386,-0.103479,0.302272,0.437601,-0.9333070000000001,0.052882,0.016298
1.402187,0.560459,0.782254,0.008742,-0.014121,-0.927951,0.372332,-0.157245,0.44824,0.423298,0.533067,-0.098009,0.005721,-0.053055,-0.23514,-0.772783,0.533703,-0.394171,-0.033998,0.095584,-0.055345,0.158464,0.316518,0.077013,0.121821,0.557018,1.112065,0.305773,-0.026824,0.102905,-0.11141,0.328408,0.422053,-0.92677,0.044475,0.017693
1.388945,0.560959,0.784618,0.009053,-0.017822,-0.942582,0.333375,-0.233598,0.307552,0.187788,0.628335,-0.111486,-0.02768,-0.043107,-0.191435,-0.701985,0.485087,-0.382672,-0.041822,0.114196,-0.052668,0.158672,0.347145,0.027136,0.143129,0.55763,1.090001,0.301207,-0.037807,0.092489,-0.12326,0.357991,0.40401,-0.919947,0.037684,0.021287
1.375262,0.560498,0.786194,0.010666,-0.02059,-0.955322,0.294655,-0.286722,0.177338,0.050188,0.700446,-0.122566,-0.053809,-0.034459,-0.155556,-0.631394,0.447864,-0.375176,-0.047044,0.125653,-0.049417,0.156217,0.383494,-0.015479,0.153065,0.55033,1.078493,0.283055,-0.054774,0.075829,-0.138583,0.39417,0.382907,-0.912726,0.029486,0.026757
1.360858,0.559575,0.786558,0.011806,-0.022056,-0.966601,0.255061,-0.331814,0.084768,-0.005778,0.751098,-0.124748,-0.074891,-0.025131,-0.122623,-0.559025,0.421573,-0.373888,-0.051697,0.133889,-0.044612,0.154045,0.422934,-0.050579,0.154526,0.537332,1.073374,0.251017,-0.080839,0.051766,-0.156467,0.435327,0.359061,-0.902477,0.015368,0.03325
1.345634,0.558442,0.785733,0.012973,-0.022415,-0.976451,0.214179,-0.379391,0.034439,0.003594,0.780972,-0.122427,-0.070655,-0.016431,-0.092396,-0.48344,0.406482,-0.379662,-0.056504,0.140145,-0.038169,0.153644,0.461424,-0.080141,0.152404,0.525541,1.074464,0.215388,-0.103647,0.020003,-0.175329,0.477083,0.335561,-0.890827,0.004507,0.037984
1.329422,0.557499,0.784092,0.013483,-0.021603,-0.984644,0.172709,-0.425244,0.025335,0.063439,0.782178,-0.110334,-0.051405,-0.003156,-0.061889,-0.407347,0.393853,-0.387768,-0.062909,0.145642,-0.030808,0.154796,0.492399,-0.10474,0.150464,0.521777,1.07404,0.185276,-0.126231,-0.015993,-0.194668,0.519824,0.314837,-0.886811,-0.001051,0.039279
1.312159,0.556958,0.781841,0.013918,-0.019588,-0.990831,0.132957,-0.465379,0.035617,0.140632,0.749982,-0.097659,-0.030427,0.016999,-0.031224,-0.334835,0.377829,-0.39537,-0.069422,0.150883,-0.023743,0.156946,0.51225,-0.11841,0.143483,0.53162,1.073764,0.162626,-0.150132,-0.05185,-0.210212,0.556842,0.300921,-0.898431,-0.00144,0.035214
1.293937,0.556763,0.779152,0.015172,-0.016689,-0.99515,0.095745,-0.499168,0.048225,0.2161,0.684261,-0.077919,-0.013777,0.041663,-0.003137,-0.267498,0.358128,-0.401223,-0.074054,0.155102,-0.017665,0.159738,0.519393,-0.114085,0.124025,0.55371,1.088983,0.146544,-0.178103,-0.079214,-0.21769,0.580757,0.293277,-0.925219,0.004368,0.025213
1.274554,0.556896,0.776259,0.016665,-0.014301,-0.997886,0.061167,-0.526716,0.042484,0.256572,0.587687,-0.035067,-0.014815,0.073132,0.019413,-0.205423,0.332847,-0.40306,-0.07772,0.158646,-0.014118,0.162625,0.51673,-0.090135,0.091646,0.58193,1.126152,0.140279,-0.208153,-0.090123,-0.213667,0.58789,0.289424,-0.955688,0.014168,0.015627
1.253926,0.557394,0.773173,0.018197,-0.013152,-0.999323,0.029161,-0.550845,0.007023,0.224963,0.468798,0.03339,-0.031283,0.108721,0.034544,-0.148062,0.307147,-0.401364,-0.081517,0.162027,-0.014358,0.166723,0.507626,-0.054049,0.053979,0.608437,1.178455,0.134879,-0.246266,-0.083632,-0.199142,0.575638,0.285904,-0.9761280000000001,0.027782,0.011513
1.231989,0.558156,0.769816,0.018504,-0.012736,-0.999747,-0.00092,-0.5635,-0.043652,0.120871,0.346872,0.082645,-0.064127,0.1487,0.043062,-0.094417,0.28418,-0.396542,-0.085391,0.164036,-0.018306,0.170784,0.498429,-0.013445,0.025821,0.62907,1.233377,0.131149,-0.272448,-0.062752,-0.176878,0.550031,0.281624,-0.976853,0.040406,0.009019
1.20891,0.559091,0.766287,0.017302,-0.013553,-0.9993590000000001,-0.028258,-0.557645,-0.091098,-0.022631,0.245017,0.084793,-0.048322,0.189756,0.043794,-0.04628,0.270024,-0.3895,-0.089274,0.16415,-0.02479,0.174332,0.491313,0.023238,0.014774,0.647695,1.276085,0.133198,-0.289194,-0.0326,-0.155812,0.520053,0.278274,-0.9648000000000002,0.049167,0.009659
1.185081,0.559953,0.76242,0.014192,-0.013314,-0.998462,-0.051922,-0.54752,-0.106161,-0.097558,0.208652,0.073993,-0.048256,0.224303,0.041185,-0.006593,0.279085,-0.387346,-0.092509,0.159318,-0.030361,0.177496,0.483724,0.051895,0.026404,0.667093,1.300553,0.147994,-0.293345,-0.002229,-0.144016,0.495679,0.279137,-0.963223,0.056542,0.010862
1.160805,0.560869,0.759241,0.009427,-0.012221,-0.997306,-0.071713,-0.544693,-0.089279,-0.06855,0.258029,0.11226,-0.026375,0.253109,0.036886,0.023902,0.306417,-0.372206,-0.093092,0.150548,-0.033917,0.180348,0.468584,0.073237,0.055245,0.692126,1.307909,0.173123,-0.287331,0.028272,-0.142717,0.476982,0.283573,-0.976315,0.064496,0.019443
1.135054,0.562077,0.758242,0.002962,-0.010797,-0.9959,-0.089766,-0.54251,-0.064969,-0.024436,0.351367,0.151476,-0.00625,0.277571,0.031844,0.046396,0.365526,-0.34095,-0.102692,0.143705,-0.038716,0.183276,0.446475,0.095784,0.086998,0.727084,1.315455,0.206711,-0.281187,0.060185,-0.146205,0.457602,0.295694,-0.996956,0.077544,0.029815
1.109643,0.563538,0.757099,-0.003754,-0.011301,-0.994467,-0.104377,-0.537106,-0.051776,0.005304,0.446952,0.131452,0.019676,0.281526,0.021796,0.056992,0.452037,-0.284061,-0.109706,0.138766,-0.046876,0.186501,0.416646,0.115481,0.121113,0.766543,1.316964,0.232322,-0.284232,0.095406,-0.15196,0.430939,0.320469,-1.014708,0.096797,0.042041
1.084748,0.565332,0.757485,-0.010884,-0.012279,-0.993082,-0.116274,-0.525023,-0.042747,0.028401,0.53059,0.066732,0.022079,0.254727,0.009711,0.054089,0.584588,-0.195292,-0.110433,0.133764,-0.05761,0.190666,0.38167,0.142104,0.131709,0.798818,1.344225,0.242159,-0.288274,0.130326,-0.147511,0.390655,0.363368,-1.019513,0.128536,0.052778
1.060098,0.566805,0.759384,-0.016587,-0.014261,-0.990983,-0.132193,-0.492129,-0.032246,0.057319,0.573296,0.000798,0.026954,0.186084,-0.012237,0.042361,0.770329,-0.096445,-0.079727,0.128964,-0.068712,0.194358,0.347451,0.164884,0.126648,0.808958,1.385688,0.235686,-0.284214,0.153081,-0.135487,0.339708,0.427947,-1.00668,0.164661,0.055406
1.035721,0.568222,0.762533,-0.020308,-0.016829,-0.988473,-0.149084,-0.443468,-0.024084,0.08924,0.576717,-0.047956,0.030628,0.08663,-0.049647,0.019735,0.968539,0.016421,-0.027131,0.123961,-0.079692,0.196064,0.310384,0.175875,0.126634,0.799989,1.41198,0.220499,-0.265549,0.160098,-0.122609,0.284165,0.506948,-0.989253,0.215992,0.057161
1.011573,0.569919,0.766812,-0.02361,-0.020625,-0.986149,-0.162873,-0.385679,-0.024038,0.119647,0.556439,-0.082743,0.034117,-0.017678,-0.096859,-0.005195,1.126942,0.051777,-0.030099,0.11601,-0.090038,0.196717,0.262478,0.181786,0.13735,0.792164,1.416528,0.201035,-0.230944,0.163427,-0.118215,0.231977,0.580718,-0.97298,0.26066,0.049639
0.987423,0.571883,0.771661,-0.026546,-0.022866,-0.984407,-0.172382,-0.323545,-0.029077,0.142483,0.52382,-0.108854,0.037701,-0.116377,-0.125912,-0.023151,1.238036,-0.025143,-0.054341,0.105175,-0.097752,0.196742,0.214153,0.182281,0.158879,0.784628,1.389718,0.17865,-0.187537,0.170963,-0.122235,0.197606,0.637542,-0.961874,0.286892,0.052101
0.963323,0.574072,0.776401,-0.029209,-0.024111,-0.983215,-0.178478,-0.259258,-0.038697,0.157591,0.482404,-0.12731,0.040805,-0.206448,-0.153283,-0.048581,1.3067,-0.055083,-0.068465,0.092175,-0.10174,0.1948,0.151379,0.178851,0.166177,0.775843,1.360157,0.156047,-0.169111,0.189412,-0.136714,0.180198,0.670049,-0.966463,0.292027,0.054113
0.939278,0.576527,0.7803,-0.031583,-0.025731,-0.982478,-0.181872,-0.196904,-0.053091,0.166423,0.440206,-0.141941,0.04399,-0.284838,-0.182373,-0.080179,1.328171,-0.045085,-0.070473,0.076539,-0.102949,0.190958,0.096644,0.184505,0.147254,0.75435,1.34232,0.127044,-0.157988,0.211814,-0.151949,0.165725,0.68569,-0.966984,0.279145,0.064388
0.915305,0.579331,0.783107,-0.033169,-0.026938,-0.982332,-0.182205,-0.139571,-0.06886,0.168276,0.402999,-0.156513,0.047348,-0.350094,-0.202018,-0.115926,1.303593,-0.041905,-0.076212,0.05917,-0.102421,0.185883,0.039408,0.191659,0.111906,0.727351,1.337856,0.107636,-0.145978,0.239698,-0.164799,0.149419,0.687452,-0.9597230000000002,0.256613,0.075853
0.891459,0.582495,0.784748,-0.03321,-0.028252,-0.982573,-0.180689,-0.089428,-0.084783,0.165226,0.373081,-0.173177,0.051696,-0.406616,-0.209242,-0.150787,1.239761,-0.049273,-0.079157,0.041101,-0.100869,0.180074,-0.013023,0.202447,0.066742,0.686054,1.337649,0.083709,-0.130436,0.263484,-0.175725,0.124219,0.682713,-0.943761,0.232671,0.082708
0.867745,0.586063,0.785318,-0.032371,-0.029689,-0.982978,-0.178395,-0.044617,-0.0999,0.159146,0.350517,-0.192598,0.057996,-0.453248,-0.203664,-0.178877,1.138376,-0.045248,-0.074188,0.023117,-0.098638,0.174479,-0.06359,0.20902,0.020272,0.638794,1.33403,0.065655,-0.112216,0.291009,-0.183363,0.095396,0.668375,-0.926935,0.217395,0.08455
0.844122,0.589983,0.784939,-0.029698,-0.031548,-0.983339,-0.176544,-0.003236,-0.114335,0.151935,0.327534,-0.212168,0.062418,-0.486402,-0.185728,-0.202493,0.991997,-0.037141,-0.074137,0.007196,-0.095954,0.169505,-0.111513,0.213593,-0.025039,0.587871,1.328381,0.060711,-0.09314,0.31868,-0.18309,0.063865,0.64759,-0.911666,0.205444,0.073783
0.820472,0.594289,0.783289,-0.025373,-0.033503,-0.98369,-0.174896,0.035959,-0.127479,0.143733,0.302795,-0.231459,0.063797,-0.50519,-0.154464,-0.212753,0.805511,-0.027092,-0.057073,-0.00531,-0.092837,0.164782,-0.154233,0.212926,-0.064264,0.533533,1.307164,0.067592,-0.075722,0.343889,-0.17468,0.031581,0.628666,-0.901271,0.200279,0.058878
0.796569,0.599089,0.780077,-0.020288,-0.035603,-0.984166,-0.17245,0.07316,-0.139509,0.133843,0.280518,-0.252124,0.063779,-0.505912,-0.112858,-0.201875,0.58651,-0.014723,-0.03741,-0.014864,-0.089582,0.159961,-0.189497,0.206708,-0.098383,0.474379,1.25936,0.078854,-0.077706,0.367524,-0.157984,-0.00115,0.610615,-0.892222,0.198603,0.047134
0.772243,0.604377,0.775844,-0.01513,-0.037062,-0.984679,-0.169719,0.110676,-0.149212,0.123191,0.259886,-0.272886,0.063545,-0.490675,-0.078085,-0.195945,0.367253,-0.009798,-0.028839,-0.021404,-0.085952,0.155107,-0.215496,0.200139,-0.132795,0.411596,1.187474,0.089987,-0.098152,0.390307,-0.137642,-0.028481,0.591906,-0.888006,0.190613,0.040407
0.747438,0.610289,0.771004,-0.012666,-0.039197,-0.985127,-0.166816,0.149101,-0.159062,0.112915,0.250257,-0.292965,0.063339,-0.474087,-0.058477,-0.208657,0.207331,-0.019113,-0.021061,-0.025901,-0.081915,0.151658,-0.230924,0.199433,-0.170497,0.346286,1.112053,0.085687,-0.107979,0.412613,-0.120771,-0.049602,0.574782,-0.890997,0.1836,0.039344
0.722346,0.616817,0.766427,-0.012385,-0.040135,-0.985454,-0.164672,0.182279,-0.164214,0.105305,0.262479,-0.310069,0.062475,-0.472652,-0.046641,-0.228625,0.156957,-0.027883,-0.0149,-0.02994,-0.077217,0.150307,-0.236034,0.208459,-0.207748,0.28684,1.053477,0.07746,-0.118909,0.427689,-0.107893,-0.058151,0.56277,-0.90304,0.17176,0.039715
0.697063,0.623934,0.763652,-0.012931,-0.037336,-0.98564,-0.164173,0.207891,-0.158955,0.101491,0.297228,-0.314072,0.053854,-0.471138,-0.02942,-0.21465,0.183336,0.022006,-0.059175,-0.035215,-0.069426,0.150005,-0.227598,0.222278,-0.236369,0.231985,1.016658,0.069112,-0.117502,0.432488,-0.095491,-0.059508,0.561147,-0.917193,0.164669,0.043319
