hanqing-shi/Humanoids-Motion-Generation/dataset/data_test_joint/walk/walk1_subject1_seg1.csv
root_x,root_y,root_z,root_qx,root_qy,root_qz,root_qw,left_hip_pitch_joint,left_hip_roll_joint,left_hip_yaw_joint,left_knee_joint,left_ankle_pitch_joint,left_ankle_roll_joint,right_hip_pitch_joint,right_hip_roll_joint,right_hip_yaw_joint,right_knee_joint,right_ankle_pitch_joint,right_ankle_roll_joint,waist_yaw_joint,waist_roll_joint,waist_pitch_joint,left_shoulder_pitch_joint,left_shoulder_roll_joint,left_shoulder_yaw_joint,left_elbow_joint,left_wrist_roll_joint,left_wrist_pitch_joint,left_wrist_yaw_joint,right_shoulder_pitch_joint,right_shoulder_roll_joint,right_shoulder_yaw_joint,right_elbow_joint,right_wrist_roll_joint,right_wrist_pitch_joint,right_wrist_yaw_joint
0.008614,0.004697,0.795914,-0.013955,0.032769,-0.017687,0.999209,-0.135178,0.096348,0.114094,0.294977,-0.167182,-0.034718,-0.113469,-0.026072,-0.185732,0.265509,-0.166069,0.038369,0.011961,-0.005518,-0.04242,0.19262,0.027532,0.037834,0.897278,0.874824,0.18737,0.133663,0.159538,-0.012236,-0.019655,0.880203,-0.99319,0.185196,-0.015834
0.00956,0.005872,0.795842,-0.014036,0.033054,-0.016788,0.999214,-0.135728,0.094276,0.113193,0.296524,-0.168892,-0.032666,-0.112649,-0.028411,-0.186857,0.266899,-0.16765,0.041043,0.011519,-0.007024,-0.044818,0.165802,0.0281,0.015192,0.954157,0.908012,0.197976,0.153503,0.15473,-0.011291,-0.011377,0.89179,-0.986033,0.182119,-0.025782
0.010432,0.007197,0.795763,-0.014096,0.033538,-0.01495,0.999226,-0.137282,0.091323,0.11059,0.298406,-0.170527,-0.030233,-0.11225,-0.031621,-0.189702,0.268532,-0.169207,0.043944,0.010421,-0.008604,-0.046493,0.144032,0.030675,-0.016163,0.990693,0.939723,0.193549,0.177599,0.154936,-0.012945,-0.000916,0.88788,-0.971718,0.163534,-0.049075
0.01122,0.008704,0.795694,-0.014073,0.033848,-0.012634,0.999248,-0.138511,0.087558,0.107174,0.299984,-0.171989,-0.027455,-0.111613,-0.035572,-0.193408,0.27012,-0.170399,0.046906,0.009052,-0.010141,-0.047555,0.12746,0.034399,-0.047981,1.007813,0.961052,0.173839,0.193882,0.154868,-0.022044,0.023209,0.881587,-0.965131,0.136266,-0.07442
0.011916,0.010423,0.795644,-0.013924,0.033729,-0.010105,0.999283,-0.138626,0.08297,0.10341,0.300992,-0.173273,-0.02432,-0.110337,-0.04022,-0.197412,0.271625,-0.171011,0.049571,0.008038,-0.011479,-0.048298,0.114448,0.039011,-0.074632,1.009262,0.968155,0.144135,0.196394,0.150439,-0.038123,0.059286,0.880299,-0.971256,0.112599,-0.09031
0.012522,0.012382,0.795602,-0.013705,0.033253,-0.007423,0.999325,-0.13799,0.077684,0.099387,0.301864,-0.174569,-0.020785,-0.108643,-0.045457,-0.20156,0.273221,-0.171086,0.051662,0.007973,-0.012542,-0.048971,0.102762,0.04461,-0.095288,0.998629,0.963424,0.113129,0.185863,0.141006,-0.054876,0.093067,0.883322,-0.9795720000000001,0.100416,-0.090241
0.013062,0.014594,0.795538,-0.013491,0.032681,-0.00456,0.999364,-0.137504,0.071858,0.095069,0.303229,-0.176093,-0.016817,-0.106846,-0.051158,-0.205927,0.27486,-0.171243,0.053291,0.009097,-0.013381,-0.049655,0.091023,0.050863,-0.111296,0.977901,0.95156,0.087664,0.170397,0.128569,-0.066523,0.112012,0.885961,-0.977199,0.098988,-0.078475
0.013581,0.017053,0.795443,-0.013287,0.032164,-0.001506,0.999393,-0.137436,0.065515,0.09046100000000001,0.305041,-0.17783,-0.012437,-0.10497,-0.057345,-0.210556,0.276435,-0.171734,0.055296,0.011235,-0.014112,-0.050277,0.07913,0.056618,-0.123587,0.949444,0.935895,0.070018,0.16146,0.115279,-0.07207,0.114624,0.884434,-0.961116,0.103608,-0.067166
0.014124,0.01974,0.795319,-0.013049,0.031652,0.001693,0.999412,-0.137339,0.058639,0.085708,0.306765,-0.179663,-0.007718,-0.103108,-0.064176,-0.215317,0.278592,-0.172383,0.058876,0.013982,-0.014843,-0.050687,0.0676,0.060684,-0.132172,0.917712,0.918006,0.059574,0.16617,0.102138,-0.074333,0.109428,0.878046,-0.938607,0.11002,-0.06519
0.01471,0.022633,0.79515,-0.012703,0.031053,0.004905,0.999425,-0.136847,0.05123,0.08107,0.308235,-0.181616,-0.002764,-0.101799,-0.071811,-0.219715,0.282697,-0.173398,0.06434,0.016863,-0.015594,-0.050758,0.055853,0.06415,-0.133995,0.890358,0.8993,0.051721,0.182171,0.089146,-0.074456,0.10898,0.864291,-0.918599,0.121402,-0.071182
0.015341,0.025743,0.794903,-0.012188,0.03033,0.007943,0.999434,-0.135864,0.043244,0.076888,0.309625,-0.183821,0.002427,-0.101975,-0.080552,-0.223498,0.290535,-0.175322,0.071188,0.019535,-0.016361,-0.050446,0.046431,0.062971,-0.134203,0.8668,0.879693,0.050461,0.204104,0.078031,-0.078722,0.11362,0.850447,-0.904683,0.128517,-0.082422
0.016014,0.029096,0.794513,-0.011343,0.029418,0.010687,0.999446,-0.134437,0.034354,0.073466,0.311503,-0.186628,0.007957,-0.104803,-0.090741,-0.225115,0.304462,-0.179062,0.079279,0.021775,-0.017168,-0.049724,0.039283,0.059429,-0.134718,0.848077,0.859686,0.053166,0.225135,0.068016,-0.08511,0.120951,0.836627,-0.894038,0.132303,-0.092922
0.016713,0.032689,0.793914,-0.009996,0.028263,0.012907,0.9994670000000001,-0.132698,0.024349,0.071357,0.314534,-0.190437,0.013834,-0.111409,-0.102899,-0.224225,0.326528,-0.185045,0.088193,0.023527,-0.018145,-0.048515,0.034274,0.056092,-0.138735,0.83428,0.84236,0.055747,0.244913,0.059102,-0.091686,0.127286,0.822113,-0.882088,0.133763,-0.09958
0.01742,0.036464,0.793064,-0.008033,0.026897,0.014454,0.999501,-0.130929,0.01324,0.070945,0.319232,-0.195584,0.019806,-0.123121,-0.117448,-0.221251,0.358851,-0.192541,0.097044,0.024831,-0.019484,-0.046638,0.031539,0.055015,-0.149077,0.825389,0.832074,0.056439,0.266797,0.051422,-0.097767,0.131667,0.806816,-0.867841,0.133603,-0.103675
0.018124,0.040315,0.791975,-0.005412,0.025348,0.015406,0.999545,-0.12938,0.001103,0.072079,0.325894,-0.202146,0.025699,-0.14131,-0.134417,-0.216238,0.403642,-0.198682,0.10303,0.025694,-0.021385,-0.043756,0.038404,0.055927,-0.164344,0.81372,0.826577,0.056814,0.290715,0.045006,-0.102535,0.135102,0.797219,-0.853625,0.129106,-0.113371
0.018784,0.04417,0.790749,-0.002321,0.023543,0.015978,0.999592,-0.128042,-0.011742,0.074193,0.334471,-0.209935,0.031444,-0.167402,-0.153704,-0.209375,0.462875,-0.1969,0.102823,0.02606,-0.023876,-0.03939,0.041757,0.051304,-0.174143,0.813696,0.809777,0.062474,0.310633,0.040762,-0.108576,0.137932,0.782973,-0.840932,0.124723,-0.12248
0.01938,0.047861,0.789455,0.001822,0.021486,0.016338,0.999634,-0.128453,-0.026046,0.077207,0.347822,-0.220031,0.036946,-0.20192,-0.175624,-0.197721,0.537463,-0.18975,0.100302,0.025791,-0.027128,-0.033138,0.037307,0.033912,-0.17409,0.827591,0.764258,0.078908,0.322533,0.041607,-0.12056,0.136444,0.761981,-0.829846,0.117054,-0.127613
0.020406,0.051357,0.790361,0.006707,0.019247,0.016474,0.999657,-0.129423,-0.041029,0.081031,0.363824,-0.230889,0.042141,-0.246306,-0.199674,-0.180757,0.630572,-0.167636,0.09651,0.024723,-0.031379,-0.025203,0.038409,0.015663,-0.166595,0.840321,0.697266,0.097098,0.329441,0.044806,-0.127444,0.132905,0.742469,-0.823352,0.110286,-0.13529
0.021516,0.054532,0.789018,0.012128,0.016857,0.016394,0.99965,-0.129428,-0.056565,0.08559,0.378649,-0.242244,0.04692,-0.300675,-0.224226,-0.161552,0.733399,-0.127488,0.087601,0.022491,-0.036844,-0.016347,0.035416,-0.002875,-0.167219,0.851332,0.636495,0.120953,0.339591,0.051302,-0.134141,0.131993,0.720384,-0.815637,0.106917,-0.142118
0.022967,0.057326,0.786618,0.01801,0.014519,0.016139,0.9996020000000002,-0.127206,-0.072442,0.090462,0.38983,-0.252651,0.051172,-0.357155,-0.251404,-0.147346,0.835089,-0.086067,0.081084,0.019152,-0.043503,-0.00748,0.034025,-0.013387,-0.184135,0.855813,0.594159,0.141689,0.346942,0.060669,-0.139082,0.130071,0.699355,-0.808832,0.105437,-0.149871
0.024834,0.059822,0.784147,0.023027,0.012615,0.016421,0.99952,-0.121738,-0.086973,0.093419,0.393716,-0.259987,0.055048,-0.406543,-0.28404,-0.151759,0.920552,-0.052542,0.067857,0.014753,-0.050937,0.000568,0.034578,-0.018855,-0.210436,0.854756,0.562247,0.156307,0.341943,0.073891,-0.139981,0.125843,0.681441,-0.801265,0.105012,-0.161866
0.027613,0.062096,0.78328,0.026675,0.011364,0.018372,0.999411,-0.114982,-0.099388,0.092367,0.3939,-0.26523,0.058487,-0.448737,-0.309499,-0.163893,0.976831,-0.044323,0.038667,0.008713,-0.058044,0.007578,0.035908,-0.020971,-0.238913,0.851223,0.533369,0.162164,0.325635,0.090762,-0.136777,0.119716,0.669595,-0.792831,0.105983,-0.18001
0.030988,0.063983,0.782053,0.029218,0.010658,0.021657,0.999282,-0.109883,-0.109363,0.088273,0.396848,-0.271659,0.061099,-0.48507,-0.314134,-0.168517,1.000667,-0.049745,0.04676,0.001904,-0.063647,0.013716,0.037319,-0.013856,-0.269403,0.850866,0.518371,0.15087,0.311054,0.113031,-0.132301,0.115028,0.662943,-0.786172,0.109,-0.202615
0.034986,0.065625,0.781204,0.029868,0.010727,0.02497,0.999184,-0.105025,-0.115191,0.082918,0.399134,-0.278371,0.063023,-0.513966,-0.298588,-0.167951,0.988121,-0.055204,0.065626,-0.004027,-0.067086,0.018811,0.036089,-0.004646,-0.308034,0.848451,0.525626,0.132324,0.317639,0.132787,-0.124485,0.112976,0.66803,-0.78299,0.112198,-0.226948
0.039615,0.067,0.780681,0.029921,0.011573,0.027353,0.999111,-0.100067,-0.118699,0.078556,0.400271,-0.285483,0.064297,-0.535985,-0.278078,-0.170822,0.941569,-0.056385,0.080087,-0.008262,-0.068255,0.023365,0.038136,0.001815,-0.343363,0.834258,0.54518,0.109213,0.343749,0.139519,-0.107464,0.114425,0.690347,-0.780754,0.117175,-0.255301
0.044821,0.068212,0.780525,0.028859,0.01334,0.028964,0.999075,-0.093109,-0.119556,0.07448,0.395122,-0.290214,0.065091,-0.549813,-0.258015,-0.178759,0.866812,-0.054297,0.091385,-0.011117,-0.067317,0.027626,0.038784,0.008195,-0.369477,0.816234,0.556093,0.078271,0.376058,0.154517,-0.097794,0.110378,0.704056,-0.771198,0.107694,-0.27655
0.050572,0.06924,0.780516,0.027277,0.015761,0.030622,0.999034,-0.084193,-0.119212,0.069689,0.384489,-0.292645,0.065474,-0.557149,-0.238014,-0.188355,0.77033,-0.045673,0.102315,-0.012946,-0.064794,0.031769,0.02999,0.015772,-0.395625,0.802902,0.55581,0.044844,0.404165,0.182871,-0.096744,0.103677,0.698683,-0.756851,0.08817,-0.288007
0.056869,0.070037,0.780374,0.025919,0.018614,0.033027,0.998945,-0.074794,-0.119104,0.06352,0.372397,-0.29503,0.06547,-0.560206,-0.218617,-0.194264,0.662644,-0.030971,0.124922,-0.013822,-0.061485,0.035537,0.01892,0.025597,-0.427187,0.783097,0.55964,0.019736,0.421645,0.209206,-0.093098,0.099308,0.691626,-0.742759,0.07184,-0.297401
0.063693,0.070702,0.780188,0.023836,0.022078,0.036044,0.998822,-0.064882,-0.117703,0.05572,0.357754,-0.29703,0.065209,-0.559927,-0.19656,-0.193351,0.549143,-0.022444,0.145002,-0.013827,-0.057686,0.038338,0.002939,0.038417,-0.459938,0.759598,0.568443,0.005812,0.426824,0.233309,-0.085286,0.093935,0.685401,-0.722854,0.060503,-0.304289
0.071178,0.071196,0.779903,0.021628,0.025861,0.038824,0.998677,-0.054848,-0.115519,0.048127,0.343421,-0.299978,0.064583,-0.560643,-0.17483,-0.188111,0.443963,-0.008683,0.156151,-0.01303,-0.053391,0.040222,-0.016077,0.050903,-0.488105,0.735507,0.578321,0.00234,0.422726,0.253124,-0.07349,0.084202,0.682545,-0.691049,0.055227,-0.307307
0.079507,0.071467,0.779356,0.019763,0.029734,0.040579,0.998538,-0.044959,-0.112967,0.042471,0.331904,-0.305007,0.063404,-0.562375,-0.154611,-0.177796,0.35504,0.004085,0.163059,-0.01171,-0.048653,0.041497,-0.035961,0.06097,-0.509588,0.712918,0.589535,0.009459,0.415154,0.265859,-0.062039,0.072882,0.684279,-0.652447,0.057486,-0.303387
0.088861,0.071434,0.778357,0.018799,0.033337,0.04109,0.998422,-0.035003,-0.110853,0.03954,0.325121,-0.312865,0.061525,-0.568126,-0.139465,-0.167921,0.291909,0.009589,0.172219,-0.010219,-0.043973,0.042844,-0.054795,0.067373,-0.524364,0.692566,0.603059,0.025707,0.409532,0.270204,-0.056785,0.065803,0.689177,-0.619834,0.067943,-0.289401
0.099357,0.071046,0.776881,0.018544,0.036658,0.040209,0.998346,-0.024055,-0.108774,0.039381,0.321574,-0.322695,0.058964,-0.575843,-0.1306,-0.167488,0.254214,0.00577,0.182051,-0.00879,-0.039898,0.044404,-0.070729,0.070014,-0.532163,0.674475,0.615776,0.046468,0.40926,0.266908,-0.059544,0.065994,0.694214,-0.601726,0.082832,-0.26693
0.111119,0.070279,0.77486,0.018474,0.039533,0.038578,0.998302,-0.010509,-0.105948,0.040675,0.319221,-0.334792,0.055483,-0.584086,-0.123953,-0.167971,0.240969,-0.004259,0.182675,-0.008317,-0.036217,0.046149,-0.08287,0.069941,-0.534256,0.659579,0.623678,0.066751,0.415091,0.258739,-0.068865,0.072789,0.69693,-0.599837,0.095611,-0.243369
0.124253,0.069118,0.771991,0.018584,0.041933,0.03696,0.998264,0.00567,-0.102457,0.042742,0.318417,-0.346579,0.050366,-0.590507,-0.117409,-0.164558,0.249681,-0.02039,0.170924,-0.009226,-0.03278,0.04795,-0.092099,0.068976,-0.534469,0.650537,0.626364,0.084226,0.423356,0.249189,-0.082009,0.083351,0.696238,-0.611541,0.102133,-0.226002
0.138841,0.06755,0.76697,0.019066,0.043762,0.036539,0.998192,0.023088,-0.098973,0.04346,0.322749,-0.356282,0.043524,-0.591724,-0.110356,-0.15346,0.281379,-0.033475,0.153181,-0.01187,-0.029429,0.049833,-0.100473,0.069164,-0.537673,0.650577,0.627861,0.099072,0.427826,0.241512,-0.095114,0.092415,0.691791,-0.629811,0.103437,-0.217808
0.15444,0.065361,0.765418,0.018462,0.045375,0.037548,0.998093,0.039055,-0.092087,0.040981,0.33097,-0.360018,0.035185,-0.593935,-0.100217,-0.139678,0.321176,-0.032295,0.12682,-0.015659,-0.025713,0.051411,-0.109616,0.073812,-0.546858,0.661041,0.634635,0.112594,0.425508,0.236932,-0.102289,0.094768,0.68487,-0.645231,0.103297,-0.218477
0.171105,0.062618,0.765112,0.016382,0.046744,0.039124,0.998006,0.052826,-0.080798,0.036458,0.345783,-0.35423,0.025151,-0.5903,-0.086119,-0.133306,0.348651,-0.001122,0.08436,-0.019319,-0.020954,0.052573,-0.118906,0.083263,-0.561595,0.681973,0.650141,0.125899,0.417753,0.234957,-0.101982,0.089489,0.678984,-0.654382,0.105428,-0.226831
0.188756,0.059437,0.766021,0.01285,0.047668,0.039338,0.998006,0.062809,-0.064853,0.032484,0.372056,-0.333755,0.006944,-0.579,-0.069831,-0.135423,0.364162,0.048646,0.048546,-0.022244,-0.014372,0.053477,-0.124509,0.095323,-0.57657,0.712716,0.670417,0.140711,0.403651,0.232811,-0.096914,0.081551,0.679818,-0.661204,0.111577,-0.237777
0.208123,0.056076,0.769257,0.008678,0.047516,0.036942,0.998149,0.071655,-0.046734,0.031372,0.41772,-0.297907,-0.010955,-0.562674,-0.053501,-0.142071,0.391032,0.059303,0.022278,-0.024685,-0.005717,0.054876,-0.12143,0.106656,-0.583976,0.751377,0.686321,0.158581,0.377458,0.227731,-0.091411,0.076275,0.691354,-0.670871,0.122387,-0.242822
0.227583,0.05271,0.772245,0.002473,0.046631,0.032569,0.998378,0.071602,-0.024546,0.029353,0.472488,-0.238388,-0.038908,-0.54661,-0.032496,-0.148416,0.419917,0.03062,0.007448,-0.027321,0.004897,0.056819,-0.107631,0.117019,-0.577382,0.79328,0.690078,0.179813,0.3354,0.217382,-0.085316,0.075981,0.712862,-0.684904,0.137819,-0.235604
0.247249,0.049332,0.775032,-0.005061,0.045203,0.028788,0.99855,0.057118,0.000642,0.024806,0.549543,-0.149461,-0.076051,-0.522066,-0.008568,-0.155032,0.436933,-0.002433,-0.003151,-0.030908,0.016707,0.059192,-0.086037,0.126052,-0.556956,0.833092,0.680804,0.20237,0.285439,0.202573,-0.079346,0.079159,0.738413,-0.702496,0.156493,-0.216328
0.266517,0.045915,0.776054,-0.013377,0.043218,0.027624,0.998594,0.016646,0.027985,0.016484,0.666089,-0.045979,-0.111765,-0.493587,0.014629,-0.164946,0.446778,-0.03516,-0.011959,-0.035725,0.028965,0.062485,-0.062732,0.136362,-0.53086,0.866578,0.667166,0.221332,0.24432,0.1848,-0.074192,0.083998,0.761181,-0.722054,0.17364,-0.189144
0.28543,0.042578,0.774835,-0.022333,0.040621,0.029573,0.998487,-0.048985,0.057657,0.005235,0.817133,0.060921,-0.151852,-0.463188,0.03617,-0.178872,0.452924,-0.067083,-0.019465,-0.041377,0.041808,0.066359,-0.038158,0.151724,-0.509791,0.886011,0.665563,0.232048,0.222039,0.160692,-0.070565,0.08724,0.776799,-0.742855,0.185599,-0.158075
0.304483,0.039557,0.773144,-0.03107,0.037281,0.033365,0.998264,-0.128228,0.087446,-0.007898,0.97245,0.172224,-0.192729,-0.429514,0.055944,-0.194462,0.455799,-0.098722,-0.026388,-0.046545,0.055499,0.070508,-0.016549,0.173692,-0.504324,0.895425,0.676125,0.229773,0.218396,0.154453,-0.071285,0.087626,0.790789,-0.761202,0.167278,-0.150399
0.32393,0.037044,0.77204,-0.039077,0.033248,0.037054,0.997995,-0.204991,0.108061,-0.027242,1.104068,0.237965,-0.218444,-0.393225,0.074616,-0.20869,0.45711,-0.128064,-0.033293,-0.049417,0.069428,0.074718,0.003743,0.20269,-0.50861,0.89593,0.690415,0.213349,0.224793,0.142164,-0.071964,0.081763,0.806625,-0.774397,0.137969,-0.160891
0.343941,0.035067,0.77175,-0.045355,0.028376,0.038994,0.997806,-0.278155,0.111577,-0.04755,1.20025,0.232744,-0.191225,-0.352591,0.092345,-0.217619,0.454629,-0.155464,-0.038697,-0.049065,0.082163,0.078826,0.026284,0.229809,-0.507843,0.881708,0.700281,0.194624,0.232897,0.128956,-0.071519,0.072716,0.811076,-0.782896,0.113009,-0.179593
0.364461,0.033606,0.772031,-0.049147,0.023304,0.03917,0.997751,-0.342384,0.101406,-0.064958,1.25434,0.175612,-0.180684,-0.309698,0.107169,-0.220256,0.450282,-0.181444,-0.043423,-0.045802,0.091896,0.081899,0.054263,0.251035,-0.49117,0.854816,0.699107,0.179004,0.242886,0.117466,-0.070757,0.062533,0.80842,-0.788166,0.094824,-0.199122
0.385324,0.032599,0.772402,-0.051826,0.018491,0.038332,0.9977490000000001,-0.401825,0.087065,-0.079751,1.27091,0.137846,-0.177058,-0.26819,0.119781,-0.219253,0.449353,-0.208198,-0.047568,-0.039718,0.098407,0.083819,0.087619,0.264825,-0.456669,0.820192,0.68721,0.169337,0.254846,0.108353,-0.068564,0.052829,0.800533,-0.791245,0.082827,-0.213263
0.40647,0.031816,0.772842,-0.053471,0.01441,0.03692,0.997783,-0.457683,0.072665,-0.089623,1.249371,0.095066,-0.142835,-0.228361,0.13021,-0.215893,0.450798,-0.235532,-0.051308,-0.031161,0.102402,0.084412,0.122581,0.262951,-0.41273,0.786727,0.66959,0.168367,0.270674,0.099861,-0.06469,0.045313,0.788292,-0.792096,0.074292,-0.220667
0.427781,0.031089,0.773485,-0.05329,0.011658,0.035079,0.997895,-0.507108,0.061589,-0.09273700000000001,1.18854,0.019414,-0.121351,-0.189075,0.137217,-0.210369,0.449245,-0.260288,-0.054328,-0.020919,0.104137,0.083599,0.152833,0.254693,-0.363011,0.755456,0.652237,0.169096,0.279807,0.098985,-0.063352,0.047446,0.762794,-0.78845,0.06674,-0.222066
0.449093,0.030385,0.774086,-0.05195,0.01057,0.03287,0.998053,-0.547735,0.057156,-0.087465,1.091259,-0.042672,-0.110229,-0.150181,0.141844,-0.203702,0.441305,-0.278077,-0.056323,-0.009419,0.104087,0.081707,0.179975,0.245557,-0.312766,0.728369,0.641448,0.168535,0.284662,0.095323,-0.067512,0.056553,0.736686,-0.784548,0.055667,-0.219315
0.470354,0.029728,0.774061,-0.050657,0.011134,0.030438,0.99819,-0.578249,0.058503,-0.072945,0.957823,-0.080108,-0.081095,-0.111642,0.146298,-0.196519,0.426483,-0.29037,-0.056788,0.003126,0.103068,0.078894,0.202034,0.234424,-0.26481,0.707861,0.640275,0.17098,0.290085,0.089961,-0.075206,0.073021,0.712849,-0.785165,0.042124,-0.220115
0.491588,0.029119,0.773291,-0.049415,0.01329,0.028053,0.998296,-0.596939,0.062886,-0.051558,0.798361,-0.090548,-0.070196,-0.072675,0.150678,-0.18879,0.403658,-0.297521,-0.055313,0.016107,0.101433,0.074842,0.220644,0.224006,-0.221838,0.693681,0.645466,0.173665,0.297391,0.0827,-0.084244,0.089114,0.695656,-0.794419,0.026868,-0.227227
0.512936,0.028593,0.772069,-0.048491,0.016472,0.025832,0.998354,-0.603579,0.068265,-0.023485,0.621852,-0.078518,-0.054253,-0.032662,0.155458,-0.18047,0.374604,-0.300181,-0.052646,0.028721,0.099461,0.069157,0.233686,0.211396,-0.190365,0.687361,0.657621,0.176279,0.305187,0.076447,-0.092652,0.107709,0.683208,-0.806564,0.017937,-0.239562
0.534536,0.028171,0.77071,-0.047071,0.020331,0.023549,0.998407,-0.601907,0.070623,0.010359,0.442615,-0.0461,-0.042625,0.009796,0.159475,-0.170229,0.337982,-0.298164,-0.049806,0.040183,0.097018,0.062013,0.243214,0.200536,-0.172871,0.688277,0.676383,0.173175,0.308849,0.069806,-0.101344,0.127015,0.677219,-0.818369,0.017375,-0.250591
0.556741,0.028028,0.768859,-0.046073,0.024213,0.020626,0.998432,-0.594886,0.064046,0.029735,0.285128,-0.023499,-0.048454,0.051425,0.163467,-0.157843,0.304586,-0.293682,-0.046702,0.050841,0.093644,0.054069,0.249231,0.191701,-0.1662,0.695083,0.701881,0.167413,0.307185,0.061587,-0.10935,0.149876,0.678953,-0.824254,0.025183,-0.258812
0.579954,0.028419,0.766079,-0.046985,0.027033,0.016721,0.9983900000000001,-0.593805,0.053552,0.022947,0.187781,-0.022648,-0.07782,0.088884,0.16871,-0.143819,0.288098,-0.291721,-0.042941,0.0613,0.089539,0.046377,0.256562,0.191288,-0.163144,0.705298,0.72804,0.157404,0.299506,0.055326,-0.112916,0.168756,0.689133,-0.826342,0.034932,-0.263505
0.604084,0.029337,0.763106,-0.047229,0.029334,0.01218,0.998379,-0.59588,0.039408,0.001929,0.169209,-0.013896,-0.071931,0.123848,0.170432,-0.128191,0.281894,-0.290633,-0.037896,0.072016,0.084883,0.03866,0.263398,0.192378,-0.162469,0.71855,0.752795,0.145751,0.28821,0.052233,-0.114197,0.180693,0.706673,-0.824339,0.047278,-0.262107
0.62906,0.030839,0.761408,-0.044875,0.030879,0.006638,0.998493,-0.599557,0.019355,-0.023736,0.212961,0.032059,-0.029786,0.158775,0.164462,-0.110215,0.281487,-0.284657,-0.030608,0.082746,0.078364,0.030894,0.269569,0.191161,-0.163495,0.734877,0.777006,0.133955,0.277408,0.053097,-0.116046,0.185839,0.730192,-0.819839,0.063385,-0.250381
0.655303,0.032783,0.765079,-0.03975,0.031506,0.001593,0.998712,-0.602389,0.002462,-0.02919,0.272544,0.102971,0.003326,0.19535,0.151117,-0.094218,0.294752,-0.263014,-0.020201,0.091623,0.068671,0.023659,0.274052,0.186495,-0.163311,0.75505,0.800574,0.124809,0.268845,0.059338,-0.119076,0.183941,0.75713,-0.815222,0.083848,-0.230516
0.681551,0.034909,0.763741,-0.033211,0.031334,-0.000445,0.998957,-0.594982,-0.01172,-0.022635,0.330423,0.146221,0.013098,0.216854,0.131718,-0.085647,0.329157,-0.214167,-0.009611,0.098238,0.054733,0.018241,0.273358,0.179032,-0.157191,0.780137,0.82035,0.122378,0.260598,0.073908,-0.12005,0.172327,0.783626,-0.810541,0.10946,-0.21243
0.70703,0.036859,0.763905,-0.024088,0.031425,0.001131,0.999215,-0.580639,-0.028854,-0.007024,0.380296,0.142376,0.017532,0.220749,0.105667,-0.083564,0.387538,-0.142578,0.017957,0.102736,0.037276,0.015863,0.264376,0.166366,-0.142706,0.809981,0.832714,0.127487,0.252936,0.097605,-0.119646,0.151823,0.804978,-0.805541,0.139279,-0.202256
0.73112,0.038735,0.766323,-0.013656,0.031364,0.00319,0.99941,-0.559248,-0.050576,0.006829,0.408481,0.110551,0.018151,0.193308,0.074236,-0.079928,0.48955,-0.04417,0.071743,0.106014,0.018731,0.017206,0.243546,0.149488,-0.117727,0.84788,0.839458,0.13257,0.252384,0.129203,-0.120044,0.133692,0.81723,-0.801993,0.16294,-0.194413
0.753633,0.040655,0.767898,-0.002514,0.030977,0.002198,0.999515,-0.528155,-0.072238,0.022209,0.415419,0.077094,0.038392,0.133073,0.038295,-0.074141,0.635339,0.064341,0.117484,0.108297,0.001276,0.021443,0.222912,0.131155,-0.093243,0.876405,0.841769,0.134914,0.260018,0.154971,-0.127496,0.134921,0.823457,-0.804059,0.171134,-0.1739
0.775236,0.042371,0.770012,0.008547,0.030213,-0.001955,0.999505,-0.491732,-0.090386,0.040114,0.411032,0.047526,0.046363,0.048854,-0.008258,-0.077749,0.804739,0.185662,0.178126,0.109094,-0.014831,0.027361,0.216109,0.116965,-0.078549,0.889548,0.842491,0.123842,0.275577,0.172659,-0.146144,0.162929,0.820826,-0.816063,0.159759,-0.135842
0.79609,0.043688,0.77137,0.019277,0.029399,-0.006286,0.999362,-0.455306,-0.107756,0.057417,0.403713,0.019518,0.049657,-0.043329,-0.065499,-0.087667,0.964003,0.284829,0.23553,0.106603,-0.030601,0.033815,0.19903,0.104419,-0.076355,0.895709,0.846833,0.110347,0.282989,0.186525,-0.17828,0.205261,0.805265,-0.835358,0.130676,-0.088527
0.81656,0.044586,0.77236,0.03015,0.028288,-0.008672,0.999107,-0.420319,-0.127805,0.071574,0.398313,-0.007681,0.054826,-0.136494,-0.122561,-0.096939,1.095078,0.314081,0.245858,0.09992,-0.04616,0.040923,0.175523,0.095189,-0.087604,0.897096,0.855981,0.092634,0.282017,0.199206,-0.214699,0.240213,0.774575,-0.853088,0.100074,-0.047412
0.83707,0.045088,0.773166,0.039989,0.026312,-0.008048,0.998821,-0.384092,-0.149689,0.078838,0.39422,-0.035326,0.06028,-0.227795,-0.156598,-0.087653,1.185839,0.246732,0.236385,0.089239,-0.060235,0.048281,0.143269,0.088245,-0.109015,0.898692,0.871231,0.075214,0.276126,0.21501,-0.235783,0.253334,0.736184,-0.859771,0.085262,-0.031251
0.857821,0.045178,0.773836,0.04758,0.023644,-0.005489,0.998572,-0.346966,-0.169553,0.079147,0.393318,-0.064916,0.065158,-0.311033,-0.186786,-0.085962,1.235528,0.166663,0.211891,0.076984,-0.071624,0.054863,0.108032,0.087023,-0.135351,0.898232,0.889357,0.059771,0.269104,0.234321,-0.245169,0.233351,0.69111,-0.847065,0.083997,-0.034971
0.878729,0.044766,0.774075,0.054243,0.020759,-0.001264,0.998311,-0.314598,-0.187915,0.075139,0.404497,-0.099815,0.069183,-0.385211,-0.205994,-0.081575,1.240985,0.072968,0.188221,0.063401,-0.08054,0.060428,0.070034,0.085562,-0.161204,0.897321,0.905954,0.049818,0.264367,0.257961,-0.240238,0.188845,0.646347,-0.819573,0.092952,-0.06079
0.899882,0.044093,0.774383,0.058327,0.018066,0.003832,0.998127,-0.282124,-0.201764,0.066223,0.417635,-0.136193,0.072991,-0.451539,-0.210726,-0.07294,1.206171,-0.020792,0.160692,0.049785,-0.086825,0.064347,0.030585,0.083268,-0.183524,0.895835,0.916706,0.043782,0.261023,0.282526,-0.221798,0.133893,0.606819,-0.784679,0.104768,-0.101066
0.9211530000000001,0.043249,0.774976,0.059975,0.016456,0.008472,0.998028,-0.248146,-0.21013,0.054341,0.424913,-0.168982,0.07608,-0.505995,-0.212323,-0.067272,1.128819,-0.091033,0.155053,0.037405,-0.090164,0.066466,-0.010887,0.078613,-0.204109,0.89337,0.921232,0.040793,0.256868,0.307014,-0.196727,0.081973,0.571693,-0.751908,0.116195,-0.142464
0.942431,0.042296,0.775592,0.059712,0.016144,0.012159,0.998011,-0.212288,-0.213398,0.04126,0.423015,-0.196045,0.07814,-0.547294,-0.211838,-0.068806,1.016126,-0.131754,0.12813,0.026079,-0.091035,0.066971,-0.04829,0.076743,-0.224591,0.887524,0.9221760000000001,0.035486,0.253726,0.321994,-0.173594,0.045553,0.549502,-0.727681,0.126469,-0.1732
0.963736,0.041318,0.775912,0.057234,0.016882,0.014696,0.99811,-0.174071,-0.211042,0.027733,0.411385,-0.21786,0.07906,-0.576876,-0.210328,-0.080216,0.880184,-0.139342,0.111825,0.015464,-0.089869,0.065929,-0.080588,0.077634,-0.24479,0.877546,0.921018,0.029271,0.253221,0.326526,-0.158438,0.031585,0.541943,-0.717432,0.135031,-0.185243
0.985285,0.040167,0.775438,0.055761,0.018253,0.016938,0.998134,-0.136742,-0.208908,0.016019,0.39892,-0.239067,0.078225,-0.592546,-0.206963,-0.097659,0.725551,-0.132771,0.091371,0.004691,-0.088059,0.06349,-0.104546,0.080003,-0.262422,0.862993,0.915084,0.019674,0.255398,0.319044,-0.156793,0.037504,0.551721,-0.721704,0.140458,-0.177635
1.007208,0.039024,0.774727,0.053674,0.020249,0.019357,0.9981660000000001,-0.097208,-0.205055,0.004254,0.379805,-0.255588,0.078371,-0.596946,-0.196993,-0.113408,0.563805,-0.122419,0.100376,-0.006079,-0.085933,0.059748,-0.12519,0.078804,-0.279282,0.849377,0.904975,0.012469,0.259162,0.310423,-0.1622,0.056302,0.5674,-0.738383,0.141161,-0.155877
1.029753,0.037766,0.773713,0.052156,0.022549,0.021863,0.998145,-0.055207,-0.201522,-0.007716,0.356088,-0.268087,0.079009,-0.591781,-0.18476,-0.125877,0.398654,-0.09559,0.125321,-0.015799,-0.08348,0.054954,-0.14273,0.075816,-0.297884,0.839708,0.893761,0.00669,0.262553,0.303089,-0.170394,0.077079,0.585332,-0.762604,0.139219,-0.129942
1.053079,0.036309,0.772117,0.051262,0.024649,0.023975,0.998093,-0.012301,-0.198321,-0.019431,0.33383,-0.276927,0.078432,-0.583525,-0.170415,-0.131141,0.25626,-0.082358,0.153741,-0.023925,-0.080692,0.049841,-0.157772,0.072741,-0.319431,0.835405,0.886281,0.003342,0.264836,0.299211,-0.176192,0.090952,0.602363,-0.788162,0.136622,-0.111738
1.077375,0.034348,0.769406,0.052851,0.024843,0.026625,0.9979380000000002,0.027501,-0.198458,-0.030231,0.330165,-0.288545,0.076476,-0.593511,-0.158923,-0.109054,0.202076,-0.087405,0.197789,-0.031828,-0.077526,0.046359,-0.169108,0.067867,-0.342281,0.835907,0.88405,0.002945,0.26617,0.30135,-0.178185,0.090962,0.616012,-0.806931,0.13555,-0.109667
1.102147,0.03205,0.766626,0.052976,0.025255,0.028159,0.997879,0.064436,-0.194526,-0.039553,0.332123,-0.298306,0.073094,-0.596293,-0.144182,-0.076048,0.199496,-0.079499,0.204004,-0.038735,-0.074248,0.042686,-0.174519,0.065659,-0.36146,0.838253,0.885412,0.006283,0.265136,0.305505,-0.169717,0.079041,0.628898,-0.812051,0.136015,-0.122322
1.127334,0.029303,0.764994,0.051129,0.025748,0.028938,0.997941,0.098119,-0.184901,-0.04655,0.339721,-0.299911,0.067314,-0.597546,-0.128418,-0.057439,0.242769,-0.029662,0.162011,-0.043928,-0.069972,0.038732,-0.17202,0.065795,-0.374086,0.840926,0.887037,0.012886,0.261528,0.309173,-0.153019,0.059837,0.644986,-0.80504,0.139185,-0.140905
1.153655,0.026071,0.767949,0.048512,0.025874,0.029656,0.998047,0.12792,-0.172396,-0.049662,0.366475,-0.281869,0.059369,-0.60619,-0.115768,-0.056148,0.316018,0.037023,0.108803,-0.048134,-0.063693,0.034462,-0.160608,0.06584,-0.379075,0.844845,0.887048,0.023642,0.258258,0.311077,-0.135934,0.039839,0.666233,-0.795931,0.14642,-0.155156
1.180091,0.022628,0.765554,0.044338,0.026227,0.028859,0.998255,0.146164,-0.155764,-0.048083,0.407216,-0.241585,0.047116,-0.607889,-0.105839,-0.068664,0.390105,0.078603,0.076802,-0.051213,-0.054533,0.029275,-0.140212,0.066568,-0.375843,0.851688,0.885334,0.040611,0.257036,0.30944,-0.121638,0.024312,0.692389,-0.793404,0.157353,-0.161135
1.206095,0.019031,0.764137,0.03784,0.026222,0.026923,0.998577,0.150502,-0.134634,-0.042872,0.469039,-0.179863,0.035399,-0.602975,-0.09141800000000001,-0.083662,0.460671,0.074788,0.046416,-0.053399,-0.041785,0.024533,-0.11301,0.06885,-0.366666,0.862942,0.882007,0.063246,0.255486,0.304533,-0.109082,0.013141,0.72015,-0.797428,0.168697,-0.163035
1.231053,0.015339,0.765117,0.027831,0.025733,0.02587,0.998946,0.132542,-0.106864,-0.038971,0.561744,-0.094308,0.019391,-0.586448,-0.068358,-0.099898,0.505746,0.030564,0.015778,-0.054706,-0.025755,0.021385,-0.084897,0.074837,-0.358321,0.878931,0.878795,0.087713,0.249385,0.297286,-0.095113,0.004615,0.745173,-0.802535,0.175206,-0.166519
1.254752,0.011503,0.765482,0.015685,0.024745,0.027998,0.999179,0.086108,-0.071455,-0.036513,0.692464,0.010565,-0.028015,-0.556902,-0.043331,-0.121424,0.525941,-0.013812,-0.004289,-0.055718,-0.007909,0.020545,-0.062544,0.086433,-0.360533,0.898054,0.880737,0.108046,0.236046,0.288585,-0.081031,-0.001907,0.764078,-0.805279,0.173691,-0.173392
1.277373,0.007739,0.765963,0.00254,0.0235,0.033441,0.999161,0.013999,-0.029951,-0.034064,0.849324,0.129637,-0.089485,-0.519904,-0.019308,-0.147898,0.529534,-0.052496,-0.015989,-0.056753,0.010725,0.021684,-0.047387,0.105503,-0.37752,0.915109,0.891707,0.118901,0.215739,0.277745,-0.069448,-0.00489,0.776404,-0.806529,0.165291,-0.180992
1.299223,0.004474,0.766087,-0.010871,0.02234,0.039678,0.998904,-0.072802,0.009634,-0.036316,1.002822,0.225341,-0.125889,-0.482379,0.00463,-0.1746,0.527788,-0.087998,-0.021541,-0.056732,0.02966,0.024339,-0.034484,0.131085,-0.40074,0.922081,0.906256,0.118799,0.193161,0.26306,-0.061772,-0.003569,0.783385,-0.80831,0.154132,-0.186782
1.320861,0.001759,0.766653,-0.022152,0.020692,0.043974,0.998573,-0.160867,0.035842,-0.044128,1.128891,0.270932,-0.151495,-0.443181,0.028129,-0.195139,0.521939,-0.118916,-0.029119,-0.054713,0.047319,0.028099,-0.016124,0.156781,-0.41373,0.913658,0.910482,0.111495,0.17702,0.243919,-0.058763,0.000912,0.786455,-0.811075,0.144059,-0.190718
1.342564,-0.00043,0.7676,-0.03072,0.018223,0.045381,0.998331,-0.244188,0.040085,-0.055979,1.215057,0.228894,-0.143158,-0.402201,0.050894,-0.207141,0.514342,-0.148048,-0.03667,-0.050697,0.061945,0.032727,0.011082,0.178517,-0.407123,0.891673,0.8964,0.104205,0.171517,0.220812,-0.058832,0.008108,0.787454,-0.814046,0.136026,-0.193679
1.364439,-0.002103,0.76866,-0.037246,0.015123,0.044476,0.998201,-0.322415,0.043496,-0.061636,1.264144,0.176095,-0.138635,-0.360162,0.072408,-0.211998,0.507166,-0.176837,-0.04332,-0.044964,0.072902,0.037673,0.045522,0.196269,-0.38437,0.86162,0.868735,0.101525,0.174966,0.194723,-0.060075,0.018448,0.788336,-0.81744,0.128735,-0.196228
1.386576,-0.003372,0.769836,-0.042091,0.011839,0.04185,0.998167,-0.393895,0.043711,-0.066044,1.27269,0.117061,-0.115729,-0.316369,0.092186,-0.211487,0.498861,-0.205035,-0.048883,-0.036957,0.080971,0.042033,0.089899,0.213752,-0.353114,0.822053,0.838783,0.102382,0.182453,0.165096,-0.062388,0.026204,0.800872,-0.824288,0.111693,-0.202752
1.408883,-0.00436,0.771131,-0.045438,0.008913,0.038435,0.998188,-0.457614,0.036455,-0.073671,1.241426,0.043618,-0.086628,-0.27113,0.109443,-0.207287,0.487813,-0.231456,-0.052938,-0.027101,0.086562,0.045439,0.127016,0.223031,-0.32182,0.790128,0.812415,0.109924,0.191751,0.135959,-0.064654,0.036803,0.802895,-0.831292,0.098044,-0.203532
1.4312,-0.005159,0.772372,-0.047303,0.006739,0.034603,0.998258,-0.51153,0.025896,-0.083583,1.171291,-0.02714,-0.066315,-0.225233,0.123748,-0.200058,0.472899,-0.254893,-0.055665,-0.01614,0.089894,0.04797,0.155969,0.217425,-0.295871,0.770079,0.793339,0.126427,0.206544,0.109155,-0.067208,0.052828,0.794507,-0.834583,0.089112,-0.201521
1.453417,-0.005781,0.773136,-0.048324,0.005577,0.030447,0.998352,-0.554179,0.018557,-0.092647,1.066147,-0.06812,-0.061459,-0.180326,0.135653,-0.190645,0.45557,-0.275641,-0.057488,-0.00458,0.09136,0.049775,0.176925,0.21487,-0.269893,0.76063,0.776423,0.137778,0.217698,0.087002,-0.074212,0.069406,0.783164,-0.834936,0.076397,-0.199805
1.475526,-0.006367,0.773149,-0.048009,0.005701,0.025958,0.998493,-0.582562,0.016915,-0.094231,0.927733,-0.09287500000000001,-0.039008,-0.136056,0.144621,-0.179049,0.433903,-0.292701,-0.059065,0.007371,0.091569,0.050476,0.195606,0.210898,-0.246567,0.75591,0.765774,0.146388,0.226205,0.062979,-0.081624,0.087333,0.771599,-0.835155,0.068127,-0.197473
1.49763,-0.006854,0.772295,-0.048045,0.006719,0.021432,0.998593,-0.599191,0.024773,-0.083465,0.76882,-0.089324,-0.024226,-0.093268,0.15313,-0.166863,0.411692,-0.30801,-0.060737,0.019319,0.091273,0.049963,0.211221,0.206873,-0.228072,0.756055,0.762385,0.153472,0.232456,0.040274,-0.087811,0.105629,0.761313,-0.834833,0.063097,-0.195091
1.519842,-0.007322,0.771166,-0.047396,0.008437,0.016943,0.998697,-0.603132,0.033934,-0.06073,0.593008,-0.063707,-0.011734,-0.048511,0.159788,-0.1538,0.382957,-0.317997,-0.061265,0.03089,0.090639,0.047991,0.223713,0.201906,-0.216819,0.760757,0.765439,0.157376,0.236878,0.020431,-0.093622,0.122885,0.752902,-0.833442,0.060472,-0.192247
1.542335,-0.007637,0.769898,-0.0462,0.010359,0.012421,0.998801,-0.593282,0.038296,-0.038007,0.413472,-0.028908,-0.021235,-0.001663,0.164214,-0.14025,0.349871,-0.322023,-0.060229,0.04166,0.08906,0.044976,0.234022,0.19731,-0.212537,0.768996,0.773341,0.156949,0.239836,0.004399,-0.098372,0.138767,0.746971,-0.830332,0.058693,-0.188393
1.565384,-0.007604,0.768076,-0.045535,0.011764,0.008005,0.9988610000000001,-0.579497,0.036904,-0.024703,0.260988,-0.013935,-0.036421,0.043394,0.16749,-0.12703,0.324466,-0.324575,-0.058323,0.051162,0.086579,0.042039,0.243077,0.195146,-0.213052,0.779449,0.78412,0.152513,0.241981,-0.007363,-0.101366,0.153771,0.743788,-0.826952,0.058277,-0.183699
1.589121,-0.007081,0.765598,-0.045678,0.012502,0.004261,0.998869,-0.574103,0.032308,-0.019427,0.186943,-0.019893,-0.04832,0.082093,0.16965,-0.114905,0.317213,-0.332142,-0.056148,0.059355,0.083671,0.039851,0.250224,0.19549,-0.216685,0.791775,0.796272,0.145753,0.243176,-0.014359,-0.10348,0.168009,0.742513,-0.826616,0.063853,-0.179358
1.613582,-0.006029,0.763777,-0.045247,0.012938,0.001397,0.998891,-0.576263,0.025298,-0.019406,0.201831,-0.010641,-0.05634,0.113917,0.16817,-0.104177,0.326995,-0.337705,-0.054708,0.066774,0.080012,0.037864,0.254346,0.195656,-0.222179,0.806398,0.809466,0.139049,0.24266,-0.015566,-0.106288,0.18161,0.741866,-0.832269,0.081379,-0.17724
1.639401,-0.004483,0.766655,-0.043513,0.01245,-0.002166,0.9989730000000001,-0.583807,0.010919,-0.029505,0.271469,0.018431,-0.020968,0.145812,0.162443,-0.09376300000000001,0.351309,-0.331331,-0.053208,0.074348,0.074507,0.035356,0.257137,0.19329,-0.225224,0.823249,0.822848,0.135366,0.241546,-0.009998000000000002,-0.109326,0.19548,0.742555,-0.84364,0.111394,-0.178216
1.665724,-0.002627,0.766933,-0.03797,0.011745,-0.005485,0.999195,-0.581415,-0.008957,-0.032713,0.329813,0.082634,0.028138,0.17418,0.146969,-0.083378,0.37739,-0.307636,-0.051864,0.080678,0.06555,0.0313,0.258818,0.183432,-0.221308,0.842856,0.83341,0.136734,0.241956,0.003091,-0.113966,0.207114,0.746498,-0.855981,0.147398,-0.180716
1.692461,-0.000621,0.764455,-0.030867,0.010407,-0.006435,0.999449,-0.561392,-0.021626,-0.020615,0.370578,0.125442,0.009405,0.191352,0.124914,-0.07967,0.426537,-0.252575,-0.035267,0.084125,0.052265,0.026559,0.258305,0.168477,-0.207512,0.865121,0.838014,0.144356,0.244215,0.024342,-0.116174,0.211111,0.757116,-0.861556,0.180087,-0.182205
1.718445,0.001216,0.764463,-0.020636,0.009117,-0.005547,0.99973,-0.537454,-0.039442,-0.002611,0.407687,0.122874,0.011242,0.187404,0.09419400000000001,-0.080213,0.505351,-0.170271,-0.0039,0.085548,0.035243,0.02312,0.252638,0.148667,-0.18822,0.888707,0.83685,0.155133,0.246434,0.050886,-0.11751,0.203208,0.775408,-0.856636,0.204944,-0.17758
1.743134,0.003079,0.766418,-0.009236,0.007691,-0.004915,0.999916,-0.51046,-0.063247,0.013502,0.432412,0.088946,0.036036,0.149641,0.059322,-0.076617,0.62968,-0.053259,0.035639,0.085825,0.016668,0.022123,0.240581,0.12883,-0.170828,0.909198,0.835384,0.163901,0.247524,0.077624,-0.117432,0.187627,0.799063,-0.842419,0.220306,-0.162396
1.766545,0.004951,0.768006,0.002787,0.006349,-0.00728,0.999949,-0.476633,-0.085299,0.031739,0.440712,0.053384,0.044702,0.080489,0.018571,-0.071873,0.789254,0.072471,0.093943,0.085766,-0.001539,0.023613,0.224193,0.111612,-0.160987,0.921478,0.838205,0.165201,0.248252,0.098996,-0.121203,0.177488,0.822514,-0.827803,0.225158,-0.134811
1.788895,0.006513,0.76893,0.014764,0.00549,-0.011942,0.999805,-0.440733,-0.104855,0.051646,0.439175,0.020357,0.048058,-0.00543,-0.02825,-0.066925,0.951635,0.193147,0.174084,0.085114,-0.019387,0.026725,0.205232,0.098073,-0.159161,0.922805,0.845192,0.15764,0.249627,0.113669,-0.134407,0.186189,0.838724,-0.823535,0.217604,-0.09673300000000001
1.810574,0.007594,0.769809,0.026112,0.004981,-0.015897,0.99952,-0.405914,-0.124166,0.069101,0.435739,-0.011173,0.051976,-0.096884,-0.076634,-0.063912,1.09077,0.287255,0.23456,0.082596,-0.037543,0.031025,0.183647,0.088109,-0.162341,0.915125,0.852718,0.143738,0.251311,0.12516,-0.158262,0.215443,0.840876,-0.833764,0.196767,-0.055427
1.832042,0.008264,0.770912,0.034916,0.00395,-0.016835,0.999241,-0.36901,-0.142957,0.078496,0.429692,-0.039937,0.058174,-0.186572,-0.108937,-0.05858,1.190787,0.285644,0.241024,0.077676,-0.054734,0.035661,0.156171,0.081493,-0.165566,0.90824,0.86072,0.126014,0.252375,0.140349,-0.189409,0.250009,0.825108,-0.849545,0.165367,-0.022665
1.853241,0.008396,0.771569,0.043647,0.00251,-0.015606,0.998922,-0.33643,-0.163225,0.083378,0.432194,-0.069662,0.064347,-0.272188,-0.132418,-0.053025,1.255227,0.211165,0.238922,0.071288,-0.069269,0.040733,0.129697,0.078573,-0.173912,0.904063,0.866021,0.105126,0.254994,0.161512,-0.212905,0.271103,0.791473,-0.86205,0.145853,-0.008297
1.874615,0.008157,0.77219,0.050547,0.000444,-0.012081,0.998649,-0.301558,-0.182264,0.081442,0.435247,-0.100584,0.069302,-0.347204,-0.157655,-0.054057,1.276471,0.125424,0.207141,0.063364,-0.080929,0.044917,0.092988,0.075333,-0.186707,0.904742,0.873842,0.094118,0.253172,0.189199,-0.225979,0.265292,0.750629,-0.857073,0.136947,-0.011384
1.896143,0.007634,0.773006,0.054965,-0.001654,-0.007181,0.998461,-0.264464,-0.197595,0.073273,0.437116,-0.131913,0.073633,-0.411365,-0.174685,-0.054291,1.252523,0.048501,0.187348,0.054336,-0.089255,0.047923,0.046289,0.069915,-0.203756,0.911092,0.88586,0.092744,0.248488,0.218282,-0.218043,0.238427,0.710734,-0.83692,0.142147,-0.030353
1.917588,0.006882,0.773763,0.058307,-0.003063,-0.001968,0.998292,-0.229894,-0.210135,0.062577,0.44223,-0.164207,0.077732,-0.466202,-0.18596,-0.052896,1.188456,-0.024457,0.157763,0.044688,-0.094631,0.04998,0.001788,0.068268,-0.223848,0.9161490000000002,0.898629,0.088914,0.243815,0.244942,-0.206181,0.198694,0.676604,-0.805439,0.146845,-0.055627
1.938907,0.006119,0.774621,0.059019,-0.003396,0.003006,0.9982470000000001,-0.194399,-0.217192,0.048752,0.441418,-0.192467,0.081138,-0.509245,-0.192338,-0.054439,1.085521,-0.074888,0.131582,0.03501,-0.097429,0.050575,-0.03906,0.068764,-0.244449,0.916986,0.91002,0.083121,0.241112,0.263959,-0.190912,0.16178,0.653741,-0.775319,0.151395,-0.081525
1.96008,0.005348,0.774868,0.05865,-0.002684,0.007233,0.998249,-0.158945,-0.220932,0.034357,0.435521,-0.216786,0.083491,-0.540266,-0.19247,-0.056149,0.95339,-0.110865,0.103736,0.025489,-0.098,0.049879,-0.071232,0.070357,-0.261961,0.911849,0.915327,0.073095,0.241993,0.269429,-0.179349,0.138352,0.648305,-0.756327,0.157409,-0.102265
1.981253,0.004572,0.774471,0.058194,-0.000995,0.010329,0.9982510000000001,-0.121941,-0.223035,0.020645,0.422154,-0.23771,0.084774,-0.557788,-0.192931,-0.066756,0.799959,-0.113716,0.092093,0.016931,-0.097329,0.047732,-0.098304,0.068637,-0.275924,0.9024390000000002,0.912625,0.063468,0.242989,0.267999,-0.173997,0.130723,0.652952,-0.754165,0.164332,-0.112141
2.002542,0.003895,0.773835,0.056778,0.001586,0.012666,0.9983050000000001,-0.081719,-0.222387,0.007015,0.398461,-0.252597,0.084986,-0.563155,-0.18696,-0.081312,0.630814,-0.10074,0.087844,0.009404,-0.095641,0.044208,-0.119342,0.066833,-0.288733,0.8902,0.904025,0.053354,0.242749,0.260749,-0.172562,0.13491,0.664676,-0.764836,0.16968,-0.108306
2.024155,0.003119,0.77284,0.056168,0.004669,0.014685,0.998302,-0.041212,-0.221889,-0.005221,0.372605,-0.264236,0.084083,-0.557833,-0.178025,-0.093899,0.454704,-0.08121,0.114195,0.00326,-0.093091,0.039671,-0.13486,0.064577,-0.303491,0.877201,0.893399,0.042841,0.241962,0.251938,-0.174049,0.141277,0.678554,-0.780962,0.173099,-0.09334
2.046174,0.002293,0.771532,0.055052,0.008346,0.015958,0.998321,-0.000836,-0.219577,-0.016147,0.34527,-0.271844,0.082323,-0.547915,-0.164926,-0.105606,0.29142,-0.068078,0.132071,-0.001192,-0.089846,0.034494,-0.145406,0.06337,-0.319857,0.864925,0.883309,0.033851,0.241955,0.243705,-0.17348,0.142418,0.690197,-0.794903,0.17524,-0.074562
2.06891,0.001075,0.769182,0.05559,0.011129,0.017012,0.9982470000000001,0.035784,-0.219262,-0.024745,0.332343,-0.283659,0.079705,-0.55714,-0.154187,-0.099066,0.208822,-0.073965,0.16688,-0.005343,-0.085891,0.030378,-0.150199,0.060179,-0.335302,0.855428,0.87303,0.027575,0.243481,0.238615,-0.172633,0.135087,0.697093,-0.803434,0.177217,-0.060846
2.092385,-0.000659,0.766108,0.057179,0.013518,0.017084,0.998126,0.068141,-0.219664,-0.030623,0.332777,-0.299524,0.076425,-0.570421,-0.14413,-0.077691,0.197139,-0.070417,0.200669,-0.009497,-0.08221,0.026341,-0.148202,0.055759,-0.346468,0.850714,0.862091,0.025756,0.245683,0.236079,-0.170509,0.122877,0.700625,-0.807142,0.178132,-0.056902
2.116379,-0.002862,0.764057,0.056427,0.016146,0.016312,0.998143,0.098685,-0.214328,-0.035392,0.336167,-0.308668,0.072279,-0.574725,-0.127964,-0.055115,0.225959,-0.040128,0.181023,-0.013559,-0.078079,0.021323,-0.139553,0.053157,-0.351712,0.852785,0.85152,0.029931,0.247305,0.234172,-0.163375,0.1106,0.704538,-0.808772,0.178254,-0.061652
2.141554,-0.005658,0.766259,0.053191,0.017589,0.016225,0.998298,0.133197,-0.203286,-0.04098,0.346347,-0.304765,0.067022,-0.588825,-0.107612,-0.039649,0.299381,0.007866,0.129618,-0.017581,-0.0716,0.016279,-0.125085,0.051425,-0.352203,0.864458,0.843866,0.04128,0.249162,0.233985,-0.152254,0.098525,0.711174,-0.810657,0.180022,-0.070984
2.167311,-0.008868,0.764065,0.047697,0.018495,0.015308,0.998573,0.161755,-0.186422,-0.045775,0.364523,-0.277511,0.058565,-0.586619,-0.088998,-0.041528,0.360355,0.06563,0.096201,-0.021133,-0.061783,0.010387,-0.104628,0.050326,-0.347569,0.886291,0.841219,0.061568,0.25363,0.234155,-0.138522,0.086611,0.722228,-0.813419,0.1844,-0.079868
2.193172,-0.012402,0.763143,0.040834,0.018238,0.013246,0.998912,0.179539,-0.166078,-0.047824,0.40512,-0.229388,0.038293,-0.576583,-0.069822,-0.048972,0.420897,0.078304,0.071594,-0.025208,-0.048205,0.005568,-0.07821,0.048849,-0.33705,0.91593,0.842054,0.089741,0.260551,0.232968,-0.124847,0.074079,0.737684,-0.816294,0.190727,-0.085403
2.218197,-0.016078,0.765279,0.031341,0.017516,0.011723,0.999286,0.178807,-0.141261,-0.050202,0.471534,-0.160842,0.012028,-0.562358,-0.045239,-0.059719,0.469424,0.049742,0.029951,-0.030062,-0.03172,0.002845,-0.049685,0.048939,-0.323566,0.94942,0.843547,0.119693,0.264695,0.229409,-0.110122,0.060212,0.754999,-0.817743,0.197139,-0.087708
2.24223,-0.01979,0.767349,0.019386,0.016784,0.013684,0.999578,0.151499,-0.110741,-0.057111,0.574748,-0.066854,-0.055287,-0.53544,-0.02127,-0.080111,0.495156,0.009848,0.002431,-0.035437,-0.014199,0.002126,-0.025875,0.054672,-0.317621,0.983055,0.849355,0.142239,0.259092,0.224414,-0.093657,0.044592,0.770191,-0.81725,0.202043,-0.089165
2.264787,-0.023611,0.768074,0.006884,0.01591,0.020436,0.999641,0.090956,-0.077868,-0.063991,0.719946,0.057443,-0.118841,-0.504281,-0.001464,-0.108313,0.508528,-0.027663,-0.018558,-0.041811,0.002819,0.003581,-0.007459,0.070225,-0.329462,1.005829,0.870899,0.153247,0.240529,0.212445,-0.076101,0.028568,0.782776,-0.816173,0.20626,-0.089793
2.286427,-0.027272,0.768599,-0.00586,0.014982,0.031079,0.999387,0.010716,-0.04137,-0.069626,0.883869,0.161841,-0.20013,-0.470448,0.015213,-0.141674,0.513413,-0.061602,-0.033567,-0.048786,0.018935,0.005925,-0.0042,0.097812,-0.359205,1.028536,0.902516,0.147095,0.221419,0.221581,-0.064884,0.015347,0.79561,-0.813827,0.182592,-0.104586
2.307769,-0.030516,0.769075,-0.01725,0.013536,0.042901,0.998839,-0.081007,-0.003927,-0.070184,1.037026,0.257394,-0.2332,-0.432351,0.029815,-0.174665,0.510533,-0.092923,-0.043403,-0.054723,0.034582,0.009046,-0.003404,0.129567,-0.387133,1.033713,0.930858,0.131271,0.208956,0.216257,-0.056482,0.010007,0.805405,-0.816381,0.163625,-0.112434
2.329186,-0.033199,0.770065,-0.025938,0.011101,0.052875,0.998203,-0.171375,0.026619,-0.069501,1.158642,0.268432,-0.221077,-0.388905,0.043674,-0.20137,0.500405,-0.121526,-0.049109,-0.057369,0.048985,0.012885,-3.7e-05,0.157865,-0.393604,1.019192,0.936563,0.113321,0.203436,0.20416,-0.054327,0.013481,0.812636,-0.825517,0.148231,-0.115803
2.350571,-0.035108,0.77095,-0.033561,0.00768,0.059162,0.997655,-0.259398,0.045512,-0.070211,1.243776,0.214416,-0.202274,-0.346021,0.059674,-0.219898,0.492831,-0.150086,-0.051735,-0.055716,0.061526,0.018003,0.00951,0.182376,-0.374482,0.987721,0.9168710000000002,0.099776,0.202978,0.186881,-0.055557,0.023897,0.819147,-0.839242,0.136656,-0.116456
2.372129,-0.036422,0.771876,-0.03867,0.003814,0.060901,0.997387,-0.335672,0.050133,-0.07029,1.282687,0.157738,-0.173829,-0.301663,0.076117,-0.227822,0.483714,-0.177666,-0.052587,-0.049967,0.071547,0.02289,0.029498,0.200951,-0.337109,0.939777,0.883336,0.094215,0.207775,0.162085,-0.057811,0.038116,0.825208,-0.8545,0.132544,-0.11384
2.393706,-0.037224,0.772646,-0.042381,0.000303,0.05928,0.997341,-0.403405,0.047141,-0.072957,1.277537,0.098406,-0.160021,-0.259028,0.092298,-0.227939,0.476532,-0.205088,-0.052661,-0.040734,0.078842,0.027212,0.055085,0.216962,-0.290165,0.885318,0.844708,0.0917,0.218555,0.133775,-0.061457,0.048807,0.835757,-0.869662,0.124899,-0.111927
2.415203,-0.037705,0.773187,-0.045347,-0.002313,0.055495,0.997426,-0.464329,0.038926,-0.078504,1.236671,0.019514,-0.125748,-0.218864,0.10784,-0.223324,0.470897,-0.231974,-0.053362,-0.028697,0.084288,0.030644,0.080227,0.223754,-0.241928,0.831372,0.806685,0.093855,0.232939,0.109093,-0.064897,0.058765,0.836657,-0.881201,0.116076,-0.110387
2.436605,-0.03805,0.773707,-0.046491,-0.003656,0.050555,0.997632,-0.51423,0.032445,-0.081385,1.155934,-0.049866,-0.102551,-0.178862,0.120495,-0.214655,0.460987,-0.255266,-0.05536,-0.015232,0.088148,0.032774,0.104207,0.222678,-0.199072,0.781791,0.772692,0.09673,0.247521,0.087357,-0.069798,0.067519,0.827497,-0.887617,0.105506,-0.110891
2.457856,-0.03824,0.773844,-0.047182,-0.003921,0.045156,0.9978570000000001,-0.551974,0.032231,-0.079882,1.040118,-0.089577,-0.092655,-0.140075,0.131613,-0.203817,0.449041,-0.275635,-0.057697,-0.001249,0.090864,0.033994,0.125944,0.219013,-0.167497,0.739605,0.74773,0.098775,0.259236,0.068713,-0.075143,0.075423,0.811252,-0.88843,0.093549,-0.114723
2.478996,-0.038401,0.773602,-0.046869,-0.00317,0.039525,0.998114,-0.57635,0.035779,-0.072577,0.896984,-0.097318,-0.076353,-0.100107,0.1406,-0.190737,0.430355,-0.290936,-0.058459,0.012721,0.092707,0.034295,0.14446,0.21374,-0.150574,0.707492,0.735472,0.099667,0.26799,0.05287,-0.081445,0.082719,0.791927,-0.884909,0.082684,-0.121015
2.500147,-0.038503,0.772871,-0.046615,-0.001673,0.034112,0.998329,-0.585361,0.04353,-0.057234,0.732338,-0.095335,-0.053086,-0.059025,0.148967,-0.17677,0.406466,-0.301748,-0.058174,0.025924,0.093883,0.033581,0.152842,0.201345,-0.150383,0.692055,0.738012,0.105887,0.277994,0.040085,-0.08938,0.091884,0.773429,-0.875596,0.0744,-0.127981
2.521437,-0.038526,0.771992,-0.046199,0.000312,0.028978,0.998512,-0.580514,0.049549,-0.038059,0.554216,-0.067815,-0.050015,-0.016569,0.156227,-0.162027,0.378003,-0.306765,-0.057499,0.037886,0.094377,0.0319,0.163699,0.195731,-0.156248,0.684383,0.748538,0.105577,0.284983,0.02803,-0.096163,0.101018,0.758371,-0.865438,0.070301,-0.13293
2.54298,-0.038318,0.77103,-0.046091,0.00243,0.023704,0.998653,-0.565557,0.050873,-0.01719,0.381137,-0.037644,-0.047813,0.024681,0.162562,-0.146467,0.351587,-0.307177,-0.055971,0.048508,0.09430500000000001,0.029665,0.174875,0.191997,-0.164189,0.684662,0.764813,0.103439,0.292784,0.018031,-0.100761,0.11045,0.746934,-0.856265,0.068763,-0.137152
2.564972,-0.03772,0.770378,-0.045912,0.004391,0.018417,0.998766,-0.549909,0.046145,-0.004369,0.248272,-0.02278,-0.061177,0.062257,0.166698,-0.129943,0.335095,-0.30847,-0.053164,0.057563,0.093206,0.027359,0.185671,0.186922,-0.169976,0.692569,0.783026,0.101954,0.302728,0.010705,-0.103587,0.119643,0.739151,-0.849273,0.068333,-0.144331
2.587941,-0.036632,0.772742,-0.046531,0.005596,0.013202,0.998814,-0.54223,0.040867,0.003957,0.18962,-0.022878,-0.070458,0.097356,0.170669,-0.113148,0.336717,-0.313843,-0.049785,0.065071,0.09123800000000001,0.025091,0.196944,0.179694,-0.169939,0.707147,0.798452,0.101797,0.313215,0.007365,-0.10401,0.128086,0.735647,-0.844789,0.068838,-0.156813
2.611529,-0.035132,0.772714,-0.045685,0.006257,0.007772,0.998906,-0.541701,0.032279,0.004166,0.209406,-0.003395,-0.054322,0.128167,0.169098,-0.095439,0.345688,-0.316555,-0.044654,0.071998,0.087708,0.02236,0.208691,0.167408,-0.164301,0.727453,0.808374,0.102505,0.322303,0.009596,-0.104416,0.13493,0.735646,-0.842669,0.071343,-0.170926
2.635997,-0.033289,0.772262,-0.042794,0.006139,0.001447,0.999064,-0.542162,0.018473,-0.004766,0.261752,0.055332,0.002901,0.156583,0.160862,-0.077998,0.363003,-0.303652,-0.037638,0.078768,0.081427,0.018753,0.221264,0.151111,-0.155171,0.7524,0.814186,0.104662,0.329832,0.01912,-0.104731,0.138416,0.738062,-0.840928,0.076463,-0.180805
2.661234,-0.031178,0.771285,-0.037828,0.005534,-0.003859,0.999261,-0.532613,0.006405,-0.003328,0.305642,0.111721,0.019692,0.18018,0.145493,-0.06553,0.392117,-0.269023,-0.027538,0.083699,0.071394,0.014126,0.233598,0.13306,-0.14601,0.781751,0.81874,0.108411,0.335219,0.037809,-0.102956,0.13293,0.7423,-0.834062,0.084815,-0.185534
2.686739,-0.028969,0.767302,-0.030029,0.004728,-0.006554,0.999516,-0.510006,-0.004868,0.01124,0.348906,0.132405,0.029433,0.194557,0.123554,-0.056447,0.438921,-0.21213,-0.010593,0.086151,0.056922,0.009681,0.242993,0.114807,-0.139849,0.81598,0.823203,0.112295,0.337128,0.065155,-0.098483,0.115712,0.749528,-0.817779,0.097138,-0.186993
2.711162,-0.026756,0.76958,-0.020725,0.003728,-0.007669,0.9997490000000001,-0.490024,-0.022428,0.026629,0.381441,0.118888,0.033205,0.18414,0.096118,-0.048382,0.520405,-0.122881,0.034534,0.087063,0.039369,0.00667,0.246826,0.100193,-0.139106,0.853365,0.829791,0.114206,0.334891,0.095701,-0.093802,0.09777400000000001,0.76201,-0.797356,0.110482,-0.182427
2.734485,-0.024464,0.771501,-0.01019,0.002812,-0.009898,0.999895,-0.463527,-0.042504,0.043553,0.401586,0.085865,0.050801,0.142385,0.064194,-0.039637,0.642718,-0.017558,0.092286,0.087404,0.021368,0.005736,0.243695,0.090463,-0.14618,0.889425,0.842024,0.112126,0.329398,0.121324,-0.099214,0.10016,0.778387,-0.78901,0.117476,-0.163821
2.756646,-0.022211,0.773127,0.001078,0.002013,-0.01473,0.999889,-0.433564,-0.061914,0.063662,0.412436,0.051246,0.061883,0.071279,0.026312,-0.036373,0.80006,0.101625,0.138327,0.088036,0.004424,0.007138,0.233721,0.084387,-0.159519,0.9187630000000001,0.859769,0.105914,0.323181,0.138534,-0.122851,0.134026,0.790866,-0.804968,0.110374,-0.12945
2.777787,-0.020288,0.773688,0.012154,0.001646,-0.020382,0.999717,-0.404836,-0.080513,0.084091,0.419801,0.018863,0.071377,-0.012598,-0.022688,-0.04344,0.955906,0.21116,0.209374,0.088476,-0.011607,0.010132,0.217199,0.079791,-0.17349,0.938771,0.877371,0.096842,0.31939,0.150884,-0.161216,0.185167,0.789043,-0.838317,0.089064,-0.092146
2.798336,-0.018824,0.774036,0.021856,0.001159,-0.023707,0.999479,-0.375544,-0.099146,0.099149,0.424338,-0.013475,0.074844,-0.097786,-0.07691,-0.058042,1.086019,0.295266,0.243691,0.086974,-0.027146,0.014355,0.192816,0.075988,-0.183186,0.954537,0.893463,0.085185,0.319785,0.166311,-0.202158,0.222701,0.77018,-0.863367,0.063258,-0.067285
2.818405,-0.017893,0.774185,0.030767,-1.1e-05,-0.023247,0.999256,-0.34728,-0.119819,0.106948,0.430917,-0.044938,0.078862,-0.184222,-0.114159,-0.058578,1.181762,0.28271,0.241283,0.082094,-0.041468,0.020067,0.164709,0.074285,-0.198231,0.961301,0.90618,0.076989,0.320522,0.184233,-0.223494,0.227881,0.744289,-0.864065,0.056352,-0.061217
2.838278,-0.017406,0.774354,0.03788,-0.002018,-0.020112,0.999078,-0.317513,-0.139685,0.107784,0.437653,-0.075671,0.083282,-0.263201,-0.138147,-0.059262,1.238268,0.190007,0.217169,0.075405,-0.053255,0.025962,0.131972,0.074613,-0.214886,0.965909,0.91903,0.070355,0.320502,0.208079,-0.22844,0.200429,0.718531,-0.836396,0.065399,-0.071608
2.85813,-0.017362,0.774636,0.043812,-0.004559,-0.014842,0.998919,-0.285971,-0.158524,0.102943,0.444311,-0.106036,0.087321,-0.331485,-0.160313,-0.063575,1.24994,0.096467,0.191836,0.067027,-0.062265,0.031292,0.099048,0.076655,-0.224327,0.969999,0.927137,0.05813,0.32191,0.236131,-0.220956,0.156063,0.692927,-0.795586,0.086333,-0.093667
2.878058,-0.017563,0.775372,0.047449,-0.00707,-0.007697,0.998819,-0.250682,-0.174352,0.091398,0.445876,-0.134335,0.090881,-0.386207,-0.179836,-0.071273,1.213957,0.017216,0.179797,0.057051,-0.068653,0.0353,0.062736,0.071109,-0.225214,0.967947,0.926715,0.050766,0.322994,0.256417,-0.200639,0.11343,0.674978,-0.758767,0.116153,-0.121483
2.897828,-0.01794,0.776189,0.050264,-0.008848,0.000618,0.998697,-0.217002,-0.188437,0.076023,0.448207,-0.161298,0.094075,-0.431924,-0.191743,-0.07847,1.138555,-0.055287,0.140385,0.045991,-0.072821,0.03842,0.029678,0.065356,-0.222316,0.956568,0.918334,0.040741,0.325105,0.273648,-0.18527,0.077946,0.659762,-0.732756,0.139956,-0.142741
2.917321,-0.018315,0.77692,0.051111,-0.009334,0.008975,0.998609,-0.18451,-0.198129,0.057772,0.447252,-0.184837,0.0965,-0.467141,-0.201962,-0.092715,1.029747,-0.111328,0.116324,0.035375,-0.075036,0.04027,-0.003093,0.060002,-0.224114,0.939165,0.909721,0.031046,0.328768,0.289085,-0.17312,0.056831,0.645618,-0.721392,0.155318,-0.15329
2.936531,-0.018657,0.777128,0.051248,-0.008635,0.016591,0.998511,-0.15288,-0.204989,0.039383,0.442151,-0.205131,0.098025,-0.49348,-0.209702,-0.111502,0.900093,-0.133711,0.09507,0.025727,-0.075862,0.040895,-0.029282,0.061992,-0.23175,0.915901,0.9031920000000001,0.015666,0.332932,0.293019,-0.1667,0.051905,0.644951,-0.721062,0.162589,-0.152312
2.955596,-0.018946,0.776786,0.051773,-0.006964,0.022779,0.998375,-0.120524,-0.210695,0.022973,0.430929,-0.221483,0.098643,-0.508862,-0.21435,-0.135181,0.755782,-0.13258,0.080282,0.017757,-0.076164,0.040058,-0.052031,0.063412,-0.243437,0.891396,0.897663,0.001808,0.33679,0.293116,-0.165444,0.059284,0.652235,-0.730907,0.164022,-0.14047
2.974631,-0.019097,0.776346,0.051647,-0.004771,0.027816,0.998267,-0.085053,-0.21395,0.00748,0.410679,-0.232182,0.098789,-0.516111,-0.206516,-0.154127,0.60367,-0.113353,0.08112,0.011603,-0.075801,0.03799,-0.069999,0.064615,-0.255397,0.867366,0.890359,-0.00999,0.339342,0.289702,-0.16647,0.072972,0.664747,-0.748725,0.162804,-0.12067
2.993814,-0.019294,0.775769,0.05154,-0.002408,0.032275,0.998146,-0.048621,-0.215919,-0.007113,0.387742,-0.240242,0.098836,-0.51445,-0.189855,-0.160407,0.449698,-0.087758,0.104912,0.007257,-0.074445,0.03509,-0.083914,0.064245,-0.26683,0.846072,0.880831,-0.019546,0.340781,0.285663,-0.167949,0.084832,0.676632,-0.770545,0.160805,-0.099847
3.013327,-0.019723,0.774915,0.051635,-0.000141,0.03639,0.998003,-0.013633,-0.216845,-0.020613,0.368809,-0.246749,0.098461,-0.50616,-0.172245,-0.158044,0.309014,-0.066697,0.151335,0.004632,-0.072409,0.031873,-0.095059,0.062361,-0.278417,0.829888,0.871326,-0.025869,0.342042,0.283519,-0.166624,0.087837,0.682887,-0.78855,0.158565,-0.08567
3.033343,-0.020598,0.773581,0.052607,0.001336,0.040566,0.99779,0.018856,-0.217946,-0.033373,0.360452,-0.257705,0.096643,-0.504989,-0.159749,-0.152164,0.223056,-0.06718,0.180541,0.002605,-0.070385,0.029132,-0.103158,0.05918,-0.290182,0.820476,0.864019,-0.028005,0.343733,0.284377,-0.161639,0.080251,0.683236,-0.796899,0.156747,-0.081196
3.053828,-0.022017,0.772767,0.054076,0.002332,0.0441,0.99756,0.048743,-0.218018,-0.044337,0.361248,-0.26978,0.093537,-0.506372,-0.15543,-0.154028,0.202219,-0.071747,0.198003,0.000751,-0.068888,0.026168,-0.106378,0.055822,-0.300526,0.817674,0.859172,-0.025989,0.346041,0.286335,-0.153745,0.067422,0.68151,-0.797163,0.155719,-0.083398
3.074905,-0.023763,0.776471,0.052817,0.003496,0.047157,0.997484,0.080588,-0.211869,-0.053965,0.363026,-0.270855,0.089624,-0.499767,-0.147733,-0.155719,0.215958,-0.030229,0.154792,-0.001955,-0.066677,0.021847,-0.103586,0.055138,-0.307727,0.820242,0.855605,-0.02059,0.347776,0.28591,-0.142356,0.056894,0.682493,-0.795888,0.155812,-0.08683
3.096439,-0.025857,0.77704,0.050429,0.003753,0.05055,0.997441,0.109561,-0.201231,-0.06292,0.368966,-0.26294,0.085453,-0.498538,-0.141711,-0.160769,0.260224,0.021163,0.113056,-0.005329,-0.06248,0.016873,-0.094798,0.054849,-0.312303,0.82904,0.852171,-0.012895,0.347795,0.284287,-0.131615,0.049508,0.687488,-0.797836,0.158324,-0.088887
3.118466,-0.028126,0.774573,0.046411,0.003933,0.053426,0.997485,0.13499,-0.186444,-0.069491,0.382585,-0.242856,0.082004,-0.486708,-0.134396,-0.170777,0.295949,0.080552,0.076411,-0.008957,-0.055671,0.010414,-0.080777,0.055716,-0.313935,0.845229,0.849924,-0.001333,0.345643,0.281207,-0.121017,0.04392,0.696574,-0.802437,0.16287,-0.089209
3.140346,-0.03063,0.774344,0.04098,0.004001,0.054849,0.997645,0.150521,-0.16844,-0.071424,0.412167,-0.203651,0.082458,-0.468825,-0.123009,-0.182439,0.327166,0.106622,0.052926,-0.012225,-0.045601,0.003362,-0.062189,0.05751,-0.31236,0.869093,0.849604,0.015801,0.339808,0.276544,-0.110556,0.038089,0.708722,-0.807298,0.168757,-0.08849
3.161512,-0.033286,0.777426,0.032758,0.004082,0.055535,0.9979110000000002,0.150876,-0.145274,-0.071128,0.460668,-0.141242,0.077501,-0.44895,-0.103381,-0.193702,0.34921,0.089209,0.028018,-0.015055,-0.032536,-0.00302,-0.041406,0.061433,-0.308897,0.898599,0.850576,0.038026,0.325718,0.270013,-0.09870300000000001,0.031871,0.721772,-0.810688,0.173989,-0.087736
3.182045,-0.036117,0.780407,0.0229,0.003993,0.057763,0.99806,0.133276,-0.117504,-0.068897,0.534658,-0.06349,0.057057,-0.420284,-0.080709,-0.208762,0.357325,0.058706,0.017719,-0.017938,-0.017987,-0.007783,-0.022111,0.067842,-0.308788,0.930027,0.853194,0.060544,0.299632,0.262852,-0.086906,0.025427,0.732459,-0.812387,0.176269,-0.088591
3.201413,-0.039188,0.781901,0.012531,0.003478,0.063061,0.997925,0.094375,-0.084433,-0.06013,0.638833,0.021127,0.029592,-0.388427,-0.058491,-0.229439,0.357087,0.030639,0.001235,-0.021831,-0.003589,-0.010104,-0.007213,0.07982,-0.318956,0.957834,0.862028,0.076519,0.263239,0.254822,-0.076127,0.020192,0.739148,-0.812811,0.1743,-0.091034
3.219323,-0.042242,0.781242,0.000888,0.002705,0.070763,0.997489,0.0317,-0.046681,-0.050798,0.773735,0.11427,-0.004949,-0.360298,-0.036016,-0.255109,0.358691,0.003017,-0.015766,-0.02616,0.010828,-0.009703,0.006909,0.101781,-0.340946,0.969225,0.883002,0.082699,0.220806,0.238192,-0.062737,0.018828,0.744253,-0.81285,0.173814,-0.093197
3.236511,-0.045341,0.780537,-0.010886,0.00184,0.079445,0.996778,-0.041536,0.004142,-0.031176,0.915367,0.203668,-0.069774,-0.334748,-0.013843,-0.28233,0.362474,-0.024617,-0.028694,-0.030166,0.025759,-0.008,0.014844,0.131323,-0.368111,0.97169,0.9076280000000002,0.076557,0.1825,0.226222,-0.053963,0.02078,0.743806,-0.812334,0.166805,-0.09592
3.253076,-0.048108,0.778832,-0.023411,0.000764,0.086916,0.99594,-0.117215,0.068672,-0.00893,1.043825,0.281019,-0.142371,-0.312962,0.010491,-0.30771,0.370231,-0.052518,-0.036544,-0.031732,0.041902,-0.005348,0.017453,0.163335,-0.388162,0.971212,0.922401,0.063947,0.158249,0.22146,-0.051043,0.024336,0.742663,-0.811913,0.149568,-0.102751
3.269482,-0.05047,0.777124,-0.034988,-0.001279,0.091195,0.995217,-0.191338,0.113241,-0.004147,1.148312,0.296513,-0.172823,-0.289365,0.036898,-0.326453,0.37606,-0.079541,-0.042041,-0.029676,0.05822,-0.002097,0.029848,0.190805,-0.388175,0.956221,0.9211490000000001,0.057701,0.150325,0.214097,-0.050947,0.026491,0.752928,-0.813924,0.127214,-0.117067
3.285802,-0.052321,0.775762,-0.044781,-0.004167,0.092996,0.99465,-0.260514,0.122779,-0.014413,1.215826,0.212797,-0.156865,-0.264673,0.062492,-0.33838,0.38211,-0.105621,-0.046684,-0.025974,0.072257,0.001556,0.048865,0.209059,-0.362776,0.933255,0.901311,0.063375,0.157,0.195743,-0.048973,0.027617,0.765362,-0.818365,0.119058,-0.128023
3.30204,-0.053584,0.77505,-0.051871,-0.007299,0.092726,0.994313,-0.321223,0.121724,-0.024019,1.242611,0.124866,-0.141546,-0.238706,0.084677,-0.343479,0.386676,-0.128257,-0.050954,-0.021573,0.082602,0.005051,0.073429,0.215893,-0.316937,0.90614,0.866302,0.078811,0.175297,0.174095,-0.045782,0.026672,0.77797,-0.824128,0.120844,-0.136131
3.31805,-0.054246,0.775044,-0.056149,-0.009931,0.089976,0.99431,-0.370621,0.125305,-0.027776,1.224411,0.0301,-0.129693,-0.212726,0.102919,-0.340904,0.389391,-0.148711,-0.054939,-0.015211,0.089502,0.008012,0.101245,0.210043,-0.265486,0.879487,0.824215,0.098735,0.20366,0.147813,-0.041039,0.020443,0.79333,-0.832975,0.12324,-0.141695
3.333625,-0.054363,0.775611,-0.058347,-0.011591,0.084855,0.994616,-0.411344,0.131324,-0.025771,1.166416,-0.061107,-0.113586,-0.188337,0.117675,-0.331555,0.391054,-0.167327,-0.057301,-0.006205,0.093825,0.01041,0.122808,0.202506,-0.219765,0.854787,0.785736,0.114968,0.227548,0.128135,-0.037827,0.018587,0.796614,-0.840357,0.120578,-0.144531
3.348648,-0.054029,0.77661,-0.059118,-0.011857,0.078057,0.995124,-0.443021,0.13648,-0.021275,1.072383,-0.130092,-0.095946,-0.165482,0.129502,-0.317344,0.38961,-0.182892,-0.058101,0.004959,0.096252,0.011904,0.137095,0.193663,-0.191377,0.83662,0.763162,0.127015,0.24535,0.11493,-0.037533,0.028157,0.786464,-0.843085,0.112628,-0.145654
3.363104,-0.053398,0.777969,-0.058539,-0.010606,0.069909,0.995778,-0.464324,0.133007,-0.020698,0.945733,-0.160044,-0.063483,-0.141735,0.139059,-0.299059,0.379016,-0.192087,-0.057475,0.017643,0.097285,0.012037,0.147644,0.189728,-0.180874,0.824833,0.757141,0.131394,0.253589,0.104114,-0.043282,0.044009,0.770814,-0.84378,0.097799,-0.143471
3.377033,-0.052606,0.779287,-0.056769,-0.008009,0.060539,0.996518,-0.471418,0.113272,-0.037848,0.78887,-0.168752,-0.037257,-0.116858,0.146725,-0.276912,0.358783,-0.193959,-0.055676,0.030848,0.096799,0.010687,0.155098,0.186812,-0.181572,0.819601,0.762758,0.131759,0.254384,0.09534,-0.052827,0.06397,0.753314,-0.8431,0.081293,-0.1389
3.390594,-0.051747,0.780544,-0.053769,-0.005108,0.049593,0.997308,-0.467566,0.075755,-0.089413,0.621752,-0.134397,-0.043663,-0.090281,0.152308,-0.250675,0.332553,-0.190083,-0.053209,0.043891,0.094327,0.008818,0.161735,0.181595,-0.184682,0.819317,0.771996,0.130515,0.252348,0.087724,-0.063564,0.084873,0.73786,-0.840758,0.068137,-0.13223
3.403992,-0.05078,0.781402,-0.051034,-0.003231,0.036471,0.998026,-0.452747,0.020855,-0.191553,0.480291,-0.034419,-0.052428,-0.064713,0.157412,-0.221194,0.312235,-0.186581,-0.050459,0.056914,0.090173,0.007768,0.169344,0.175043,-0.185559,0.822059,0.780256,0.12924,0.251112,0.080815,-0.071763,0.104229,0.727802,-0.83691,0.061117,-0.124907
3.417351,-0.049579,0.780353,-0.050773,-0.003373,0.023662,0.998424,-0.432556,-0.012954,-0.275508,0.40699,0.069005,-0.06449,-0.043214,0.163974,-0.194114,0.308771,-0.189507,-0.047269,0.066212,0.086452,0.008499,0.177823,0.169853,-0.184792,0.827021,0.787575,0.129155,0.250736,0.0748,-0.074698,0.119996,0.724626,-0.832909,0.061238,-0.120346
3.429358,-0.047717,0.781514,-0.051639,-0.005088,0.012034,0.99858,-0.419052,-0.016413,-0.292941,0.417791,0.072489,-0.051361,-0.024714,0.169078,-0.170153,0.31576,-0.193998,-0.041184,0.070539,0.084271,0.01064,0.185139,0.1643,-0.185072,0.834653,0.795438,0.130486,0.249064,0.069633,-0.073895,0.130268,0.727406,-0.829804,0.068105,-0.120566
3.441724,-0.046009,0.783372,-0.051996,-0.006544,-0.000626,0.998626,-0.402052,-0.00477,-0.27285,0.432607,0.040387,-0.039145,-0.007174,0.171946,-0.145443,0.322614,-0.191795,-0.028364,0.072462,0.082028,0.011629,0.190549,0.156849,-0.185973,0.844937,0.803911,0.133669,0.244274,0.064779,-0.07029,0.134692,0.735753,-0.827225,0.080175,-0.12541
3.453899,-0.044403,0.78903,-0.050001,-0.006416,-0.014545,0.998623,-0.374925,0.009214000000000002,-0.241059,0.422508,0.031221,-0.027258,0.011031,0.170558,-0.119046,0.323493,-0.17733,-0.011637,0.073028,0.078179,0.009669,0.193793,0.145697,-0.186302,0.857496,0.811166,0.138275,0.234336,0.060629,-0.065565,0.133303,0.749077,-0.824097,0.095946,-0.132432
3.465225,-0.042688,0.793338,-0.046887,-0.004648,-0.027792,0.998503,-0.34474,0.021148,-0.206669,0.394243,0.031461,-0.012104,0.02353,0.164051,-0.09516500000000001,0.321654,-0.155941,0.00761,0.071998,0.072739,0.005033,0.193368,0.133988,-0.187419,0.871485,0.816989,0.142868,0.21593,0.05932,-0.0598,0.127603,0.765059,-0.820085,0.112776,-0.138446
3.475915,-0.04088,0.796978,-0.043509,-0.001849,-0.038438,0.998312,-0.317715,0.027563,-0.17814,0.364293,0.035247,-0.001775,0.029653,0.155964,-0.070917,0.324701,-0.132853,0.029653,0.069569,0.066698,-0.000471,0.186235,0.125867,-0.194438,0.885233,0.82449,0.14415,0.18648,0.063167,-0.054701,0.120912,0.778795,-0.81619,0.126179,-0.14055
3.486079,-0.038953,0.799918,-0.040109,0.001264,-0.04612,0.99813,-0.2952,0.029024,-0.154748,0.339408,0.037905,0.006283,0.031597,0.147088,-0.048188,0.332461,-0.112096,0.053696,0.066963,0.060946,-0.005119,0.170799,0.12401,-0.211019,0.895518,0.838041,0.139384,0.149609,0.0729,-0.052698,0.117633,0.786298,-0.813299,0.131135,-0.137932
3.495715,-0.036907,0.802081,-0.03695,0.00395,-0.051692,0.997971,-0.276506,0.026758,-0.137034,0.322351,0.035904,0.012883,0.032378,0.138164,-0.028097,0.3426,-0.095975,0.076706,0.0656,0.055822,-0.00807,0.149152,0.127858,-0.233188,0.898471,0.857774,0.129033,0.117039,0.087241,-0.055094,0.121142,0.788327,-0.812048,0.126336,-0.132084
3.504743,-0.034792,0.803538,-0.034264,0.005841,-0.055748,0.99784,-0.261057,0.022625,-0.123236,0.312982,0.02928,0.019046,0.034509,0.12966,-0.012182,0.351948,-0.084317,0.095328,0.06592,0.051206,-0.009597,0.124742,0.131575,-0.248276,0.89507,0.879674,0.116941,0.101619,0.105302,-0.062776,0.131579,0.788907,-0.813428,0.115303,-0.124388
3.513108,-0.032657,0.804425,-0.03199,0.00709,-0.058691,0.997738,-0.248748,0.017521,-0.112316,0.309805,0.02001,0.024532,0.039142,0.120996,-0.00217,0.358162,-0.077612,0.110766,0.067432,0.046698,-0.010595,0.103753,0.134624,-0.252824,0.880084,0.888629,0.11061,0.103766,0.119016,-0.070867,0.14724,0.795845,-0.818852,0.109897,-0.114588
3.520838,-0.030507,0.805006,-0.030029,0.008049,-0.060588,0.997679,-0.23857,0.011761,-0.103855,0.309283,0.010855,0.029325,0.045528,0.112577,0.004816,0.360997,-0.072315,0.123757,0.06927,0.041981,-0.011895,0.086067,0.134659,-0.239645,0.865837,0.882787,0.104428,0.120626,0.132516,-0.076862,0.166876,0.805549,-0.826552,0.116825,-0.10305
3.527975,-0.028336,0.805436,-0.028206,0.008863,-0.061751,0.997654,-0.229431,0.005389,-0.097326,0.309142,0.002711,0.03352,0.053126,0.104808,0.011978,0.360577,-0.066785,0.134944,0.071043,0.037192,-0.013833,0.070538,0.127039,-0.21725,0.848542,0.865571,0.103928,0.14125,0.142751,-0.083863,0.181697,0.822144,-0.834185,0.128982,-0.088841
3.534537,-0.026148,0.805759,-0.026484,0.009489,-0.062698,0.997636,-0.220483,-0.001177,-0.091949,0.308456,-0.005192,0.03712,0.061146,0.097422,0.019234,0.358465,-0.060787,0.144566,0.072878,0.032705,-0.016295,0.056976,0.116452,-0.193569,0.830239,0.843335,0.104459,0.160441,0.149324,-0.089337,0.190751,0.841946,-0.84039,0.143935,-0.074766
3.540505,-0.023982,0.805992,-0.024989,0.010023,-0.06378,0.997601,-0.211558,-0.007224,-0.087184,0.306704,-0.013455,0.040127,0.068418,0.090734,0.026567,0.356459,-0.054176,0.152275,0.074838,0.028749,-0.019061,0.044512,0.106664,-0.175455,0.813209,0.823488,0.104221,0.176386,0.152713,-0.093137,0.195804,0.861032,-0.845123,0.157688,-0.063361
3.54583,-0.021892,0.806138,-0.02379,0.010612,-0.065143,0.997536,-0.203461,-0.012341,-0.08283,0.304561,-0.021798,0.042521,0.073246,0.085056,0.033719,0.357128,-0.047419,0.158006,0.076737,0.025331,-0.02187,0.032844,0.099741,-0.166752,0.798988,0.811066,0.103303,0.188441,0.153435,-0.096087,0.198974,0.876355,-0.848913,0.167104,-0.055774
3.550491,-0.019916,0.806175,-0.0228,0.011304,-0.066689,0.997449,-0.197199,-0.01673,-0.078989,0.303497,-0.030386,0.044362,0.074802,0.080352,0.03995,0.361883,-0.041198,0.159341,0.078197,0.022291,-0.024405,0.022306,0.095906,-0.167907,0.788242,0.806465,0.101497,0.195843,0.152227,-0.098747,0.200785,0.885547,-0.851507,0.171279,-0.052315
3.554551,-0.01804,0.806092,-0.021949,0.011986,-0.067955,0.997375,-0.192515,-0.021049,-0.076799,0.303486,-0.038988,0.045704,0.073949,0.076215,0.044602,0.370064,-0.036355,0.15866,0.078889,0.019423,-0.026466,0.013106,0.094496,-0.177355,0.781708,0.806857,0.098013,0.197825,0.150243,-0.100908,0.200336,0.887144,-0.851736,0.1708,-0.053225
3.558124,-0.016222,0.80593,-0.021121,0.012551,-0.068566,0.997344,-0.188356,-0.026023,-0.077246,0.303224,-0.046803,0.046259,0.071902,0.072121,0.047668,0.38023,-0.03279,0.158038,0.078721,0.016583,-0.028085,0.005078,0.094868,-0.192785,0.780508,0.80954,0.093183,0.194906,0.148454,-0.101965,0.196822,0.881287,-0.848713,0.167323,-0.058612
3.561316,-0.014411,0.805736,-0.020215,0.01295,-0.068417,0.997368,-0.183887,-0.031232,-0.077134,0.301586,-0.053443,0.047278,0.069399,0.067802,0.049572,0.391224,-0.029767,0.157547,0.077831,0.013839,-0.029482,-0.00196,0.096646,-0.212187,0.785505,0.814153,0.088783,0.188657,0.147181,-0.101478,0.190844,0.8695,-0.842653,0.162391,-0.067801
3.564177,-0.012601,0.805512,-0.019205,0.013201,-0.067763,0.997429,-0.179249,-0.036629,-0.07607,0.299164,-0.059283,0.049358,0.066703,0.06332,0.051183,0.402411,-0.027247,0.157934,0.076761,0.011312,-0.030843,-0.008009,0.099039,-0.233214,0.796652,0.820995,0.08667,0.181428,0.146176,-0.099723,0.184423,0.853953,-0.83494,0.156693,-0.07922
3.566734,-0.010814,0.805255,-0.018196,0.013381,-0.066746,0.997514,-0.175248,-0.042244,-0.07547,0.29745,-0.064747,0.051788,0.063836,0.059037,0.052895,0.413482,-0.025062,0.158892,0.07596,0.008929,-0.032179,-0.012998,0.100846,-0.253063,0.813323,0.829403,0.087859,0.175466,0.144818,-0.09739900000000001,0.179766,0.837009,-0.827222,0.150383,-0.090722
3.569013,-0.009062,0.804963,-0.017279,0.01356,-0.065428,0.997616,-0.172593,-0.047948,-0.075852,0.297611,-0.070136,0.054217,0.060839,0.054607,0.052705,0.42424,-0.022973,0.159383,0.075584,0.00659,-0.033389,-0.016518,0.10088,-0.268767,0.834872,0.837712,0.092687,0.171659,0.142445,-0.095062,0.177937,0.820602,-0.820625,0.144375,-0.10006
3.57104,-0.007347,0.804637,-0.01649,0.013781,-0.063858,0.997728,-0.171404,-0.053552,-0.07681,0.299767,-0.075665,0.056658,0.057432,0.05028,0.051226,0.435112,-0.020812,0.159398,0.075436,0.004285,-0.034381,-0.017895,0.098706,-0.278307,0.859879,0.844508,0.10088,0.170415,0.138692,-0.092921,0.178868,0.805493,-0.815516,0.139913,-0.105413
3.572845,-0.005671,0.804289,-0.015744,0.014115,-0.062271,0.997835,-0.170963,-0.059034,-0.077981,0.302338,-0.081141,0.059113,0.052951,0.046059,0.049229,0.447041,-0.018594,0.159043,0.075427,0.002099,-0.035214,-0.016487,0.09453,-0.280968,0.885779,0.848485,0.111122,0.171918,0.133729,-0.09134900000000001,0.181826,0.791224,-0.811706,0.137105,-0.10694
3.57446,-0.004039,0.803948,-0.014916,0.014643,-0.060824,0.99793,-0.170536,-0.064444,-0.079059,0.303567,-0.085796,0.06156,0.04675,0.041869,0.047384,0.46087,-0.016156,0.15888,0.075581,4e-06,-0.036072,-0.0123,0.089397,-0.278621,0.9100220000000001,0.849695,0.120717,0.175013,0.12812,-0.090931,0.185932,0.777641,-0.808688,0.134683,-0.106479
3.575922,-0.002458,0.803605,-0.013961,0.01536,-0.059477,0.998014,-0.170295,-0.069898,-0.08001,0.303812,-0.089345,0.063981,0.038723,0.037595,0.045822,0.476932,-0.013523,0.159378,0.075958,-0.00215,-0.037085,-0.005854,0.084966,-0.275078,0.9311990000000001,0.850279,0.127229,0.177427,0.122503,-0.091838,0.190002,0.765636,-0.805772,0.131915,-0.10608
3.577274,-0.0009320000000000002,0.803205,-0.012896,0.016174,-0.058022,0.998101,-0.171062,-0.075605,-0.081075,0.305218,-0.092757,0.066393,0.029328,0.03319,0.044317,0.495031,-0.010954,0.160669,0.076593,-0.004491,-0.038193,0.002165,0.082559,-0.273697,0.949093,0.853032,0.130044,0.177697,0.117504,-0.093667,0.1929,0.7563,-0.802663,0.129833,-0.106439
3.57857,0.000535,0.80272,-0.011743,0.016967,-0.056292,0.998201,-0.173064,-0.081691,-0.082431,0.308989,-0.096952,0.068817,0.019337,0.028522,0.042407,0.514391,-0.008237,0.162582,0.077503,-0.007036,-0.039212,0.011315,0.082352,-0.274787,0.963734,0.858269,0.130122,0.175765,0.113761,-0.096153,0.193948,0.749892,-0.799402,0.129098,-0.10724
3.579854,0.001926,0.802174,-0.01047,0.017632,-0.054324,0.998313,-0.175574,-0.08814,-0.083975,0.314343,-0.101747,0.071234,0.00947,0.023575,0.040363,0.534113,-0.005061,0.165478,0.078663,-0.009726,-0.039997,0.023874,0.084438,-0.27677,0.972235,0.863993,0.129028,0.172614,0.112737,-0.103523,0.190805,0.746401,-0.796055,0.124476,-0.105753
3.581147,0.003221,0.801617,-0.009126,0.018074,-0.052257,0.998428,-0.177647,-0.09467900000000001,-0.0856,0.319904,-0.106584,0.073567,0.000287,0.018773,0.038976,0.553376,-0.001317,0.168975,0.080037,-0.012476,-0.040515,0.03168,0.0824,-0.278496,0.975569,0.868565,0.13602,0.166683,0.109013,-0.107031,0.189062,0.749197,-0.795051,0.123128,-0.10498
3.582455,0.004411,0.801086,-0.007823,0.018316,-0.050181,0.998542,-0.178954,-0.100991,-0.087341,0.324893,-0.111046,0.075779,-0.007944,0.014388,0.038207,0.57159,0.00309,0.172801,0.081553,-0.015196,-0.040845,0.041425,0.083793,-0.276866,0.977333,0.870917,0.139955,0.164097,0.107034,-0.111042,0.189483,0.75368,-0.795922,0.122654,-0.102982
3.583769,0.0055,0.800611,-0.006697,0.018479,-0.048026,0.998653,-0.17958,-0.106835,-0.089449,0.328904,-0.114859,0.077771,-0.015344,0.010552,0.037502,0.588558,0.008739,0.176846,0.08309,-0.01782,-0.041106,0.051234,0.086238,-0.27234,0.977753,0.871472,0.142722,0.164351,0.106517,-0.115351,0.190691,0.759486,-0.798015,0.123352,-0.100139
3.585056,0.006491,0.800171,-0.005739,0.018689,-0.045787,0.99876,-0.179907,-0.112196,-0.091891,0.332027,-0.118019,0.079431,-0.022484,0.007133,0.036468,0.604796,0.01522,0.180939,0.084495,-0.020321,-0.041365,0.060072,0.088626,-0.265976,0.977339,0.870472,0.144902,0.165409,0.10716,-0.119391,0.190894,0.766312,-0.800123,0.125254,-0.09749600000000001
3.586263,0.007384,0.7997,-0.004804,0.019025,-0.043676,0.9988530000000002,-0.180395,-0.117188,-0.094173,0.334706,-0.120777,0.080685,-0.0301,0.003773,0.035166,0.621242,0.021027,0.18579,0.085667,-0.022732,-0.041631,0.067306,0.09083,-0.259241,0.976567,0.868878,0.146442,0.165966,0.108415,-0.122911,0.189496,0.774185,-0.801679,0.128153,-0.095181
3.587346,0.008188,0.799158,-0.003772,0.019506,-0.041987,0.998921,-0.181305,-0.121857,-0.095683,0.337287,-0.123355,0.081487,-0.038542,0.000138,0.033842,0.638265,0.025056,0.192013,0.086602,-0.025158,-0.041903,0.072629,0.093147,-0.253603,0.975719,0.868345,0.147474,0.166096,0.109561,-0.126105,0.18727,0.783041,-0.803443,0.131697,-0.093178
3.588291,0.008919,0.798551,-0.002631,0.0201,-0.04093,0.998956,-0.182686,-0.126131,-0.096043,0.339943,-0.125676,0.081821,-0.047695,-0.003888,0.032571,0.6556,0.027245,0.199088,0.087349,-0.027696,-0.042173,0.076109,0.095502,-0.248963,0.974714,0.869149,0.148393,0.166505,0.110201,-0.129081,0.185056,0.792515,-0.806022,0.135433,-0.09104400000000001
3.589102,0.009591,0.797918,-0.001495,0.020776,-0.040543,0.998961,-0.184349,-0.129805,-0.095302,0.342487,-0.127987,0.081663,-0.057462,-0.008179,0.030939,0.673102,0.029013,0.204561,0.087987,-0.030381,-0.042394,0.077961,0.097418,-0.243999,0.973331,0.869891,0.149274,0.167183,0.11031,-0.13176,0.183142,0.801647,-0.809248,0.13871,-0.088431
3.58978,0.010192,0.79728,-0.000401,0.021522,-0.040963,0.998929,-0.186207,-0.132687,-0.093295,0.344774,-0.130259,0.080978,-0.068191,-0.013458,0.027044,0.691263,0.031474,0.206936,0.088545,-0.0332,-0.042446,0.078463,0.098532,-0.237753,0.97128,0.869507,0.150126,0.168537,0.10986,-0.134158,0.181626,0.809167,-0.812676,0.140807,-0.085069
3.590299,0.010672,0.796598,0.000775,0.022309,-0.042189,0.99886,-0.188237,-0.134888,-0.089894,0.346717,-0.132421,0.079781,-0.080605,-0.01811,0.024607,0.711309,0.034063,0.208576,0.088743,-0.036069,-0.042173,0.077957,0.098469,-0.230285,0.968578,0.867787,0.151082,0.170638,0.108982,-0.136497,0.180246,0.81379,-0.81606,0.141457,-0.081616
3.590642,0.01101,0.795809,0.002085,0.023062,-0.04425,0.998752,-0.190323,-0.136516,-0.085108,0.348237,-0.134372,0.078176,-0.094643,-0.02254,0.023109,0.73355,0.034781,0.211329,0.088549,-0.038903,-0.041507,0.076672,0.09720500000000001,-0.222769,0.965476,0.865346,0.151653,0.172825,0.108186,-0.138562,0.178018,0.814757,-0.81856,0.140893,-0.079573
3.590819,0.011188,0.794879,0.003472,0.02371,-0.046739,0.99862,-0.192528,-0.137731,-0.07964,0.349669,-0.136135,0.076259,-0.109331,-0.028296,0.019502,0.757078,0.032141,0.2173,0.087984,-0.041704,-0.040462,0.074421,0.095388,-0.217262,0.962419,0.863633,0.151028,0.174133,0.108329,-0.139821,0.17374,0.811954,-0.818942,0.139602,-0.080196
3.590851,0.011195,0.793812,0.004856,0.024262,-0.049047,0.99849,-0.195156,-0.138796,-0.07454,0.351687,-0.137922,0.074158,-0.1237,-0.037247,0.010225,0.780573,0.025122,0.226192,0.086997,-0.044564,-0.039054,0.070934,0.09409600000000001,-0.215064,0.959899,0.863826,0.148351,0.174201,0.110057,-0.140114,0.167823,0.805901,-0.817339,0.137945,-0.083181
3.590728,0.010989,0.792644,0.006135,0.024769,-0.050617,0.998392,-0.198153,-0.139849,-0.070885,0.354314,-0.139775,0.071862,-0.137282,-0.046472,-0.000335,0.802598,0.010482,0.238711,0.085351,-0.04746,-0.037329,0.068785,0.097182,-0.213775,0.961282,0.865744,0.136678,0.176454,0.115722,-0.140026,0.162549,0.794813,-0.814965,0.136192,-0.086809
3.590454,0.010625,0.791511,0.00727,0.025304,-0.051334,0.998334,-0.201182,-0.140911,-0.068953,0.356926,-0.141444,0.069471,-0.148543,-0.054357,-0.008714,0.819615,-0.016958,0.240942,0.083106,-0.050283,-0.035513,0.061867,0.097695,-0.214474,0.960915,0.868944,0.128758,0.177115,0.120826,-0.139057,0.158806,0.783895,-0.813141,0.134311,-0.089665
3.590009,0.010114,0.790788,0.008545,0.025868,-0.051598,0.998296,-0.204122,-0.142125,-0.068044,0.359468,-0.142903,0.067062,-0.156066,-0.063093,-0.016886,0.828158,-0.059855,0.236632,0.080707,-0.052993,-0.033888,0.053511,0.097098,-0.215444,0.958444,0.871543,0.122831,0.17791,0.125299,-0.138124,0.157155,0.774314,-0.812068,0.131867,-0.090952
3.590084,0.009296,0.792319,0.008807,0.026466,-0.051463,0.998285,-0.203812,-0.141185,-0.069111,0.357459,-0.141905,0.064837,-0.15947,-0.074559,-0.030428,0.819823,-0.102694,0.221597,0.078557,-0.055326,-0.032943,0.044589,0.096974,-0.216054,0.954299,0.873202,0.118412,0.17906,0.128921,-0.135564,0.157705,0.767668,-0.811514,0.129653,-0.09079400000000001
3.590084,0.008319,0.79303,0.009192,0.027179,-0.051163,0.9982780000000001,-0.203121,-0.14039,-0.070708,0.353921,-0.140314,0.062724,-0.159417,-0.091169,-0.052441,0.790529,-0.142892,0.192267,0.076596,-0.057227,-0.0326,0.032837,0.094801,-0.21625,0.951887,0.874341,0.115793,0.180521,0.129919,-0.128766,0.162316,0.76563,-0.812642,0.132751,-0.09191
3.590035,0.007197,0.793727,0.009154,0.028087,-0.050434,0.99829,-0.201356,-0.138864,-0.073637,0.347489,-0.137289,0.060688,-0.156114,-0.115266,-0.086994,0.744524,-0.176116,0.165894,0.074789,-0.058732,-0.032812,0.022871,0.094606,-0.217244,0.948204,0.875169,0.112294,0.181877,0.130664,-0.125559,0.165118,0.764841,-0.813276,0.134409,-0.090452
3.589885,0.005919,0.794508,0.008834,0.029195,-0.048934,0.998336,-0.198799,-0.137046,-0.078272,0.338518,-0.132821,0.058715,-0.15105,-0.133302,-0.119253,0.685198,-0.202437,0.136896,0.072375,-0.059782,-0.033245,0.013483,0.094902,-0.219194,0.944302,0.875968,0.109267,0.18273,0.131174,-0.123064,0.165882,0.764797,-0.813726,0.135997,-0.089232
3.589513,0.004414,0.795116,0.009006,0.030294,-0.047057,0.998392,-0.197507,-0.13607,-0.083265,0.331363,-0.128974,0.05663,-0.148754,-0.140511,-0.135874,0.624054,-0.226811,0.11227,0.069338,-0.0602,-0.033281,0.004665,0.094226,-0.221318,0.940997,0.876051,0.107101,0.183,0.13113,-0.121584,0.16478,0.765257,-0.814121,0.137942,-0.089457
3.58889,0.00272,0.795593,0.008877,0.031128,-0.045157,0.998455,-0.196368,-0.134387,-0.088537,0.324975,-0.125515,0.054356,-0.15393,-0.13777,-0.133455,0.573467,-0.239824,0.100874,0.066168,-0.05974,-0.032554,-0.003462,0.093279,-0.223118,0.93836,0.875399,0.105824,0.18277,0.13019,-0.120339,0.162852,0.766337,-0.814502,0.139755,-0.090579
3.587965,0.000779,0.795792,0.009005,0.031758,-0.043678,0.9985,-0.196769,-0.132678,-0.092825,0.321366,-0.123183,0.051751,-0.164736,-0.130026,-0.115893,0.538069,-0.249587,0.103744,0.063415,-0.058549,-0.030978,-0.010531,0.091855,-0.224695,0.935962,0.874142,0.104806,0.182598,0.128258,-0.120213,0.160823,0.767456,-0.815457,0.141094,-0.091743
3.586768,-0.00149,0.795652,0.009955,0.03214,-0.042556,0.998527,-0.199253,-0.131888,-0.095694,0.321582,-0.12237,0.048689,-0.181626,-0.120293,-0.086504,0.519338,-0.260843,0.108436,0.061123,-0.057194,-0.028493,-0.016363,0.089583,-0.226296,0.933456,0.872513,0.103798,0.182998,0.126083,-0.121538,0.158581,0.767199,-0.816685,0.141749,-0.092992
3.585444,-0.004103,0.795386,0.011208,0.032217,-0.041448,0.998558,-0.201895,-0.131175,-0.098246,0.322538,-0.121712,0.045123,-0.203054,-0.107307,-0.046197,0.514141,-0.259116,0.120236,0.05908,-0.055977,-0.02548,-0.023643,0.084809,-0.228357,0.932564,0.87129,0.105195,0.183577,0.128449,-0.122801,0.155937,0.760178,-0.819108,0.142453,-0.09381
3.58416,-0.007092,0.79485,0.012783,0.031898,-0.039672,0.998622,-0.203805,-0.130944,-0.10168,0.323272,-0.120852,0.041258,-0.223342,-0.088063,0.003951,0.513622,-0.249689,0.127304,0.056989,-0.055149,-0.022465,-0.02695,0.082079,-0.231252,0.931212,0.870269,0.10477,0.184074,0.129107,-0.124461,0.153574,0.754678,-0.820731,0.143062,-0.094264
3.583054,-0.010391,0.793339,0.014043,0.031337,-0.036985,0.998726,-0.204119,-0.130363,-0.107045,0.321735,-0.119029,0.037234,-0.23372,-0.069821,0.045895,0.509761,-0.237846,0.13276,0.055564,-0.054608,-0.020131,-0.028353,0.080838,-0.235522,0.931015,0.870002,0.10371,0.183486,0.130058,-0.125638,0.151496,0.751081,-0.821628,0.143282,-0.094591
3.582018,-0.014133,0.792774,0.015251,0.030605,-0.033317,0.99886,-0.203475,-0.129679,-0.11427,0.319542,-0.116471,0.032967,-0.232588,-0.059946,0.065073,0.505154,-0.236168,0.130952,0.055142,-0.054233,-0.018645,-0.025665,0.082708,-0.240522,0.931163,0.869932,0.100491,0.182661,0.128164,-0.126659,0.14906,0.753807,-0.819837,0.142691,-0.095702
3.5813,-0.018064,0.79115,0.015862,0.029937,-0.02925,0.998998,-0.201672,-0.127849,-0.122812,0.315411,-0.113556,0.0285,-0.220527,-0.057161,0.05652,0.48441,-0.240739,0.117347,0.055653,-0.053697,-0.018304,-0.024605,0.083337,-0.244693,0.933593,0.869838,0.100981,0.181752,0.130219,-0.125457,0.145828,0.754933,-0.817229,0.141795,-0.097675
3.580964,-0.02227,0.791754,0.015613,0.029314,-0.025823,0.999115,-0.197905,-0.123184,-0.131248,0.309619,-0.109805,0.023703,-0.199829,-0.055777,0.036921,0.449161,-0.238199,0.095757,0.056389,-0.05237,-0.019006,-0.021525,0.084094,-0.245683,0.936471,0.868177,0.103742,0.182876,0.132258,-0.1225,0.144078,0.757062,-0.815382,0.14134,-0.098675
3.580672,-0.026698,0.792893,0.014757,0.028682,-0.024538,0.999178,-0.193407,-0.11536,-0.136809,0.303884,-0.106754,0.018396,-0.176245,-0.05143,0.017485,0.406024,-0.228806,0.070885,0.057274,-0.049935,-0.020355,-0.014417,0.084943,-0.242223,0.938606,0.864065,0.10771,0.186872,0.131068,-0.119245,0.14651,0.763145,-0.816776,0.141769,-0.097152
3.580275,-0.031273,0.793965,0.013657,0.027957,-0.0257,0.999185,-0.189219,-0.105109,-0.13851,0.299797,-0.105202,0.012586,-0.155846,-0.042189,0.009911,0.366779,-0.217006,0.0533,0.057897,-0.046314,-0.021788,-0.002794,0.085279,-0.234798,0.93973,0.857879,0.111909,0.194135,0.12538,-0.116532,0.152936,0.773695,-0.821756,0.143385,-0.092896
3.579752,-0.03591,0.794766,0.01235,0.027144,-0.028939,0.999136,-0.18591,-0.093029,-0.136759,0.297906,-0.105107,0.006412,-0.14089,-0.03028,0.011133,0.337065,-0.206206,0.046193,0.058365,-0.041546,-0.023001,0.012236,0.084912,-0.226103,0.940264,0.852719,0.117566,0.206919,0.116412,-0.113862,0.160386,0.786075,-0.827933,0.145749,-0.087666
3.579113,-0.040588,0.795306,0.010947,0.026371,-0.033296,0.999038,-0.183888,-0.080055,-0.13302,0.298066,-0.105961,-2.3e-05,-0.130261,-0.017443,0.0164,0.315495,-0.197381,0.042914,0.058532,-0.035901,-0.023919,0.028472,0.083621,-0.219784,0.940772,0.852932,0.129249,0.229344,0.106759,-0.111116,0.165677,0.796244,-0.832569,0.147182,-0.08416
3.578375,-0.045339,0.79565,0.009669,0.025785,-0.037634,0.998912,-0.182895,-0.067213,-0.129101,0.298896,-0.106809,-0.006671,-0.122089,-0.004884,0.0215,0.298678,-0.190741,0.037639,0.057965,-0.030158,-0.024604,0.045833,0.081408,-0.21865,0.939539,0.859751,0.150818,0.262795,0.100295,-0.11225,0.164777,0.802652,-0.83412,0.140871,-0.083993
3.577538,-0.050155,0.79585,0.008649,0.02546,-0.040987,0.998798,-0.182585,-0.055307,-0.126609,0.299179,-0.106985,-0.013491,-0.115475,0.00673,0.025065,0.284842,-0.186298,0.031941,0.056361,-0.024858,-0.025236,0.055212,0.072706,-0.224083,0.940649,0.869241,0.185643,0.299626,0.092355,-0.108017,0.160967,0.807083,-0.834527,0.136437,-0.089911
3.576573,-0.054961,0.795956,0.007858,0.025419,-0.042854,0.998727,-0.183277,-0.044805,-0.126463,0.299299,-0.106703,-0.020353,-0.110901,0.017152,0.026519,0.274359,-0.182289,0.026231,0.053867,-0.020021,-0.026048,0.061067,0.066122,-0.232479,0.947772,0.876143,0.214052,0.329721,0.088998,-0.104045,0.154318,0.806695,-0.832083,0.13162,-0.098839
3.575443,-0.059647,0.795967,0.007326,0.025735,-0.043137,0.998711,-0.186265,-0.036208,-0.128764,0.301253,-0.106149,-0.027052,-0.109046,0.026036,0.02539,0.267667,-0.178607,0.020692,0.050812,-0.015428,-0.027237,0.061687,0.061719,-0.243765,0.960024,0.880077,0.231707,0.343975,0.089314,-0.100187,0.145619,0.803995,-0.827383,0.127631,-0.107936
3.57417,-0.06411,0.795859,0.00712,0.026416,-0.041991,0.998743,-0.192408,-0.029894,-0.133025,0.306789,-0.10545,-0.033272,-0.110342,0.033078,0.021694,0.265416,-0.176195,0.015507,0.047561,-0.010913,-0.028802,0.057393,0.059682,-0.255901,0.973173,0.881598,0.239592,0.343366,0.0917,-0.096725,0.136456,0.801617,-0.821843,0.124788,-0.114984
3.572818,-0.068285,0.795642,0.00718,0.027345,-0.039714,0.998811,-0.201445,-0.025709,-0.138594,0.316277,-0.104575,-0.038802,-0.114224,0.038348,0.015688,0.26709,-0.175285,0.010765,0.044528,-0.006399,-0.030488,0.049939,0.05902,-0.265195,0.981629,0.879476,0.240029,0.336387,0.094586,-0.094046,0.128485,0.801643,-0.81712,0.123153,-0.11939
3.571442,-0.072142,0.795355,0.007393,0.028372,-0.036557,0.998901,-0.212156,-0.023218,-0.144984,0.328294,-0.103466,-0.043546,-0.119387,0.042148,0.007913,0.270797,-0.175266,0.006648,0.04221,-0.001856,-0.031915,0.041156,0.058857,-0.270423,0.981885,0.873298,0.234934,0.330557,0.096975,-0.092643,0.123289,0.805382,-0.81517,0.123247,-0.120923
3.570041,-0.07567,0.79506,0.007704,0.029334,-0.032789,0.999002,-0.223321,-0.021985,-0.151611,0.341006,-0.101545,-0.04754,-0.124441,0.04475,-0.000922,0.274333,-0.175274,0.003091,0.040843,0.002667,-0.032829,0.032304,0.05962,-0.273662,0.973373,0.865081,0.226042,0.328188,0.098575,-0.092497,0.121221,0.812721,-0.816274,0.125093,-0.119897
3.568587,-0.078858,0.794779,0.008122,0.030116,-0.028678,0.999102,-0.234441,-0.021753,-0.157788,0.353717,-0.098642,-0.050879,-0.128678,0.046297,-0.01016,0.276635,-0.174947,-3e-05,0.040326,0.007142,-0.033228,0.024935,0.065836,-0.274299,0.957373,0.855928,0.210038,0.326694,0.101512,-0.094209,0.122628,0.820085,-0.81928,0.128077,-0.116488
3.567061,-0.081721,0.794486,0.008655,0.030722,-0.024518,0.99919,-0.245679,-0.022182,-0.162713,0.366779,-0.095189,-0.053797,-0.132566,0.047032,-0.019207,0.278582,-0.174794,-0.002915,0.040341,0.01159,-0.033249,0.016136,0.067371,-0.275414,0.938026,0.846679,0.195864,0.327147,0.09811,-0.092693,0.12874,0.828151,-0.824395,0.139045,-0.110089
3.565464,-0.084286,0.794152,0.009252,0.031243,-0.020516,0.999258,-0.257378,-0.0227,-0.165355,0.380557,-0.091659,-0.056218,-0.137174,0.047222,-0.027792,0.281997,-0.17542,-0.005673,0.040562,0.016071,-0.033012,0.013453,0.068375,-0.276962,0.909062,0.83894,0.183063,0.326258,0.091323,-0.090519,0.136791,0.842669,-0.830082,0.149134,-0.106761
3.563837,-0.086584,0.793819,0.009802000000000002,0.031783,-0.016775,0.999306,-0.26958,-0.022996,-0.166041,0.39506,-0.088479,-0.058209,-0.142874,0.047197,-0.03583,0.287452,-0.177001,-0.008365,0.040722,0.020623,-0.032581,0.006153,0.070435,-0.280608,0.886452,0.82933,0.169894,0.326698,0.091975,-0.098061,0.141635,0.850352,-0.834116,0.150211,-0.100735
3.562246,-0.08863,0.79383,0.010229,0.032378,-0.013217,0.999336,-0.281351,-0.022934,-0.165656,0.408726,-0.085239,-0.059824,-0.148655,0.047049,-0.043438,0.293106,-0.178585,-0.011059,0.040668,0.025223,-0.032069,0.001264,0.07197,-0.286288,0.863958,0.821783,0.160158,0.328975,0.09021100000000001,-0.103162,0.144854,0.85711,-0.837236,0.152219,-0.097054
3.560753,-0.090484,0.795794,0.010589,0.033012,-0.009933,0.99935,-0.2916,-0.022147,-0.164632,0.420827,-0.081104,-0.06113,-0.153431,0.046588,-0.050381,0.297132,-0.178749,-0.013766,0.040307,0.029854,-0.031606,-0.002414,0.073152,-0.29344,0.843954,0.81563,0.15423,0.331247,0.087775,-0.106977,0.145442,0.86177,-0.838667,0.154373,-0.096319
3.559209,-0.092055,0.796188,0.010997,0.033685,-0.007176,0.999346,-0.299788,-0.021422,-0.162263,0.427724,-0.076812,-0.062121,-0.157922,0.046142,-0.056244,0.299702,-0.178435,-0.01635,0.03969,0.034409,-0.031227,-0.005493,0.07415,-0.302272,0.828822,0.810769,0.151709,0.331495,0.085383,-0.110061,0.143569,0.86388,-0.838518,0.156167,-0.098096
3.557636,-0.093374,0.796245,0.011575,0.034418,-0.005107,0.999327,-0.305953,-0.020127,-0.157372,0.43032,-0.071909,-0.062607,-0.162836,0.045441,-0.06064,0.302273,-0.177828,-0.018698,0.038893,0.038719,-0.030836,-0.008208,0.075474,-0.312943,0.819295,0.807866,0.151252,0.329238,0.082961,-0.112462,0.139757,0.863538,-0.836628,0.15729,-0.101427
3.556032,-0.094466,0.796242,0.01239,0.03528,-0.003714,0.999294,-0.310682,-0.019114,-0.152375,0.42971,-0.066454,-0.063276,-0.168592,0.044352,-0.063595,0.305659,-0.177342,-0.020867,0.03804,0.042626,-0.030306,-0.010533,0.077396,-0.324462,0.814783,0.806948,0.151954,0.325716,0.080013,-0.114262,0.135229,0.861221,-0.83337,0.157658,-0.105
3.554399,-0.095343,0.79622,0.013305,0.036305,-0.002585,0.999249,-0.314638,-0.019501,-0.151209,0.426884,-0.060973,-0.065069,-0.174744,0.042902,-0.065913,0.309206,-0.176921,-0.022873,0.037107,0.046081,-0.029618,-0.01243,0.079852,-0.33545,0.814324,0.807028,0.153411,0.321674,0.076253,-0.115614,0.131234,0.857461,-0.829593,0.157226,-0.108457
3.552748,-0.09605,0.796149,0.01426,0.037475,-0.001094,0.999195,-0.318049,-0.020004,-0.15057,0.422293,-0.057103,-0.070235,-0.180495,0.040891,-0.068694,0.311514,-0.176064,-0.024545,0.035716,0.049251,-0.028839,-0.013803,0.08249,-0.34495,0.817057,0.80695,0.155559,0.316775,0.071865,-0.116917,0.128724,0.852954,-0.82652,0.156329,-0.111713
3.551095,-0.09663600000000001,0.795934,0.015121,0.038701,0.001054,0.999136,-0.321578,-0.018008,-0.143874,0.418362,-0.058644,-0.083106,-0.185803,0.038422,-0.072577,0.312737,-0.174845,-0.02578,0.033678,0.052395,-0.027955,-0.014441,0.085225,-0.352434,0.822098,0.806087,0.158693,0.310311,0.067295,-0.118218,0.127815,0.848328,-0.824611,0.155238,-0.114423
3.549485,-0.097131,0.795585,0.015455,0.039929,0.003652,0.999076,-0.32436,-0.011495,-0.128403,0.415323,-0.067557,-0.09638600000000001,-0.191502,0.036302,-0.077579,0.314753,-0.174084,-0.02654,0.031322,0.055814,-0.02697,-0.014019,0.088621,-0.357848,0.827894,0.804656,0.162576,0.30288,0.062803,-0.119079,0.127949,0.844102,-0.823249,0.154035,-0.116449
3.548017,-0.097634,0.79556,0.015581,0.041075,0.006586,0.999013,-0.327812,-0.001279,-0.104365,0.417539,-0.077926,-0.105536,-0.196832,0.034124,-0.083318,0.316636,-0.173267,-0.026737,0.029103,0.059566,-0.025848,-0.012388,0.09224,-0.361632,0.833261,0.80276,0.166446,0.295138,0.058541,-0.119763,0.128493,0.840507,-0.821684,0.152574,-0.118303
3.546462,-0.097828,0.797144,0.015332,0.041998,0.009904,0.998951,-0.332449,0.013439,-0.074867,0.431111,-0.094148,-0.107584,-0.201689,0.031827,-0.089883,0.31916,-0.172696,-0.026044,0.027302,0.063587,-0.02462,-0.009336,0.096507,-0.364491,0.837307,0.800586,0.169499,0.286465,0.054878,-0.120497,0.129393,0.838489,-0.819951,0.150288,-0.120742
3.544965,-0.098001,0.797267,0.01436,0.042471,0.013939,0.998897,-0.337734,0.032578,-0.037063,0.461049,-0.108947,-0.107275,-0.206367,0.030382,-0.09814,0.323475,-0.173875,-0.024856,0.025707,0.067898,-0.023285,-0.002128,0.102914,-0.367778,0.836822,0.798779,0.171896,0.276132,0.055344,-0.123705,0.128652,0.843769,-0.81893,0.139732,-0.127131
3.543543,-0.098168,0.796871,0.012812,0.04262,0.018694,0.9988340000000001,-0.341575,0.056168,0.004155,0.501024,-0.119855,-0.101268,-0.210665,0.029503,-0.108087,0.328983,-0.176327,-0.023609,0.02443,0.072363,-0.022242,0.006478,0.112455,-0.370462,0.834941,0.797241,0.171923,0.264271,0.050196,-0.124066,0.125845,0.855276,-0.821239,0.131354,-0.13114
3.542178,-0.098303,0.796164,0.010474,0.042502,0.02452,0.998741,-0.345859,0.085611,0.046567,0.552024,-0.126766,-0.09762100000000001,-0.214978,0.029156,-0.120442,0.336366,-0.180322,-0.022363,0.023384,0.076903,-0.021604,0.015372,0.12097,-0.37191,0.828953,0.798577,0.174823,0.250503,0.04135,-0.119178,0.123757,0.86722,-0.824616,0.13056,-0.132662
3.540842,-0.098397,0.795234,0.007478,0.042351,0.031899,0.998565,-0.353921,0.116497,0.081387,0.613677,-0.128705,-0.103588,-0.219197,0.028712,-0.135959,0.344485,-0.185313,-0.021104,0.02266,0.081389,-0.021433,0.020764,0.129905,-0.372319,0.824249,0.799498,0.177932,0.236681,0.037902,-0.114717,0.119969,0.875919,-0.826595,0.129285,-0.134147
3.539532,-0.098436,0.794165,0.00386,0.042436,0.041811,0.9982160000000002,-0.364667,0.150143,0.112929,0.680301,-0.124268,-0.111383,-0.2229,0.027476,-0.156053,0.351606,-0.19046,-0.019812,0.021446,0.085901,-0.021923,0.023748,0.138668,-0.371601,0.820222,0.800132,0.18165,0.225082,0.038269,-0.109704,0.114058,0.881922,-0.827105,0.127803,-0.136933
3.538305,-0.09838400000000001,0.79304,-7.5e-05,0.042654,0.054402,0.997608,-0.375504,0.189814,0.148544,0.744805,-0.118227,-0.114251,-0.22521,0.024826,-0.180707,0.356621,-0.1952,-0.018528,0.019223,0.090617,-0.02304,0.025032,0.146314,-0.36968,0.816478,0.800603,0.186877,0.218191,0.041408,-0.104106,0.106672,0.88646,-0.82653,0.126231,-0.140566
3.537243,-0.09818,0.792008,-0.00355,0.042638,0.068314,0.996746,-0.38416,0.228418,0.179315,0.799671,-0.115399,-0.119718,-0.225507,0.020214,-0.207232,0.359806,-0.199506,-0.017352,0.016693,0.095287,-0.024543,0.025119,0.151862,-0.3672,0.813581,0.800664,0.193888,0.217182,0.046228,-0.099069,0.09999400000000001,0.891014,-0.826463,0.124745,-0.143296
3.536402,-0.09770400000000001,0.791235,-0.006237,0.042318,0.082547,0.995669,-0.385936,0.265571,0.208273,0.834497,-0.115549,-0.122145,-0.224396,0.013417,-0.233582,0.36272,-0.203801,-0.016005,0.014301,0.09970300000000001,-0.026454,0.021586,0.155797,-0.366217,0.815834,0.79855,0.201219,0.221347,0.05647,-0.097424,0.095786,0.896768,-0.828348,0.119037,-0.146368
3.535822,-0.096897,0.790923,-0.007662,0.041694,0.096337,0.994446,-0.382421,0.291508,0.228361,0.843596,-0.108205,-0.121147,-0.221078,0.004195,-0.258304,0.363917,-0.207312,-0.014243,0.013201,0.103396,-0.028654,0.018662,0.157223,-0.365703,0.817596,0.797202,0.209181,0.227165,0.06144,-0.096028,0.09398500000000001,0.902606,-0.832875,0.118229,-0.1455
3.535465,-0.09566400000000001,0.790915,-0.0089,0.04104,0.110464,0.992993,-0.370179,0.311799,0.250911,0.823098,-0.117548,-0.119833,-0.217107,-0.006487,-0.283168,0.365592,-0.210943,-0.011829,0.013166,0.106375,-0.031428,0.012611,0.157515,-0.362885,0.821581,0.795065,0.214718,0.23195,0.06095,-0.090963,0.094952,0.900519,-0.837792,0.129105,-0.140293
3.535373,-0.094165,0.791474,-0.00868,0.040799,0.125304,0.991241,-0.348164,0.33047,0.287983,0.773076,-0.128579,-0.116112,-0.209422,-0.019696,-0.30836,0.360446,-0.211621,-0.008845,0.013867,0.108268,-0.035136,0.007509,0.150139,-0.35819,0.822104,0.791754,0.221041,0.236561,0.070689,-0.091011,0.097289,0.891796,-0.838274,0.135415,-0.141108
3.535475,-0.092347,0.792361,-0.00814,0.041091,0.141088,0.98911,-0.315107,0.353213,0.352969,0.696514,-0.131325,-0.110104,-0.199482,-0.033782,-0.335033,0.350715,-0.210229,-0.005152,0.014815,0.109312,-0.039727,0.0052,0.143057,-0.35086,0.819797,0.785658,0.221816,0.240277,0.079957,-0.093466,0.097549,0.884998,-0.835748,0.137615,-0.145802
3.535704,-0.090201,0.793151,-0.007767,0.041797,0.15737,0.986624,-0.274637,0.368117,0.433175,0.600284,-0.124174,-0.095751,-0.1879,-0.047567,-0.362965,0.337705,-0.207242,-0.000748,0.016582,0.10991,-0.044751,0.003919,0.135615,-0.34463,0.817115,0.780316,0.21973,0.243323,0.088918,-0.097304,0.097173,0.879488,-0.831929,0.137737,-0.151604
3.536005,-0.08771,0.792876,-0.007777,0.042215,0.173662,0.9838690000000001,-0.237495,0.364748,0.495345,0.501618,-0.093767,-0.087518,-0.17452,-0.060391,-0.391496,0.323594,-0.203767,0.00439,0.020237,0.109915,-0.049186,0.002378,0.128285,-0.342547,0.816291,0.77848,0.216817,0.245139,0.098161,-0.102089,0.09645500000000001,0.874235,-0.827451,0.137245,-0.155795
3.536499,-0.085284,0.793897,-0.007985,0.041725,0.189812,0.980901,-0.208519,0.344041,0.519461,0.415304,-0.063353,-0.085402,-0.158054,-0.071844,-0.420299,0.308797,-0.199416,0.010017,0.025767,0.109239,-0.052508,0.000272,0.121008,-0.345089,0.818426,0.779839,0.21365,0.245174,0.108045,-0.107513,0.094694,0.868782,-0.822177,0.137054,-0.157935
3.537023,-0.082234,0.793248,-0.008708,0.039624,0.205277,0.977863,-0.188333,0.316194,0.499945,0.35509,-0.057174,-0.101738,-0.139793,-0.081665,-0.448413,0.297622,-0.196862,0.015988,0.032345,0.107482,-0.054377,-0.00139,0.11533,-0.350542,0.823212,0.782928,0.21039,0.243296,0.117932,-0.112162,0.092023,0.864592,-0.816526,0.137989,-0.159202
3.537857,-0.07884,0.79404,-0.008803,0.036684,0.220209,0.974723,-0.171115,0.291764,0.475807,0.311835,-0.050733,-0.109434,-0.119168,-0.091341,-0.4755,0.286496,-0.193489,0.0222,0.037708,0.104658,-0.055522,-0.001082,0.110437,-0.356301,0.829468,0.786258,0.207194,0.240768,0.125746,-0.11655,0.089277,0.863728,-0.81236,0.141659,-0.160288
3.538642,-0.075181,0.794945,-0.008374,0.033509,0.233745,0.9716840000000002,-0.156163,0.270636,0.452936,0.279164,-0.043126,-0.114259,-0.099531,-0.101693,-0.499998,0.27849,-0.190674,0.028898,0.042268,0.100507,-0.056286,0.002044,0.106875,-0.359078,0.835561,0.788781,0.204664,0.239318,0.129867,-0.119715,0.087023,0.867164,-0.810448,0.148691,-0.160362
3.539245,-0.071252,0.795734,-0.007549,0.030791,0.246024,0.968745,-0.144771,0.251777,0.432836,0.255919,-0.036876,-0.114909,-0.08245,-0.11332,-0.522158,0.273856,-0.188615,0.036219,0.046624,0.095322,-0.057133,0.007629,0.104069,-0.356707,0.84074,0.78896,0.202757,0.239679,0.13043,-0.121011,0.084505,0.872674,-0.809523,0.157638,-0.158708
3.539622,-0.067158,0.796354,-0.006569,0.028713,0.257487,0.965833,-0.138433,0.234617,0.413131,0.242617,-0.034012,-0.110434,-0.067238,-0.125486,-0.543078,0.270257,-0.186518,0.0441,0.051177,0.08951,-0.058242,0.014217,0.101665,-0.349814,0.846075,0.786753,0.201531,0.241187,0.128997,-0.120431,0.08162,0.876321,-0.808029,0.165156,-0.155765
3.539819,-0.063027,0.796811,-0.005783,0.027095,0.268505,0.96288,-0.13645,0.219513,0.393361,0.237394,-0.03429,-0.105923,-0.0529,-0.136963,-0.563583,0.266193,-0.184037,0.05238,0.055772,0.08349,-0.059532,0.020078,0.100123,-0.341166,0.853514,0.784481,0.2017,0.24315,0.127094,-0.118666,0.079854,0.875335,-0.805724,0.167809,-0.153176
